; generated by Slic3r 1.37.2.1-prusa3d-win64 on 2018-05-21 at 13:33:17

; 

; external perimeters extrusion width = 0.45mm
; perimeters extrusion width = 0.45mm
; infill extrusion width = 0.45mm
; solid infill extrusion width = 0.45mm
; top infill extrusion width = 0.40mm
; first layer extrusion width = 0.42mm

M107 ; disable fan
M115 U3.1.1-RC5 ; tell printer latest fw version
M83  ; extruder relative mode
M104 S215 ; set extruder temp
M140 S60 ; set bed temp
M190 S60 ; wait for bed temp
M109 S215 ; wait for extruder temp
G28 W ; home all without mesh bed level
G80 ; mesh bed leveling
G1 Y-3.0 F1000.0 ; go outside print area
G92 E0.0
G1 X60.0 E9.0  F1000.0 ; intro line
G1 X100.0 E12.5  F1000.0 ; intro line
G92 E0.0
M221 S95
M900 K30
G21 ; set units to millimeters
G90 ; use absolute coordinates
M83 ; use relative distances for extrusion
;BEFORE_LAYER_CHANGE
;0.2


G1 E-0.80000 F2100.00000 ; retract
G1 Z0.600 F12000.000 ; lift Z
;AFTER_LAYER_CHANGE
;0.2
G1 X110.887 Y27.238 F12000.000 ; move to first skirt point
G1 Z0.200 F12000.000 ; restore layer Z
G1 E0.80000 F2100.00000 ; unretract
M204 S1000 ; adjust acceleration
G1 F1800
G1 X111.627 Y27.023 E0.02414 ; skirt
G1 X140.092 Y27.005 E0.89251 ; skirt
G1 X140.990 Y27.183 E0.02872 ; skirt
G1 X141.758 Y27.691 E0.02884 ; skirt
G1 X142.273 Y28.448 E0.02872 ; skirt
G1 X142.465 Y29.347 E0.02884 ; skirt
G1 X142.426 Y181.046 E4.75640 ; skirt
G1 X142.159 Y181.784 E0.02461 ; skirt
G1 X141.667 Y182.395 E0.02461 ; skirt
G1 X141.002 Y182.812 E0.02461 ; skirt
G1 X140.234 Y182.990 E0.02473 ; skirt
G1 X111.484 Y182.956 E0.90143 ; skirt
G1 X110.912 Y182.774 E0.01882 ; skirt
G1 X110.404 Y182.455 E0.01882 ; skirt
G1 X108.165 Y180.230 E0.09896 ; skirt
G1 X107.709 Y179.510 E0.02673 ; skirt
G1 X107.536 Y178.679 E0.02661 ; skirt
G1 X107.574 Y30.954 E4.63180 ; skirt
G1 X107.754 Y30.386 E0.01870 ; skirt
G1 X108.072 Y29.877 E0.01882 ; skirt
G1 X110.256 Y27.678 E0.09717 ; skirt
G1 X110.838 Y27.272 E0.02226 ; skirt
G1 F9600
G1 X111.627 Y27.023 E-0.17184 ; wipe and retract
G1 F9600
G1 X114.457 Y27.021 E-0.58816 ; wipe and retract
G1 E-0.04000 F2100.00000 ; retract
G1 Z0.800 F12000.000 ; lift Z
G1 X112.825 Y140.660 F12000.000 ; move to first perimeter point
G1 Z0.200 F12000.000 ; restore layer Z
G1 E0.80000 F2100.00000 ; unretract
G1 F1800
G1 X125.175 Y140.660 E0.38723 ; perimeter
G1 X125.175 Y148.080 E0.23262 ; perimeter
G1 X112.825 Y148.080 E0.38723 ; perimeter
G1 X112.825 Y140.720 E0.23074 ; perimeter
G1 X113.202 Y141.038 F12000.000 ; move to first perimeter point
G1 F1800
G1 X124.798 Y141.038 E0.36358 ; perimeter
G1 X124.798 Y147.702 E0.20898 ; perimeter
G1 X113.202 Y147.702 E0.36358 ; perimeter
G1 X113.202 Y141.098 E0.20709 ; perimeter
G1 X113.065 Y140.662 F12000.000 ; move inwards before travel
G1 X112.499 Y141.098 F12000.000 ; move to first perimeter point
G1 F1800
G1 X112.499 Y141.004 E0.00292 ; perimeter
G1 X110.499 Y139.004 E0.08868 ; perimeter
G1 X110.499 Y115.601 E0.73381 ; perimeter
G1 X110.546 Y114.446 E0.03622 ; perimeter
G1 X110.689 Y113.279 E0.03689 ; perimeter
G1 X110.918 Y112.157 E0.03590 ; perimeter
G1 X111.237 Y111.056 E0.03594 ; perimeter
G1 X111.485 Y110.487 E0.01945 ; perimeter
G1 X111.822 Y109.983 E0.01900 ; perimeter
G1 X112.243 Y109.547 E0.01900 ; perimeter
G1 X112.325 Y109.488 E0.00319 ; perimeter
G1 X112.325 Y120.900 E0.35781 ; perimeter
G1 X125.501 Y120.900 E0.41312 ; perimeter
G1 X125.501 Y128.660 E0.24334 ; perimeter
G1 X112.325 Y128.660 E0.41312 ; perimeter
G1 X112.325 Y140.335 E0.36603 ; perimeter
G1 X126.361 Y140.335 E0.44008 ; perimeter
G1 X126.361 Y140.660 E0.01022 ; perimeter
G1 X125.501 Y140.660 E0.02696 ; perimeter
G1 X125.501 Y148.595 E0.24880 ; perimeter
G1 X112.325 Y148.595 E0.41312 ; perimeter
G1 X112.325 Y160.270 E0.36603 ; perimeter
G1 X125.501 Y160.270 E0.41312 ; perimeter
G1 X125.501 Y168.030 E0.24334 ; perimeter
G1 X112.325 Y168.030 E0.41312 ; perimeter
G1 X112.325 Y179.705 E0.36603 ; perimeter
G1 X126.361 Y179.705 E0.44008 ; perimeter
G1 X126.361 Y180.030 E0.01022 ; perimeter
G1 X112.155 Y180.030 E0.44541 ; perimeter
G1 X110.499 Y178.374 E0.07343 ; perimeter
G1 X110.499 Y149.736 E0.89795 ; perimeter
G1 X112.499 Y147.736 E0.08868 ; perimeter
G1 X112.499 Y141.158 E0.20625 ; perimeter
G1 F9600
G1 X112.499 Y141.004 E-0.03183 ; wipe and retract
G1 F9600
G1 X110.499 Y139.004 E-0.58778 ; wipe and retract
G1 F9600
G1 X110.499 Y138.329 E-0.14039 ; wipe and retract
G1 E-0.04000 F2100.00000 ; retract
G1 Z0.800 F12000.000 ; lift Z
G1 X115.391 Y108.710 F12000.000 ; move to first perimeter point
G1 Z0.200 F12000.000 ; restore layer Z
G1 E0.80000 F2100.00000 ; unretract
G1 F1800
G1 X115.391 Y101.290 E0.23262 ; perimeter
G1 X125.175 Y101.290 E0.30677 ; perimeter
G1 X125.175 Y108.710 E0.23262 ; perimeter
G1 X115.451 Y108.710 E0.30489 ; perimeter
G1 X115.768 Y108.332 F12000.000 ; move to first perimeter point
G1 F1800
G1 X115.768 Y101.668 E0.20898 ; perimeter
G1 X124.798 Y101.668 E0.28313 ; perimeter
G1 X124.798 Y108.332 E0.20898 ; perimeter
G1 X115.828 Y108.332 E0.28125 ; perimeter
G1 X115.377 Y108.417 F12000.000 ; move inwards before travel
G1 F9600
G1 X115.795 Y104.676 E-0.76000 ; wipe and retract
G1 E-0.04000 F2100.00000 ; retract
G1 Z0.800 F12000.000 ; lift Z
G1 X125.501 Y101.290 F12000.000 ; move to first perimeter point
G1 Z0.200 F12000.000 ; restore layer Z
G1 E0.80000 F2100.00000 ; unretract
G1 F1800
G1 X125.501 Y109.225 E0.24880 ; perimeter
G1 X112.689 Y109.225 E0.40171 ; perimeter
G1 X113.289 Y108.926 E0.02104 ; perimeter
G1 X113.866 Y108.768 E0.01875 ; perimeter
G1 X115.065 Y108.658 E0.03776 ; perimeter
G1 X115.065 Y101.342 E0.22941 ; perimeter
G1 X113.866 Y101.232 E0.03776 ; perimeter
G1 X113.289 Y101.074 E0.01875 ; perimeter
G1 X113.060 Y100.965 E0.00798 ; perimeter
G1 X126.361 Y100.965 E0.41705 ; perimeter
G1 X126.361 Y101.290 E0.01022 ; perimeter
G1 X125.561 Y101.290 E0.02508 ; perimeter
G1 F9600
G1 X125.533 Y104.947 E-0.76000 ; wipe and retract
G1 E-0.04000 F2100.00000 ; retract
G1 Z0.800 F12000.000 ; lift Z
G1 X125.175 Y69.340 F12000.000 ; move to first perimeter point
G1 Z0.200 F12000.000 ; restore layer Z
G1 E0.80000 F2100.00000 ; unretract
G1 F1800
G1 X112.825 Y69.340 E0.38723 ; perimeter
G1 X112.825 Y61.920 E0.23262 ; perimeter
G1 X125.175 Y61.920 E0.38723 ; perimeter
G1 X125.175 Y69.280 E0.23074 ; perimeter
G1 X124.798 Y68.963 F12000.000 ; move to first perimeter point
G1 F1800
G1 X113.202 Y68.963 E0.36358 ; perimeter
G1 X113.202 Y62.298 E0.20898 ; perimeter
G1 X124.798 Y62.298 E0.36358 ; perimeter
G1 X124.798 Y68.903 E0.20710 ; perimeter
G1 X124.935 Y69.338 F12000.000 ; move inwards before travel
G1 F9600
G1 X121.141 Y68.921 E-0.76000 ; wipe and retract
G1 E-0.04000 F2100.00000 ; retract
G1 Z0.800 F12000.000 ; lift Z
G1 X112.325 Y30.485 F12000.000 ; move to first perimeter point
G1 Z0.200 F12000.000 ; restore layer Z
G1 E0.80000 F2100.00000 ; unretract
G1 F1800
G1 X112.325 Y42.160 E0.36604 ; perimeter
G1 X125.501 Y42.160 E0.41312 ; perimeter
G1 X125.501 Y49.920 E0.24334 ; perimeter
G1 X112.325 Y49.920 E0.41312 ; perimeter
G1 X112.325 Y61.595 E0.36603 ; perimeter
G1 X126.361 Y61.595 E0.44008 ; perimeter
G1 X126.361 Y61.920 E0.01022 ; perimeter
G1 X125.501 Y61.920 E0.02696 ; perimeter
G1 X125.501 Y69.855 E0.24880 ; perimeter
G1 X112.325 Y69.855 E0.41312 ; perimeter
G1 X112.325 Y81.530 E0.36603 ; perimeter
G1 X125.501 Y81.530 E0.41312 ; perimeter
G1 X125.501 Y89.290 E0.24334 ; perimeter
G1 X112.325 Y89.290 E0.41312 ; perimeter
G1 X112.325 Y100.512 E0.35185 ; perimeter
G1 X112.243 Y100.453 E0.00319 ; perimeter
G1 X111.822 Y100.017 E0.01900 ; perimeter
G1 X111.485 Y99.513 E0.01900 ; perimeter
G1 X111.237 Y98.945 E0.01944 ; perimeter
G1 X110.915 Y97.828 E0.03644 ; perimeter
G1 X110.686 Y96.706 E0.03590 ; perimeter
G1 X110.546 Y95.554 E0.03639 ; perimeter
G1 X110.499 Y94.382 E0.03676 ; perimeter
G1 X110.499 Y70.996 E0.73327 ; perimeter
G1 X112.499 Y68.996 E0.08868 ; perimeter
G1 X112.499 Y62.264 E0.21106 ; perimeter
G1 X110.499 Y60.264 E0.08868 ; perimeter
G1 X110.499 Y31.626 E0.89794 ; perimeter
G1 X112.155 Y29.970 E0.07343 ; perimeter
G1 X125.501 Y29.970 E0.41845 ; perimeter
G1 X125.501 Y30.485 E0.01617 ; perimeter
G1 X112.385 Y30.485 E0.41124 ; perimeter
G1 X112.702 Y30.863 F12000.000 ; move to first perimeter point
G1 F1800
G1 X112.702 Y41.783 E0.34239 ; perimeter
G1 X125.878 Y41.783 E0.41312 ; perimeter
G1 X125.878 Y50.298 E0.26698 ; perimeter
G1 X112.702 Y50.298 E0.41312 ; perimeter
G1 X112.702 Y61.217 E0.34239 ; perimeter
G1 X126.738 Y61.217 E0.44008 ; perimeter
G1 X126.738 Y62.298 E0.03386 ; perimeter
G1 X125.878 Y62.298 E0.02696 ; perimeter
G1 X125.878 Y70.233 E0.24880 ; perimeter
G1 X112.702 Y70.233 E0.41312 ; perimeter
G1 X112.702 Y81.152 E0.34239 ; perimeter
G1 X125.878 Y81.152 E0.41312 ; perimeter
G1 X125.878 Y89.668 E0.26698 ; perimeter
G1 X112.702 Y89.668 E0.41312 ; perimeter
G1 X112.702 Y100.587 E0.34239 ; perimeter
G1 X126.738 Y100.587 E0.44008 ; perimeter
G1 X126.738 Y101.668 E0.03386 ; perimeter
G1 X125.878 Y101.668 E0.02696 ; perimeter
G1 X125.878 Y109.603 E0.24880 ; perimeter
G1 X112.702 Y109.603 E0.41312 ; perimeter
G1 X112.702 Y120.522 E0.34239 ; perimeter
G1 X125.878 Y120.522 E0.41312 ; perimeter
G1 X125.878 Y129.038 E0.26698 ; perimeter
G1 X112.702 Y129.038 E0.41312 ; perimeter
G1 X112.702 Y139.957 E0.34239 ; perimeter
G1 X126.738 Y139.957 E0.44008 ; perimeter
G1 X126.738 Y141.038 E0.03386 ; perimeter
G1 X125.878 Y141.038 E0.02696 ; perimeter
G1 X125.878 Y148.973 E0.24880 ; perimeter
G1 X112.702 Y148.973 E0.41312 ; perimeter
G1 X112.702 Y159.892 E0.34239 ; perimeter
G1 X125.878 Y159.892 E0.41312 ; perimeter
G1 X125.878 Y168.408 E0.26698 ; perimeter
G1 X112.702 Y168.408 E0.41312 ; perimeter
G1 X112.702 Y179.327 E0.34239 ; perimeter
G1 X126.738 Y179.327 E0.44008 ; perimeter
G1 X126.738 Y180.408 E0.03386 ; perimeter
G1 X111.999 Y180.408 E0.46213 ; perimeter
G1 X110.122 Y178.531 E0.08323 ; perimeter
G1 X110.122 Y149.579 E0.90774 ; perimeter
G1 X112.122 Y147.579 E0.08868 ; perimeter
G1 X112.122 Y141.161 E0.20126 ; perimeter
G1 X110.122 Y139.161 E0.08868 ; perimeter
G1 X110.122 Y115.593 E0.73895 ; perimeter
G1 X110.170 Y114.416 E0.03694 ; perimeter
G1 X110.317 Y113.218 E0.03784 ; perimeter
G1 X110.552 Y112.066 E0.03685 ; perimeter
G1 X110.882 Y110.927 E0.03718 ; perimeter
G1 X111.153 Y110.306 E0.02127 ; perimeter
G1 X111.527 Y109.746 E0.02111 ; perimeter
G1 X111.995 Y109.261 E0.02112 ; perimeter
G1 X112.550 Y108.861 E0.02145 ; perimeter
G1 X113.157 Y108.571 E0.02111 ; perimeter
G1 X113.798 Y108.395 E0.02085 ; perimeter
G1 X114.688 Y108.314 E0.02801 ; perimeter
G1 X114.688 Y101.686 E0.20782 ; perimeter
G1 X113.798 Y101.605 E0.02801 ; perimeter
G1 X113.157 Y101.429 E0.02085 ; perimeter
G1 X112.550 Y101.139 E0.02111 ; perimeter
G1 X111.995 Y100.739 E0.02145 ; perimeter
G1 X111.527 Y100.254 E0.02112 ; perimeter
G1 X111.153 Y99.694 E0.02111 ; perimeter
G1 X110.882 Y99.073 E0.02126 ; perimeter
G1 X110.548 Y97.918 E0.03768 ; perimeter
G1 X110.314 Y96.767 E0.03685 ; perimeter
G1 X110.170 Y95.584 E0.03735 ; perimeter
G1 X110.122 Y94.390 E0.03748 ; perimeter
G1 X110.122 Y70.839 E0.73841 ; perimeter
G1 X112.122 Y68.839 E0.08868 ; perimeter
G1 X112.122 Y62.421 E0.20126 ; perimeter
G1 X110.122 Y60.421 E0.08868 ; perimeter
G1 X110.122 Y31.469 E0.90774 ; perimeter
G1 X111.999 Y29.593 E0.08323 ; perimeter
G1 X125.878 Y29.593 E0.43517 ; perimeter
G1 X125.878 Y30.863 E0.03982 ; perimeter
G1 X112.762 Y30.863 E0.41124 ; perimeter
G1 X112.302 Y30.875 F12000.000 ; move inwards before travel
G1 X112.164 Y30.228 F12000.000 ; move to first infill point
G1 F1800
G1 X125.312 Y30.228 E0.10478 ; infill
G1 F9600
G1 X121.655 Y30.228 E-0.76000 ; wipe and retract
G1 E-0.04000 F2100.00000 ; retract
G1 Z0.800 F12000.000 ; lift Z
G1 X125.388 Y43.041 F12000.000 ; move to first infill point
G1 Z0.200 F12000.000 ; restore layer Z
G1 E0.80000 F2100.00000 ; unretract
G1 F1800
G1 X124.789 Y42.442 E0.02676 ; infill
G1 X124.252 Y42.442 E0.01698 ; infill
G1 X125.218 Y43.409 E0.04320 ; infill
G1 X125.218 Y43.946 E0.01698 ; infill
G1 X123.714 Y42.442 E0.06722 ; infill
G1 X123.177 Y42.442 E0.01698 ; infill
G1 X125.218 Y44.484 E0.09124 ; infill
G1 X125.218 Y45.021 E0.01698 ; infill
G1 X122.639 Y42.442 E0.11525 ; infill
G1 X122.102 Y42.442 E0.01698 ; infill
G1 X125.218 Y45.559 E0.13927 ; infill
G1 X125.218 Y46.096 E0.01698 ; infill
G1 X121.564 Y42.442 E0.16329 ; infill
G1 X121.027 Y42.442 E0.01698 ; infill
G1 X125.218 Y46.634 E0.18731 ; infill
G1 X125.218 Y47.171 E0.01698 ; infill
G1 X120.489 Y42.442 E0.21133 ; infill
G1 X119.952 Y42.442 E0.01698 ; infill
G1 X125.218 Y47.709 E0.23535 ; infill
G1 X125.218 Y48.246 E0.01698 ; infill
G1 X119.414 Y42.442 E0.25937 ; infill
G1 X118.877 Y42.442 E0.01698 ; infill
G1 X125.218 Y48.784 E0.28338 ; infill
G1 X125.218 Y49.321 E0.01698 ; infill
G1 X118.340 Y42.442 E0.30740 ; infill
G1 X117.802 Y42.442 E0.01698 ; infill
G1 X124.997 Y49.638 E0.32155 ; infill
G1 X124.460 Y49.638 E0.01698 ; infill
G1 X117.265 Y42.442 E0.32155 ; infill
G1 X116.727 Y42.442 E0.01698 ; infill
G1 X123.922 Y49.638 E0.32155 ; infill
G1 X123.385 Y49.638 E0.01698 ; infill
G1 X116.190 Y42.442 E0.32155 ; infill
G1 X115.652 Y42.442 E0.01698 ; infill
G1 X122.848 Y49.638 E0.32155 ; infill
G1 X122.310 Y49.638 E0.01698 ; infill
G1 X115.115 Y42.442 E0.32155 ; infill
G1 X114.577 Y42.442 E0.01698 ; infill
G1 X121.773 Y49.638 E0.32155 ; infill
G1 X121.235 Y49.638 E0.01698 ; infill
G1 X114.040 Y42.442 E0.32155 ; infill
G1 X113.502 Y42.442 E0.01698 ; infill
G1 X120.698 Y49.638 E0.32155 ; infill
G1 X120.160 Y49.638 E0.01698 ; infill
G1 X112.965 Y42.442 E0.32155 ; infill
G1 X112.428 Y42.442 E0.01698 ; infill
G1 X119.623 Y49.638 E0.32155 ; infill
G1 X119.085 Y49.638 E0.01698 ; infill
G1 X110.782 Y41.334 E0.37108 ; infill
G1 X110.782 Y40.797 E0.01698 ; infill
G1 X112.042 Y42.057 E0.05632 ; infill
G1 X112.042 Y41.520 E0.01698 ; infill
G1 X110.782 Y40.259 E0.05632 ; infill
G1 X110.782 Y39.722 E0.01698 ; infill
G1 X112.042 Y40.982 E0.05632 ; infill
G1 X112.042 Y40.445 E0.01698 ; infill
G1 X110.782 Y39.184 E0.05632 ; infill
G1 X110.782 Y38.647 E0.01698 ; infill
G1 X112.042 Y39.907 E0.05632 ; infill
G1 X112.042 Y39.370 E0.01698 ; infill
G1 X110.782 Y38.109 E0.05632 ; infill
G1 X110.782 Y37.572 E0.01698 ; infill
G1 X112.042 Y38.832 E0.05632 ; infill
G1 X112.042 Y38.295 E0.01698 ; infill
G1 X110.782 Y37.035 E0.05632 ; infill
G1 X110.782 Y36.497 E0.01698 ; infill
G1 X112.042 Y37.757 E0.05632 ; infill
G1 X112.042 Y37.220 E0.01698 ; infill
G1 X110.782 Y35.960 E0.05632 ; infill
G1 X110.782 Y35.422 E0.01698 ; infill
G1 X112.042 Y36.682 E0.05632 ; infill
G1 X112.042 Y36.145 E0.01698 ; infill
G1 X110.782 Y34.885 E0.05632 ; infill
G1 X110.782 Y34.347 E0.01698 ; infill
G1 X112.042 Y35.608 E0.05632 ; infill
G1 X112.042 Y35.070 E0.01698 ; infill
G1 X110.782 Y33.810 E0.05632 ; infill
G1 X110.782 Y33.272 E0.01698 ; infill
G1 X112.042 Y34.533 E0.05632 ; infill
G1 X112.042 Y33.995 E0.01698 ; infill
G1 X110.782 Y32.735 E0.05632 ; infill
G1 X110.782 Y32.197 E0.01698 ; infill
G1 X112.042 Y33.458 E0.05632 ; infill
G1 X112.042 Y32.920 E0.01698 ; infill
G1 X110.823 Y31.701 E0.05447 ; infill
G1 X111.092 Y31.433 E0.01201 ; infill
G1 X112.042 Y32.383 E0.04246 ; infill
G1 X112.042 Y31.845 E0.01698 ; infill
G1 X111.361 Y31.164 E0.03045 ; infill
G1 X111.629 Y30.895 E0.01201 ; infill
G1 X112.042 Y31.308 E0.01844 ; infill
G1 X112.042 Y30.770 E0.01698 ; infill
G1 X111.778 Y30.507 E0.01179 ; infill
G1 F9600
G1 X112.042 Y30.770 E-0.07757 ; wipe and retract
G1 F9600
G1 X112.042 Y31.308 E-0.11169 ; wipe and retract
G1 F9600
G1 X111.629 Y30.895 E-0.12128 ; wipe and retract
G1 F9600
G1 X111.361 Y31.164 E-0.07898 ; wipe and retract
G1 F9600
G1 X112.042 Y31.845 E-0.20026 ; wipe and retract
G1 F9600
G1 X112.042 Y32.383 E-0.11169 ; wipe and retract
G1 F9600
G1 X111.843 Y32.184 E-0.05854 ; wipe and retract
G1 E-0.04000 F2100.00000 ; retract
G1 Z0.800 F12000.000 ; lift Z
G1 X118.718 Y49.807 F12000.000 ; move to first infill point
G1 Z0.200 F12000.000 ; restore layer Z
G1 E0.80000 F2100.00000 ; unretract
G1 F1800
