; generated by Slic3r 1.37.2.1-prusa3d-win64 on 2018-05-16 at 12:31:06

; 

; external perimeters extrusion width = 0.45mm
; perimeters extrusion width = 0.45mm
; infill extrusion width = 0.45mm
; solid infill extrusion width = 0.45mm
; top infill extrusion width = 0.40mm
; support material extrusion width = 0.35mm
; first layer extrusion width = 0.42mm

M107 ; disable fan
M115 U3.1.1-RC5 ; tell printer latest fw version
M83  ; extruder relative mode
M104 S215 ; set extruder temp
M140 S60 ; set bed temp
M190 S60 ; wait for bed temp
M109 S215 ; wait for extruder temp
G28 W ; home all without mesh bed level
G80 ; mesh bed leveling
G1 Y-3.0 F1000.0 ; go outside print area
G92 E0.0
G1 X60.0 E9.0  F1000.0 ; intro line
G1 X100.0 E12.5  F1000.0 ; intro line
G92 E0.0
M221 S95
M900 K30
G21 ; set units to millimeters
G90 ; use absolute coordinates
M83 ; use relative distances for extrusion
;BEFORE_LAYER_CHANGE
;0.2


G1 E-0.80000 F2100.00000 ; retract
G1 Z0.600 F12000.000 ; lift Z
;AFTER_LAYER_CHANGE
;0.2
G1 X40.548 Y86.468 F12000.000 ; move to first skirt point
G1 Z0.200 F12000.000 ; restore layer Z
G1 E0.80000 F2100.00000 ; unretract
M204 S1000 ; adjust acceleration
G1 F1800
G1 X41.774 Y84.855 E0.06353 ; skirt
G1 X44.781 Y81.906 E0.13205 ; skirt
G1 X45.617 Y81.284 E0.03267 ; skirt
G1 X46.512 Y80.749 E0.03267 ; skirt
G1 X47.455 Y80.307 E0.03267 ; skirt
G1 X48.438 Y79.961 E0.03267 ; skirt
G1 X49.875 Y79.645 E0.04612 ; skirt
G1 X51.350 Y79.535 E0.04637 ; skirt
G1 X198.625 Y79.535 E4.61772 ; skirt
G1 X200.014 Y79.629 E0.04364 ; skirt
G1 X201.385 Y79.911 E0.04388 ; skirt
G1 X202.706 Y80.374 E0.04388 ; skirt
G1 X203.945 Y81.007 E0.04364 ; skirt
G1 X204.875 Y81.634 E0.03517 ; skirt
G1 X205.732 Y82.358 E0.03517 ; skirt
G1 X208.117 Y84.740 E0.10569 ; skirt
G1 X208.934 Y85.705 E0.03965 ; skirt
G1 X209.705 Y86.902 E0.04463 ; skirt
G1 X210.305 Y88.192 E0.04463 ; skirt
G1 X214.526 Y99.718 E0.38484 ; skirt
G1 X214.971 Y101.434 E0.05558 ; skirt
G1 X215.116 Y103.097 E0.05234 ; skirt
G1 X215.116 Y123.231 E0.63130 ; skirt
G1 X215.048 Y124.375 E0.03591 ; skirt
G1 X214.854 Y125.503 E0.03591 ; skirt
G1 X214.461 Y126.814 E0.04289 ; skirt
G1 X213.899 Y128.061 E0.04289 ; skirt
G1 X213.178 Y129.223 E0.04289 ; skirt
G1 X212.304 Y130.286 E0.04314 ; skirt
G1 X211.305 Y131.220 E0.04289 ; skirt
G1 X210.184 Y132.018 E0.04314 ; skirt
G1 X208.974 Y132.657 E0.04289 ; skirt
G1 X207.684 Y133.134 E0.04314 ; skirt
G1 X206.279 Y133.446 E0.04513 ; skirt
G1 X204.844 Y133.560 E0.04513 ; skirt
G1 X46.771 Y134.784 E4.95641 ; skirt
G1 X45.167 Y134.604 E0.05060 ; skirt
G1 X43.603 Y134.176 E0.05085 ; skirt
G1 X42.132 Y133.512 E0.05060 ; skirt
G1 X40.775 Y132.624 E0.05085 ; skirt
G1 X39.578 Y131.541 E0.05060 ; skirt
G1 X38.560 Y130.279 E0.05085 ; skirt
G1 X37.750 Y128.873 E0.05085 ; skirt
G1 X37.170 Y127.359 E0.05085 ; skirt
G1 X36.854 Y125.930 E0.04588 ; skirt
G1 X36.743 Y124.463 E0.04612 ; skirt
G1 X36.744 Y100.772 E0.74283 ; skirt
G1 X36.820 Y99.621 E0.03616 ; skirt
G1 X37.024 Y98.486 E0.03616 ; skirt
G1 X39.425 Y88.991 E0.30709 ; skirt
G1 X39.902 Y87.692 E0.04339 ; skirt
G1 X40.520 Y86.521 E0.04150 ; skirt
G1 F9600
G1 X41.774 Y84.855 E-0.43337 ; wipe and retract
G1 F9600
G1 X42.896 Y83.754 E-0.32663 ; wipe and retract
G1 E-0.04000 F2100.00000 ; retract
G1 Z0.800 F12000.000 ; lift Z
G1 X209.055 Y95.750 F12000.000 ; move to first brim point
G1 Z0.200 F12000.000 ; restore layer Z
G1 E0.80000 F2100.00000 ; unretract
G1 F1800
G1 X210.397 Y96.566 E0.04925 ; brim
G1 X212.013 Y98.407 E0.07680 ; brim
G1 X213.212 Y101.182 E0.09479 ; brim
G1 X213.412 Y102.717 E0.04853 ; brim
G1 X213.412 Y123.744 E0.65931 ; brim
G1 X213.019 Y125.844 E0.06699 ; brim
G1 X211.818 Y128.184 E0.08245 ; brim
G1 X210.001 Y130.022 E0.08102 ; brim
G1 X208.509 Y130.907 E0.05441 ; brim
G1 X206.858 Y131.485 E0.05484 ; brim
G1 X204.406 Y131.687 E0.07713 ; brim
G1 X198.013 Y131.677 E0.20047 ; brim
G1 X196.098 Y131.309 E0.06112 ; brim
G1 X193.971 Y130.302 E0.07378 ; brim
G1 X193.135 Y129.597 E0.03431 ; brim
G1 X191.707 Y129.235 E0.04618 ; brim
G1 X190.422 Y128.572 E0.04533 ; brim
G1 X176.858 Y128.572 E0.42529 ; brim
G1 X174.509 Y129.567 E0.08000 ; brim
G1 X172.957 Y129.765 E0.04904 ; brim
G1 X172.304 Y129.755 E0.02050 ; brim
G1 X171.992 Y129.780 E0.00981 ; brim
G1 X155.018 Y129.780 E0.53219 ; brim
G1 X152.450 Y129.154 E0.08288 ; brim
G1 X151.347 Y128.572 E0.03910 ; brim
G1 X137.673 Y128.572 E0.42875 ; brim
G1 X136.192 Y129.283 E0.05151 ; brim
G1 X133.915 Y129.762 E0.07295 ; brim
G1 X133.106 Y129.754 E0.02538 ; brim
G1 X132.777 Y129.780 E0.01035 ; brim
G1 X123.749 Y129.780 E0.28306 ; brim
G1 X115.802 Y129.780 E0.24917 ; brim
G1 X113.234 Y129.154 E0.08288 ; brim
G1 X112.131 Y128.572 E0.03910 ; brim
G1 X98.435 Y128.572 E0.42942 ; brim
G1 X96.947 Y129.293 E0.05186 ; brim
G1 X94.627 Y129.766 E0.07424 ; brim
G1 X80.008 Y129.780 E0.45836 ; brim
G1 X76.839 Y129.780 E0.09935 ; brim
G1 X75.419 Y129.616 E0.04482 ; brim
G1 X72.931 Y128.572 E0.08460 ; brim
G1 X59.234 Y128.572 E0.42947 ; brim
G1 X56.654 Y129.618 E0.08729 ; brim
G1 X55.382 Y129.758 E0.04011 ; brim
G1 X54.661 Y129.755 E0.02261 ; brim
G1 X54.003 Y129.783 E0.02065 ; brim
G1 X52.409 Y131.323 E0.06948 ; brim
G1 X49.915 Y132.681 E0.08906 ; brim
G1 X47.471 Y133.129 E0.07791 ; brim
G1 X45.379 Y132.949 E0.06582 ; brim
G1 X43.189 Y132.167 E0.07292 ; brim
G1 X41.347 Y130.958 E0.06909 ; brim
G1 X39.549 Y128.744 E0.08942 ; brim
G1 X39.093 Y127.769 E0.03374 ; brim
G1 X38.447 Y125.242 E0.08178 ; brim
G1 X38.471 Y100.012 E0.79107 ; brim
G1 X38.887 Y98.077 E0.06207 ; brim
G1 X39.736 Y96.323 E0.06108 ; brim
G1 X40.910 Y94.978 E0.05597 ; brim
G1 X40.942 Y90.991 E0.12502 ; brim
G1 X41.692 Y88.318 E0.08704 ; brim
G1 X43.010 Y86.280 E0.07610 ; brim
G1 X46.556 Y82.926 E0.15302 ; brim
G1 X48.529 Y81.920 E0.06945 ; brim
G1 X50.749 Y81.433 E0.07126 ; brim
G1 X81.070 Y81.431 E0.95069 ; brim
G1 X83.412 Y81.936 E0.07512 ; brim
G1 X85.096 Y82.763 E0.05885 ; brim
G1 X85.616 Y83.194 E0.02118 ; brim
G1 X85.986 Y82.883 E0.01517 ; brim
G1 X87.563 Y82.047 E0.05594 ; brim
G1 X90.154 Y81.428 E0.08353 ; brim
G1 X114.498 Y81.428 E0.76331 ; brim
G1 X116.424 Y81.516 E0.06044 ; brim
G1 X118.307 Y81.757 E0.05953 ; brim
G1 X120.162 Y82.147 E0.05941 ; brim
G1 X122.013 Y82.700 E0.06058 ; brim
G1 X123.902 Y83.544 E0.06489 ; brim
G1 X125.004 Y84.271 E0.04138 ; brim
G1 X126.086 Y83.550 E0.04078 ; brim
G1 X128.008 Y82.692 E0.06599 ; brim
G1 X129.889 Y82.134 E0.06150 ; brim
G1 X131.826 Y81.735 E0.06202 ; brim
G1 X133.820 Y81.496 E0.06298 ; brim
G1 X135.497 Y81.428 E0.05260 ; brim
G1 X159.795 Y81.432 E0.76184 ; brim
G1 X162.168 Y81.940 E0.07611 ; brim
G1 X163.834 Y82.761 E0.05821 ; brim
G1 X164.356 Y83.194 E0.02128 ; brim
G1 X164.726 Y82.883 E0.01518 ; brim
G1 X166.303 Y82.047 E0.05594 ; brim
G1 X168.894 Y81.428 E0.08353 ; brim
G1 X199.011 Y81.428 E0.94429 ; brim
G1 X201.069 Y81.787 E0.06550 ; brim
G1 X204.116 Y83.411 E0.10826 ; brim
G1 X207.006 Y86.313 E0.12841 ; brim
G1 X208.039 Y87.780 E0.05626 ; brim
G1 X209.003 Y90.578 E0.09280 ; brim
G1 X209.054 Y95.690 E0.16029 ; brim
G1 X208.680 Y95.966 F12000.000 ; move to first brim point
G1 F1800
G1 X210.134 Y96.837 E0.05314 ; brim
G1 X211.710 Y98.633 E0.07492 ; brim
G1 X212.855 Y101.306 E0.09117 ; brim
G1 X213.035 Y102.728 E0.04496 ; brim
G1 X213.035 Y123.727 E0.65841 ; brim
G1 X212.670 Y125.698 E0.06284 ; brim
G1 X211.528 Y127.940 E0.07890 ; brim
G1 X209.788 Y129.710 E0.07783 ; brim
G1 X208.333 Y130.573 E0.05304 ; brim
G1 X206.757 Y131.121 E0.05230 ; brim
G1 X204.400 Y131.310 E0.07417 ; brim
G1 X198.031 Y131.300 E0.19967 ; brim
G1 X196.194 Y130.943 E0.05868 ; brim
G1 X194.157 Y129.973 E0.07076 ; brim
G1 X193.312 Y129.252 E0.03480 ; brim
G1 X191.860 Y128.890 E0.04693 ; brim
G1 X190.514 Y128.195 E0.04750 ; brim
G1 X176.781 Y128.195 E0.43059 ; brim
G1 X174.434 Y129.196 E0.07999 ; brim
G1 X172.949 Y129.388 E0.04695 ; brim
G1 X172.291 Y129.378 E0.02063 ; brim
G1 X171.984 Y129.403 E0.00966 ; brim
G1 X155.041 Y129.403 E0.53123 ; brim
G1 X152.564 Y128.794 E0.07999 ; brim
G1 X151.442 Y128.195 E0.03986 ; brim
G1 X137.586 Y128.195 E0.43444 ; brim
G1 X136.091 Y128.919 E0.05209 ; brim
G1 X133.898 Y129.384 E0.07029 ; brim
G1 X133.092 Y129.376 E0.02527 ; brim
G1 X132.769 Y129.403 E0.01017 ; brim
G1 X123.749 Y129.403 E0.28282 ; brim
G1 X115.825 Y129.403 E0.24845 ; brim
G1 X113.347 Y128.794 E0.07999 ; brim
G1 X112.226 Y128.195 E0.03986 ; brim
G1 X98.348 Y128.195 E0.43514 ; brim
G1 X96.847 Y128.929 E0.05237 ; brim
G1 X94.607 Y129.389 E0.07170 ; brim
G1 X80.008 Y129.403 E0.45775 ; brim
G1 X76.850 Y129.403 E0.09900 ; brim
G1 X75.490 Y129.245 E0.04294 ; brim
G1 X73.008 Y128.195 E0.08449 ; brim
G1 X59.115 Y128.195 E0.43559 ; brim
G1 X59.002 Y128.263 E0.00414 ; brim
G1 X56.586 Y129.246 E0.08177 ; brim
G1 X55.352 Y129.382 E0.03894 ; brim
G1 X54.644 Y129.378 E0.02220 ; brim
G1 X54.335 Y129.403 E0.00971 ; brim
G1 X53.853 Y129.403 E0.01512 ; brim
G1 X52.206 Y131.004 E0.07202 ; brim
G1 X49.761 Y132.336 E0.08729 ; brim
G1 X47.477 Y132.751 E0.07279 ; brim
G1 X45.482 Y132.585 E0.06277 ; brim
G1 X43.375 Y131.838 E0.07008 ; brim
G1 X41.621 Y130.697 E0.06563 ; brim
G1 X39.856 Y128.525 E0.08775 ; brim
G1 X39.454 Y127.658 E0.02995 ; brim
G1 X38.824 Y125.218 E0.07902 ; brim
G1 X38.844 Y100.071 E0.78848 ; brim
G1 X39.237 Y98.220 E0.05932 ; brim
G1 X40.064 Y96.511 E0.05955 ; brim
G1 X41.286 Y95.122 E0.05799 ; brim
G1 X41.319 Y91.019 E0.12866 ; brim
G1 X42.024 Y88.498 E0.08207 ; brim
G1 X43.286 Y86.538 E0.07310 ; brim
G1 X46.752 Y83.249 E0.14980 ; brim
G1 X48.635 Y82.283 E0.06635 ; brim
G1 X50.770 Y81.810 E0.06856 ; brim
G1 X81.050 Y81.808 E0.94941 ; brim
G1 X83.266 Y82.284 E0.07108 ; brim
G1 X84.908 Y83.091 E0.05736 ; brim
G1 X85.619 Y83.693 E0.02921 ; brim
G1 X86.184 Y83.204 E0.02341 ; brim
G1 X87.675 Y82.408 E0.05300 ; brim
G1 X90.176 Y81.805 E0.08068 ; brim
G1 X114.494 Y81.805 E0.76247 ; brim
G1 X116.384 Y81.891 E0.05932 ; brim
G1 X118.237 Y82.127 E0.05858 ; brim
G1 X120.061 Y82.511 E0.05844 ; brim
G1 X121.870 Y83.049 E0.05918 ; brim
G1 X123.734 Y83.882 E0.06401 ; brim
G1 X125.005 Y84.725 E0.04780 ; brim
G1 X126.255 Y83.888 E0.04717 ; brim
G1 X128.151 Y83.042 E0.06509 ; brim
G1 X129.988 Y82.498 E0.06008 ; brim
G1 X131.879 Y82.108 E0.06053 ; brim
G1 X133.858 Y81.871 E0.06249 ; brim
G1 X135.508 Y81.805 E0.05178 ; brim
G1 X159.775 Y81.809 E0.76087 ; brim
G1 X162.022 Y82.289 E0.07206 ; brim
G1 X163.645 Y83.089 E0.05672 ; brim
G1 X164.359 Y83.693 E0.02932 ; brim
G1 X164.924 Y83.204 E0.02343 ; brim
G1 X166.415 Y82.408 E0.05300 ; brim
G1 X168.916 Y81.805 E0.08068 ; brim
G1 X198.995 Y81.805 E0.94309 ; brim
G1 X200.919 Y82.135 E0.06121 ; brim
G1 X203.869 Y83.697 E0.10466 ; brim
G1 X206.727 Y86.567 E0.12700 ; brim
G1 X207.715 Y87.975 E0.05392 ; brim
G1 X208.626 Y90.612 E0.08750 ; brim
G1 X208.679 Y95.906 E0.16598 ; brim
G1 X208.305 Y96.183 F12000.000 ; move to first brim point
G1 F1800
G1 X209.870 Y97.109 E0.05702 ; brim
G1 X211.407 Y98.859 E0.07302 ; brim
G1 X212.485 Y101.379 E0.08594 ; brim
G1 X212.658 Y102.740 E0.04302 ; brim
G1 X212.658 Y123.710 E0.65751 ; brim
G1 X212.322 Y125.552 E0.05868 ; brim
G1 X211.205 Y127.743 E0.07712 ; brim
G1 X209.574 Y129.399 E0.07288 ; brim
G1 X208.191 Y130.223 E0.05049 ; brim
G1 X206.657 Y130.757 E0.05093 ; brim
G1 X204.393 Y130.933 E0.07120 ; brim
G1 X198.050 Y130.923 E0.19887 ; brim
G1 X196.291 Y130.578 E0.05623 ; brim
G1 X194.343 Y129.644 E0.06773 ; brim
G1 X193.492 Y128.908 E0.03528 ; brim
G1 X191.973 Y128.529 E0.04906 ; brim
G1 X190.606 Y127.818 E0.04832 ; brim
G1 X176.659 Y127.818 E0.43730 ; brim
G1 X176.551 Y127.885 E0.00400 ; brim
G1 X174.360 Y128.826 E0.07477 ; brim
G1 X172.941 Y129.010 E0.04486 ; brim
G1 X172.278 Y129.001 E0.02078 ; brim
G1 X171.976 Y129.026 E0.00950 ; brim
G1 X155.064 Y129.026 E0.53026 ; brim
G1 X152.678 Y128.434 E0.07709 ; brim
G1 X151.538 Y127.818 E0.04063 ; brim
G1 X137.452 Y127.818 E0.44165 ; brim
G1 X137.312 Y127.915 E0.00534 ; brim
G1 X135.990 Y128.555 E0.04607 ; brim
G1 X133.881 Y129.007 E0.06763 ; brim
G1 X133.078 Y128.999 E0.02517 ; brim
G1 X132.761 Y129.026 E0.00998 ; brim
G1 X123.749 Y129.026 E0.28257 ; brim
G1 X115.848 Y129.026 E0.24773 ; brim
G1 X113.462 Y128.434 E0.07709 ; brim
G1 X112.322 Y127.818 E0.04063 ; brim
G1 X98.259 Y127.818 E0.44091 ; brim
G1 X96.746 Y128.564 E0.05290 ; brim
G1 X94.593 Y129.012 E0.06896 ; brim
G1 X93.846 Y129.001 E0.02344 ; brim
G1 X93.544 Y129.026 E0.00950 ; brim
G1 X80.008 Y129.026 E0.42441 ; brim
G1 X76.861 Y129.026 E0.09866 ; brim
G1 X75.561 Y128.874 E0.04105 ; brim
G1 X73.085 Y127.818 E0.08438 ; brim
G1 X59.002 Y127.818 E0.44157 ; brim
G1 X58.840 Y127.922 E0.00603 ; brim
G1 X56.518 Y128.874 E0.07868 ; brim
G1 X55.322 Y129.006 E0.03775 ; brim
G1 X54.630 Y129.001 E0.02169 ; brim
G1 X54.327 Y129.026 E0.00952 ; brim
G1 X53.699 Y129.026 E0.01971 ; brim
G1 X52.003 Y130.685 E0.07441 ; brim
G1 X49.608 Y131.990 E0.08551 ; brim
G1 X47.483 Y132.373 E0.06770 ; brim
G1 X45.583 Y132.222 E0.05973 ; brim
G1 X43.560 Y131.509 E0.06725 ; brim
G1 X41.894 Y130.436 E0.06214 ; brim
G1 X40.164 Y128.306 E0.08605 ; brim
G1 X39.815 Y127.547 E0.02618 ; brim
G1 X39.201 Y125.194 E0.07624 ; brim
G1 X39.217 Y100.130 E0.78587 ; brim
G1 X39.601 Y98.321 E0.05797 ; brim
G1 X40.392 Y96.699 E0.05657 ; brim
G1 X41.661 Y95.267 E0.06003 ; brim
G1 X41.696 Y91.047 E0.13232 ; brim
G1 X42.357 Y88.677 E0.07712 ; brim
G1 X43.563 Y86.795 E0.07010 ; brim
G1 X46.949 Y83.571 E0.14659 ; brim
G1 X48.741 Y82.645 E0.06324 ; brim
G1 X50.790 Y82.187 E0.06585 ; brim
G1 X81.030 Y82.186 E0.94813 ; brim
G1 X83.121 Y82.633 E0.06705 ; brim
G1 X84.720 Y83.418 E0.05586 ; brim
G1 X85.622 Y84.194 E0.03731 ; brim
G1 X86.382 Y83.526 E0.03171 ; brim
G1 X87.831 Y82.752 E0.05154 ; brim
G1 X90.199 Y82.182 E0.07634 ; brim
G1 X114.490 Y82.182 E0.76164 ; brim
G1 X116.344 Y82.266 E0.05820 ; brim
G1 X118.167 Y82.498 E0.05763 ; brim
G1 X119.962 Y82.874 E0.05748 ; brim
G1 X121.728 Y83.399 E0.05777 ; brim
G1 X123.566 Y84.220 E0.06312 ; brim
G1 X125.006 Y85.179 E0.05424 ; brim
G1 X126.424 Y84.226 E0.05357 ; brim
G1 X128.293 Y83.391 E0.06418 ; brim
G1 X130.087 Y82.862 E0.05866 ; brim
G1 X131.932 Y82.481 E0.05905 ; brim
G1 X133.895 Y82.246 E0.06201 ; brim
G1 X135.519 Y82.182 E0.05096 ; brim
G1 X159.755 Y82.186 E0.75990 ; brim
G1 X161.877 Y82.638 E0.06802 ; brim
G1 X163.457 Y83.416 E0.05522 ; brim
G1 X164.362 Y84.195 E0.03743 ; brim
G1 X165.122 Y83.526 E0.03173 ; brim
G1 X166.571 Y82.752 E0.05154 ; brim
G1 X168.939 Y82.182 E0.07634 ; brim
G1 X198.980 Y82.182 E0.94191 ; brim
G1 X200.771 Y82.483 E0.05694 ; brim
G1 X203.622 Y83.984 E0.10104 ; brim
G1 X206.448 Y86.822 E0.12558 ; brim
G1 X207.391 Y88.169 E0.05157 ; brim
G1 X208.249 Y90.647 E0.08221 ; brim
G1 X208.304 Y96.123 E0.17171 ; brim
G1 X207.930 Y96.401 F12000.000 ; move to first brim point
G1 F1800
G1 X209.608 Y97.381 E0.06090 ; brim
G1 X211.104 Y99.085 E0.07111 ; brim
G1 X212.114 Y101.453 E0.08072 ; brim
G1 X212.281 Y102.752 E0.04108 ; brim
G1 X212.281 Y123.694 E0.65660 ; brim
G1 X211.973 Y125.407 E0.05456 ; brim
G1 X210.916 Y127.500 E0.07352 ; brim
G1 X209.323 Y129.116 E0.07117 ; brim
G1 X208.015 Y129.889 E0.04762 ; brim
G1 X206.603 Y130.383 E0.04691 ; brim
G1 X204.386 Y130.556 E0.06972 ; brim
G1 X198.069 Y130.546 E0.19805 ; brim
G1 X196.388 Y130.213 E0.05375 ; brim
G1 X194.530 Y129.316 E0.06467 ; brim
G1 X193.671 Y128.564 E0.03580 ; brim
G1 X192.127 Y128.184 E0.04985 ; brim
G1 X190.699 Y127.441 E0.05049 ; brim
G1 X176.542 Y127.441 E0.44388 ; brim
G1 X176.382 Y127.547 E0.00600 ; brim
G1 X174.284 Y128.456 E0.07169 ; brim
G1 X172.932 Y128.633 E0.04274 ; brim
G1 X172.265 Y128.624 E0.02093 ; brim
G1 X171.968 Y128.649 E0.00934 ; brim
G1 X155.088 Y128.649 E0.52927 ; brim
G1 X152.794 Y128.074 E0.07415 ; brim
G1 X151.635 Y127.441 E0.04141 ; brim
G1 X137.327 Y127.441 E0.44862 ; brim
G1 X137.130 Y127.585 E0.00765 ; brim
G1 X135.887 Y128.192 E0.04335 ; brim
G1 X133.863 Y128.630 E0.06493 ; brim
G1 X133.064 Y128.622 E0.02507 ; brim
G1 X132.753 Y128.649 E0.00979 ; brim
G1 X123.749 Y128.649 E0.28231 ; brim
G1 X115.871 Y128.649 E0.24699 ; brim
G1 X113.577 Y128.074 E0.07415 ; brim
G1 X112.418 Y127.441 E0.04141 ; brim
