; generated by Slic3r 1.37.2.1-prusa3d-win64 on 2018-05-08 at 18:53:26

; 

; external perimeters extrusion width = 0.45mm
; perimeters extrusion width = 0.45mm
; infill extrusion width = 0.45mm
; solid infill extrusion width = 0.45mm
; top infill extrusion width = 0.40mm
; support material extrusion width = 0.35mm
; first layer extrusion width = 0.42mm

M107 ; disable fan
M115 U3.1.1-RC5 ; tell printer latest fw version
M83  ; extruder relative mode
M104 S215 ; set extruder temp
M140 S60 ; set bed temp
M190 S60 ; wait for bed temp
M109 S215 ; wait for extruder temp
G28 W ; home all without mesh bed level
G80 ; mesh bed leveling
G1 Y-3.0 F1000.0 ; go outside print area
G92 E0.0
G1 X60.0 E9.0  F1000.0 ; intro line
G1 X100.0 E12.5  F1000.0 ; intro line
G92 E0.0
M221 S95
M900 K30
G21 ; set units to millimeters
G90 ; use absolute coordinates
M83 ; use relative distances for extrusion
;BEFORE_LAYER_CHANGE
;0.2


G1 E-0.80000 F2100.00000 ; retract
G1 Z0.600 F12000.000 ; lift Z
;AFTER_LAYER_CHANGE
;0.2
G1 X106.095 Y98.312 F12000.000 ; move to first skirt point
G1 Z0.200 F12000.000 ; restore layer Z
G1 E0.80000 F2100.00000 ; unretract
M204 S1000 ; adjust acceleration
G1 F1800
G1 X107.185 Y97.300 E0.04662 ; skirt
G1 X116.003 Y90.318 E0.35267 ; skirt
G1 X116.982 Y89.664 E0.03691 ; skirt
G1 X118.036 Y89.122 E0.03716 ; skirt
G1 X122.946 Y87.172 E0.16565 ; skirt
G1 X124.825 Y86.692 E0.06080 ; skirt
G1 X126.307 Y86.566 E0.04662 ; skirt
G1 X134.252 Y86.565 E0.24913 ; skirt
G1 X136.253 Y86.761 E0.06303 ; skirt
G1 X138.186 Y87.343 E0.06328 ; skirt
G1 X139.435 Y87.956 E0.04364 ; skirt
G1 X143.186 Y90.231 E0.13755 ; skirt
G1 X144.517 Y91.390 E0.05533 ; skirt
G1 X145.632 Y92.758 E0.05533 ; skirt
G1 X146.499 Y94.294 E0.05533 ; skirt
G1 X147.095 Y95.964 E0.05558 ; skirt
G1 X147.344 Y97.212 E0.03990 ; skirt
G1 X147.437 Y98.481 E0.03990 ; skirt
G1 X147.436 Y107.211 E0.27372 ; skirt
G1 X147.257 Y108.966 E0.05533 ; skirt
G1 X146.953 Y110.169 E0.03890 ; skirt
G1 X146.509 Y111.328 E0.03890 ; skirt
G1 X143.538 Y117.559 E0.21644 ; skirt
G1 X142.765 Y118.866 E0.04762 ; skirt
G1 X141.874 Y119.976 E0.04463 ; skirt
G1 X140.833 Y120.959 E0.04488 ; skirt
G1 X139.667 Y121.789 E0.04488 ; skirt
G1 X138.398 Y122.452 E0.04488 ; skirt
G1 X137.393 Y122.830 E0.03367 ; skirt
G1 X126.553 Y126.220 E0.35613 ; skirt
G1 X125.183 Y126.544 E0.04413 ; skirt
G1 X123.559 Y126.684 E0.05110 ; skirt
G1 X115.127 Y126.684 E0.26441 ; skirt
G1 X114.070 Y126.623 E0.03317 ; skirt
G1 X111.978 Y126.373 E0.06607 ; skirt
G1 X110.593 Y126.044 E0.04463 ; skirt
G1 X109.123 Y125.459 E0.04961 ; skirt
G1 X107.759 Y124.658 E0.04961 ; skirt
G1 X106.880 Y123.974 E0.03492 ; skirt
G1 X106.074 Y123.194 E0.03517 ; skirt
G1 X105.361 Y122.338 E0.03492 ; skirt
G1 X104.745 Y121.411 E0.03492 ; skirt
G1 X104.231 Y120.423 E0.03492 ; skirt
G1 X103.826 Y119.385 E0.03492 ; skirt
G1 X103.533 Y118.302 E0.03517 ; skirt
G1 X103.360 Y117.202 E0.03492 ; skirt
G1 X103.305 Y116.137 E0.03345 ; skirt
G1 X103.358 Y104.342 E0.36982 ; skirt
G1 X103.573 Y103.048 E0.04115 ; skirt
G1 X103.949 Y101.791 E0.04115 ; skirt
G1 X104.482 Y100.591 E0.04115 ; skirt
G1 X105.165 Y99.462 E0.04139 ; skirt
G1 X106.057 Y98.358 E0.04449 ; skirt
G1 F9600
G1 X107.185 Y97.300 E-0.32135 ; wipe and retract
G1 F9600
G1 X108.840 Y95.990 E-0.43865 ; wipe and retract
G1 E-0.04000 F2100.00000 ; retract
G1 Z0.800 F12000.000 ; lift Z
G1 X113.764 Y96.908 F12000.000 ; move to first brim point
G1 Z0.200 F12000.000 ; restore layer Z
G1 E0.80000 F2100.00000 ; unretract
G1 F1800
G1 X114.213 Y95.293 E0.05255 ; brim
G1 X115.565 Y93.045 E0.08226 ; brim
G1 X117.105 Y91.599 E0.06625 ; brim
G1 X118.960 Y90.559 E0.06667 ; brim
G1 X121.051 Y90.007 E0.06782 ; brim
G1 X121.545 Y89.975 E0.01552 ; brim
G1 X123.131 Y89.097 E0.05683 ; brim
G1 X125.506 Y88.482 E0.07693 ; brim
G1 X135.086 Y88.477 E0.30036 ; brim
G1 X137.461 Y89.049 E0.07661 ; brim
G1 X138.846 Y89.773 E0.04898 ; brim
G1 X139.485 Y90.301 E0.02599 ; brim
G1 X140.504 Y90.633 E0.03360 ; brim
G1 X142.586 Y91.890 E0.07628 ; brim
G1 X143.632 Y92.928 E0.04618 ; brim
G1 X144.528 Y94.120 E0.04678 ; brim
G1 X145.643 Y97.270 E0.10475 ; brim
G1 X145.734 Y107.540 E0.32204 ; brim
G1 X145.577 Y108.907 E0.04313 ; brim
G1 X144.258 Y111.866 E0.10159 ; brim
G1 X142.659 Y113.589 E0.07370 ; brim
G1 X142.609 Y114.562 E0.03053 ; brim
G1 X142.204 Y115.979 E0.04622 ; brim
G1 X141.304 Y117.700 E0.06089 ; brim
G1 X139.768 Y119.404 E0.07193 ; brim
G1 X137.782 Y120.691 E0.07421 ; brim
G1 X135.337 Y121.383 E0.07967 ; brim
G1 X130.496 Y121.416 E0.15179 ; brim
G1 X128.537 Y123.297 E0.08515 ; brim
G1 X126.862 Y124.206 E0.05974 ; brim
G1 X124.999 Y124.714 E0.06055 ; brim
G1 X123.590 Y124.775 E0.04423 ; brim
G1 X123.172 Y124.810 E0.01315 ; brim
G1 X115.589 Y124.810 E0.23775 ; brim
G1 X115.117 Y124.792 E0.01480 ; brim
G1 X114.870 Y124.810 E0.00777 ; brim
G1 X112.969 Y124.810 E0.05961 ; brim
G1 X110.417 Y124.192 E0.08233 ; brim
G1 X108.172 Y122.849 E0.08202 ; brim
G1 X106.243 Y120.641 E0.09194 ; brim
G1 X105.407 Y118.800 E0.06338 ; brim
G1 X105.020 Y116.828 E0.06300 ; brim
G1 X105.029 Y104.557 E0.38474 ; brim
G1 X105.388 Y102.765 E0.05732 ; brim
G1 X106.098 Y101.151 E0.05528 ; brim
G1 X107.728 Y99.137 E0.08123 ; brim
G1 X109.847 Y97.694 E0.08040 ; brim
G1 X112.144 Y96.997 E0.07524 ; brim
G1 X113.704 Y96.912 E0.04900 ; brim
G1 F9600
G1 X114.213 Y95.293 E-0.35250 ; wipe and retract
G1 F9600
G1 X115.223 Y93.613 E-0.40750 ; wipe and retract
G1 E-0.04000 F2100.00000 ; retract
G1 Z0.800 F12000.000 ; lift Z
G1 X130.274 Y121.041 F12000.000 ; move to first brim point
G1 Z0.200 F12000.000 ; restore layer Z
G1 E0.80000 F2100.00000 ; unretract
G1 F1800
G1 X130.136 Y121.243 E0.00768 ; brim
G1 X128.334 Y122.978 E0.07845 ; brim
G1 X126.740 Y123.848 E0.05691 ; brim
G1 X124.961 Y124.338 E0.05786 ; brim
G1 X123.565 Y124.399 E0.04381 ; brim
G1 X123.163 Y124.433 E0.01265 ; brim
G1 X115.593 Y124.433 E0.23738 ; brim
G1 X115.110 Y124.414 E0.01515 ; brim
G1 X114.863 Y124.433 E0.00778 ; brim
G1 X112.992 Y124.433 E0.05866 ; brim
G1 X110.535 Y123.832 E0.07930 ; brim
G1 X108.392 Y122.541 E0.07843 ; brim
G1 X106.575 Y120.460 E0.08664 ; brim
G1 X105.760 Y118.665 E0.06181 ; brim
G1 X105.394 Y116.775 E0.06036 ; brim
G1 X105.407 Y104.576 E0.38247 ; brim
G1 X105.742 Y102.896 E0.05371 ; brim
G1 X106.408 Y101.367 E0.05230 ; brim
G1 X107.964 Y99.433 E0.07783 ; brim
G1 X110.035 Y98.022 E0.07859 ; brim
G1 X112.229 Y97.365 E0.07181 ; brim
G1 X114.056 Y97.271 E0.05735 ; brim
G1 X114.550 Y95.464 E0.05874 ; brim
G1 X115.842 Y93.302 E0.07898 ; brim
G1 X117.346 Y91.890 E0.06468 ; brim
G1 X119.122 Y90.901 E0.06374 ; brim
G1 X121.128 Y90.377 E0.06499 ; brim
G1 X121.701 Y90.344 E0.01801 ; brim
G1 X121.864 Y90.216 E0.00651 ; brim
G1 X123.248 Y89.456 E0.04949 ; brim
G1 X125.578 Y88.853 E0.07546 ; brim
G1 X135.020 Y88.849 E0.29606 ; brim
G1 X137.307 Y89.394 E0.07373 ; brim
G1 X138.653 Y90.097 E0.04759 ; brim
G1 X139.299 Y90.637 E0.02642 ; brim
G1 X140.329 Y90.968 E0.03389 ; brim
G1 X142.337 Y92.174 E0.07345 ; brim
G1 X143.356 Y93.186 E0.04503 ; brim
G1 X144.209 Y94.323 E0.04458 ; brim
G1 X145.277 Y97.365 E0.10108 ; brim
G1 X145.357 Y107.531 E0.31878 ; brim
G1 X145.206 Y108.834 E0.04112 ; brim
G1 X143.927 Y111.683 E0.09790 ; brim
G1 X142.289 Y113.433 E0.07517 ; brim
G1 X142.240 Y114.480 E0.03286 ; brim
G1 X141.847 Y115.858 E0.04492 ; brim
G1 X141.007 Y117.466 E0.05690 ; brim
G1 X139.541 Y119.102 E0.06889 ; brim
G1 X137.650 Y120.337 E0.07079 ; brim
G1 X135.308 Y121.006 E0.07637 ; brim
G1 X130.334 Y121.040 E0.15596 ; brim
G1 F9600
G1 X130.136 Y121.243 E-0.05892 ; wipe and retract
G1 F9600
G1 X128.334 Y122.978 E-0.51997 ; wipe and retract
G1 F9600
G1 X127.569 Y123.396 E-0.18111 ; wipe and retract
G1 E-0.04000 F2100.00000 ; retract
G1 Z0.800 F12000.000 ; lift Z
G1 X141.920 Y113.210 F12000.000 ; move to first brim point
G1 Z0.200 F12000.000 ; restore layer Z
G1 E0.80000 F2100.00000 ; unretract
G1 F1800
G1 X141.871 Y114.398 E0.03729 ; brim
G1 X141.489 Y115.736 E0.04361 ; brim
G1 X140.710 Y117.233 E0.05293 ; brim
G1 X139.313 Y118.801 E0.06586 ; brim
G1 X137.518 Y119.982 E0.06736 ; brim
G1 X135.280 Y120.629 E0.07305 ; brim
G1 X130.064 Y120.665 E0.16354 ; brim
G1 X129.856 Y120.989 E0.01208 ; brim
G1 X128.130 Y122.659 E0.07530 ; brim
G1 X126.579 Y123.506 E0.05541 ; brim
G1 X124.883 Y123.969 E0.05511 ; brim
G1 X123.542 Y124.022 E0.04210 ; brim
G1 X123.155 Y124.056 E0.01217 ; brim
G1 X115.596 Y124.056 E0.23700 ; brim
G1 X115.102 Y124.036 E0.01550 ; brim
G1 X114.855 Y124.056 E0.00779 ; brim
G1 X113.014 Y124.056 E0.05772 ; brim
G1 X110.705 Y123.494 E0.07452 ; brim
G1 X108.612 Y122.234 E0.07661 ; brim
G1 X106.906 Y120.278 E0.08136 ; brim
G1 X106.126 Y118.570 E0.05888 ; brim
G1 X105.771 Y116.756 E0.05794 ; brim
G1 X105.784 Y104.595 E0.38131 ; brim
G1 X106.097 Y103.027 E0.05014 ; brim
G1 X106.718 Y101.583 E0.04928 ; brim
G1 X108.240 Y99.692 E0.07612 ; brim
G1 X110.222 Y98.351 E0.07504 ; brim
G1 X112.314 Y97.733 E0.06839 ; brim
G1 X114.349 Y97.635 E0.06389 ; brim
G1 X114.888 Y95.634 E0.06498 ; brim
G1 X116.120 Y93.558 E0.07571 ; brim
G1 X117.551 Y92.208 E0.06165 ; brim
G1 X119.285 Y91.242 E0.06224 ; brim
G1 X121.202 Y90.747 E0.06210 ; brim
G1 X121.845 Y90.715 E0.02018 ; brim
G1 X122.064 Y90.536 E0.00886 ; brim
G1 X123.366 Y89.815 E0.04667 ; brim
G1 X125.649 Y89.224 E0.07395 ; brim
G1 X134.955 Y89.221 E0.29178 ; brim
G1 X137.154 Y89.740 E0.07084 ; brim
G1 X138.459 Y90.422 E0.04617 ; brim
G1 X139.114 Y90.974 E0.02686 ; brim
G1 X140.155 Y91.303 E0.03423 ; brim
G1 X142.088 Y92.458 E0.07062 ; brim
G1 X143.063 Y93.423 E0.04300 ; brim
G1 X143.889 Y94.526 E0.04322 ; brim
G1 X144.911 Y97.459 E0.09738 ; brim
G1 X144.980 Y107.522 E0.31552 ; brim
G1 X144.835 Y108.761 E0.03911 ; brim
G1 X143.596 Y111.499 E0.09420 ; brim
G1 X142.122 Y113.067 E0.06749 ; brim
G1 X141.969 Y113.175 E0.00589 ; brim
G1 X141.550 Y113.001 F12000.000 ; move to first brim point
G1 F1800
G1 X141.502 Y114.317 E0.04131 ; brim
G1 X141.132 Y115.614 E0.04229 ; brim
G1 X140.412 Y117.001 E0.04899 ; brim
G1 X139.083 Y118.501 E0.06284 ; brim
G1 X137.384 Y119.629 E0.06393 ; brim
G1 X135.250 Y120.252 E0.06970 ; brim
G1 X129.850 Y120.289 E0.16933 ; brim
G1 X129.575 Y120.737 E0.01647 ; brim
G1 X127.926 Y122.342 E0.07214 ; brim
G1 X126.458 Y123.149 E0.05251 ; brim
G1 X124.805 Y123.599 E0.05371 ; brim
G1 X123.518 Y123.646 E0.04039 ; brim
G1 X123.147 Y123.679 E0.01170 ; brim
G1 X115.600 Y123.679 E0.23661 ; brim
G1 X115.094 Y123.659 E0.01587 ; brim
G1 X114.847 Y123.679 E0.00778 ; brim
G1 X113.037 Y123.679 E0.05676 ; brim
G1 X110.823 Y123.135 E0.07148 ; brim
G1 X108.833 Y121.927 E0.07301 ; brim
G1 X107.237 Y120.096 E0.07614 ; brim
G1 X106.491 Y118.475 E0.05596 ; brim
G1 X106.148 Y116.738 E0.05550 ; brim
G1 X106.161 Y104.614 E0.38015 ; brim
G1 X106.451 Y103.156 E0.04661 ; brim
G1 X107.028 Y101.799 E0.04624 ; brim
G1 X108.516 Y99.951 E0.07438 ; brim
G1 X110.407 Y98.680 E0.07145 ; brim
G1 X112.396 Y98.101 E0.06495 ; brim
G1 X113.671 Y98.050 E0.04001 ; brim
G1 X114.024 Y98.019 E0.01109 ; brim
G1 X114.745 Y98.019 E0.02260 ; brim
G1 X114.767 Y97.513 E0.01589 ; brim
G1 X115.225 Y95.804 E0.05548 ; brim
G1 X116.431 Y93.773 E0.07405 ; brim
G1 X117.791 Y92.500 E0.05842 ; brim
G1 X119.445 Y91.584 E0.05930 ; brim
G1 X121.276 Y91.117 E0.05922 ; brim
G1 X121.991 Y91.087 E0.02245 ; brim
G1 X122.265 Y90.856 E0.01125 ; brim
G1 X123.484 Y90.174 E0.04379 ; brim
G1 X125.720 Y89.595 E0.07243 ; brim
G1 X134.891 Y89.593 E0.28753 ; brim
G1 X137.001 Y90.085 E0.06793 ; brim
G1 X138.265 Y90.746 E0.04474 ; brim
G1 X138.928 Y91.312 E0.02732 ; brim
G1 X139.982 Y91.639 E0.03460 ; brim
G1 X141.839 Y92.743 E0.06775 ; brim
G1 X142.787 Y93.681 E0.04183 ; brim
G1 X143.570 Y94.728 E0.04097 ; brim
G1 X144.544 Y97.553 E0.09369 ; brim
G1 X144.603 Y107.513 E0.31229 ; brim
G1 X144.464 Y108.687 E0.03709 ; brim
G1 X143.267 Y111.313 E0.09048 ; brim
G1 X141.865 Y112.790 E0.06383 ; brim
G1 X141.600 Y112.967 E0.01002 ; brim
G1 X141.179 Y112.789 F12000.000 ; move to first brim point
G1 F1800
G1 X141.133 Y114.236 E0.04541 ; brim
G1 X140.774 Y115.493 E0.04096 ; brim
G1 X140.114 Y116.770 E0.04507 ; brim
G1 X138.852 Y118.202 E0.05984 ; brim
G1 X137.249 Y119.276 E0.06050 ; brim
G1 X135.221 Y119.875 E0.06631 ; brim
G1 X129.633 Y119.914 E0.17521 ; brim
G1 X129.292 Y120.485 E0.02087 ; brim
G1 X127.721 Y122.024 E0.06894 ; brim
G1 X126.297 Y122.807 E0.05098 ; brim
G1 X124.729 Y123.229 E0.05090 ; brim
G1 X123.495 Y123.269 E0.03871 ; brim
G1 X123.138 Y123.302 E0.01125 ; brim
G1 X115.604 Y123.302 E0.23622 ; brim
G1 X115.086 Y123.281 E0.01626 ; brim
G1 X114.839 Y123.302 E0.00777 ; brim
G1 X113.060 Y123.302 E0.05577 ; brim
G1 X110.942 Y122.777 E0.06841 ; brim
G1 X109.054 Y121.620 E0.06941 ; brim
G1 X107.568 Y119.913 E0.07098 ; brim
G1 X106.856 Y118.378 E0.05303 ; brim
G1 X106.525 Y116.720 E0.05304 ; brim
G1 X106.538 Y104.633 E0.37898 ; brim
G1 X106.806 Y103.284 E0.04312 ; brim
G1 X107.339 Y102.014 E0.04317 ; brim
G1 X108.791 Y100.210 E0.07262 ; brim
G1 X110.592 Y99.011 E0.06783 ; brim
G1 X112.477 Y98.470 E0.06151 ; brim
G1 X113.695 Y98.426 E0.03819 ; brim
G1 X114.032 Y98.396 E0.01063 ; brim
G1 X115.114 Y98.396 E0.03390 ; brim
G1 X115.137 Y97.588 E0.02535 ; brim
G1 X115.583 Y95.927 E0.05391 ; brim
G1 X116.740 Y93.990 E0.07076 ; brim
G1 X118.030 Y92.792 E0.05519 ; brim
G1 X119.605 Y91.926 E0.05637 ; brim
G1 X121.347 Y91.488 E0.05632 ; brim
G1 X122.138 Y91.459 E0.02479 ; brim
G1 X122.468 Y91.174 E0.01369 ; brim
G1 X123.603 Y90.532 E0.04087 ; brim
G1 X125.792 Y89.966 E0.07089 ; brim
G1 X134.869 Y89.970 E0.28461 ; brim
G1 X136.847 Y90.430 E0.06368 ; brim
G1 X138.071 Y91.070 E0.04329 ; brim
G1 X138.741 Y91.649 E0.02779 ; brim
G1 X139.810 Y91.975 E0.03503 ; brim
G1 X141.591 Y93.027 E0.06487 ; brim
G1 X142.494 Y93.918 E0.03977 ; brim
G1 X143.250 Y94.930 E0.03959 ; brim
G1 X144.177 Y97.645 E0.08997 ; brim
G1 X144.225 Y107.502 E0.30907 ; brim
G1 X144.093 Y108.613 E0.03506 ; brim
G1 X142.938 Y111.126 E0.08673 ; brim
G1 X141.610 Y112.512 E0.06016 ; brim
G1 X141.229 Y112.757 E0.01419 ; brim
G1 X140.807 Y112.575 F12000.000 ; move to first brim point
G1 F1800
G1 X140.764 Y114.157 E0.04962 ; brim
G1 X140.430 Y115.338 E0.03847 ; brim
G1 X139.814 Y116.539 E0.04232 ; brim
G1 X138.621 Y117.904 E0.05685 ; brim
G1 X137.113 Y118.923 E0.05706 ; brim
G1 X135.191 Y119.498 E0.06289 ; brim
G1 X129.414 Y119.538 E0.18115 ; brim
G1 X129.009 Y120.236 E0.02529 ; brim
G1 X127.516 Y121.707 E0.06572 ; brim
G1 X126.176 Y122.449 E0.04802 ; brim
G1 X124.653 Y122.859 E0.04946 ; brim
G1 X123.473 Y122.892 E0.03702 ; brim
G1 X123.129 Y122.925 E0.01082 ; brim
G1 X115.608 Y122.925 E0.23581 ; brim
G1 X115.077 Y122.903 E0.01666 ; brim
G1 X114.830 Y122.925 E0.00776 ; brim
G1 X113.083 Y122.925 E0.05478 ; brim
G1 X111.063 Y122.418 E0.06532 ; brim
G1 X109.277 Y121.315 E0.06581 ; brim
G1 X107.898 Y119.729 E0.06589 ; brim
G1 X107.221 Y118.281 E0.05011 ; brim
G1 X106.902 Y116.701 E0.05056 ; brim
G1 X106.911 Y104.688 E0.37665 ; brim
G1 X107.172 Y103.377 E0.04193 ; brim
G1 X107.676 Y102.186 E0.04053 ; brim
G1 X109.066 Y100.470 E0.06926 ; brim
G1 X110.724 Y99.365 E0.06249 ; brim
G1 X112.515 Y98.846 E0.05843 ; brim
G1 X113.719 Y98.803 E0.03778 ; brim
G1 X114.041 Y98.773 E0.01015 ; brim
G1 X115.485 Y98.773 E0.04527 ; brim
G1 X115.507 Y97.663 E0.03482 ; brim
G1 X115.940 Y96.051 E0.05233 ; brim
G1 X117.049 Y94.208 E0.06744 ; brim
G1 X118.268 Y93.085 E0.05198 ; brim
G1 X119.721 Y92.286 E0.05198 ; brim
G1 X121.419 Y91.859 E0.05490 ; brim
G1 X122.286 Y91.832 E0.02718 ; brim
G1 X122.673 Y91.491 E0.01619 ; brim
G1 X123.723 Y90.891 E0.03792 ; brim
G1 X125.816 Y90.343 E0.06783 ; brim
G1 X134.847 Y90.347 E0.28318 ; brim
G1 X136.694 Y90.776 E0.05943 ; brim
G1 X137.876 Y91.393 E0.04181 ; brim
G1 X138.555 Y91.987 E0.02828 ; brim
G1 X139.639 Y92.312 E0.03550 ; brim
G1 X141.344 Y93.313 E0.06197 ; brim
G1 X142.200 Y94.156 E0.03769 ; brim
G1 X142.930 Y95.131 E0.03819 ; brim
G1 X143.810 Y97.737 E0.08623 ; brim
G1 X143.848 Y107.492 E0.30587 ; brim
G1 X143.722 Y108.538 E0.03305 ; brim
G1 X142.644 Y110.888 E0.08106 ; brim
G1 X141.355 Y112.233 E0.05840 ; brim
