; generated by Slic3r 1.37.2.1-prusa3d-win64 on 2018-06-26 at 12:30:13

; 

; external perimeters extrusion width = 0.45mm
; perimeters extrusion width = 0.45mm
; infill extrusion width = 0.45mm
; solid infill extrusion width = 0.45mm
; top infill extrusion width = 0.40mm
; first layer extrusion width = 0.42mm

M107 ; disable fan
M115 U3.1.1-RC5 ; tell printer latest fw version
M83  ; extruder relative mode
M104 S215 ; set extruder temp
M140 S60 ; set bed temp
M190 S60 ; wait for bed temp
M109 S215 ; wait for extruder temp
G28 W ; home all without mesh bed level
G80 ; mesh bed leveling
G1 Y-3.0 F1000.0 ; go outside print area
G92 E0.0
G1 X60.0 E9.0  F1000.0 ; intro line
G1 X100.0 E12.5  F1000.0 ; intro line
G92 E0.0
M221 S95
M900 K30
G21 ; set units to millimeters
G90 ; use absolute coordinates
M83 ; use relative distances for extrusion
;BEFORE_LAYER_CHANGE
;0.2


G1 E-0.80000 F2100.00000 ; retract
G1 Z0.600 F12000.000 ; lift Z
;AFTER_LAYER_CHANGE
;0.2
G1 X114.961 Y108.934 F12000.000 ; move to first skirt point
G1 Z0.200 F12000.000 ; restore layer Z
G1 E0.80000 F2100.00000 ; unretract
M204 S1000 ; adjust acceleration
G1 F1056
G1 X115.349 Y108.280 E0.02383 ; skirt
G1 X127.757 Y94.868 E0.57289 ; skirt
G1 X128.410 Y94.471 E0.02396 ; skirt
G1 X129.142 Y94.269 E0.02383 ; skirt
G1 X132.504 Y94.246 E0.10540 ; skirt
G1 X133.482 Y94.427 E0.03119 ; skirt
G1 X134.336 Y94.947 E0.03132 ; skirt
G1 X134.945 Y95.733 E0.03119 ; skirt
G1 X135.236 Y96.688 E0.03132 ; skirt
G1 X135.252 Y111.598 E0.46749 ; skirt
G1 X135.082 Y112.459 E0.02752 ; skirt
G1 X134.651 Y113.220 E0.02739 ; skirt
G1 X134.109 Y113.735 E0.02345 ; skirt
G1 X133.448 Y114.086 E0.02345 ; skirt
G1 X127.782 Y115.740 E0.18510 ; skirt
G1 X117.365 Y115.751 E0.32661 ; skirt
G1 X116.525 Y115.576 E0.02689 ; skirt
G1 X115.780 Y115.151 E0.02689 ; skirt
G1 X115.372 Y114.749 E0.01796 ; skirt
G1 X115.057 Y114.271 E0.01796 ; skirt
G1 X114.847 Y113.738 E0.01796 ; skirt
G1 X114.751 Y113.173 E0.01796 ; skirt
G1 X114.766 Y109.669 E0.10987 ; skirt
G1 X114.945 Y108.992 E0.02195 ; skirt
G1 X115.307 Y109.087 F12000.000 ; move to first skirt point
G1 F1056
G1 X115.658 Y108.498 E0.02150 ; skirt
G1 X127.988 Y95.165 E0.56939 ; skirt
G1 X128.562 Y94.816 E0.02107 ; skirt
G1 X129.215 Y94.640 E0.02119 ; skirt
G1 X132.504 Y94.623 E0.10313 ; skirt
G1 X133.356 Y94.783 E0.02720 ; skirt
G1 X134.095 Y95.237 E0.02720 ; skirt
G1 X134.621 Y95.927 E0.02720 ; skirt
G1 X134.865 Y96.763 E0.02731 ; skirt
G1 X134.876 Y111.576 E0.46445 ; skirt
G1 X134.727 Y112.331 E0.02414 ; skirt
G1 X134.342 Y113.002 E0.02426 ; skirt
G1 X133.873 Y113.440 E0.02012 ; skirt
G1 X133.300 Y113.738 E0.02024 ; skirt
G1 X127.739 Y115.365 E0.18167 ; skirt
G1 X117.393 Y115.375 E0.32438 ; skirt
G1 X116.654 Y115.222 E0.02367 ; skirt
G1 X115.998 Y114.842 E0.02378 ; skirt
G1 X115.649 Y114.491 E0.01550 ; skirt
G1 X115.381 Y114.076 E0.01550 ; skirt
G1 X115.204 Y113.615 E0.01550 ; skirt
G1 X115.126 Y113.127 E0.01550 ; skirt
G1 X115.138 Y109.730 E0.10650 ; skirt
G1 X115.292 Y109.145 E0.01897 ; skirt
G1 F9600
G1 X115.658 Y108.498 E-0.15455 ; wipe and retract
G1 F9600
G1 X117.636 Y106.359 E-0.60545 ; wipe and retract
G1 E-0.04000 F2100.00000 ; retract
G1 Z0.800 F12000.000 ; lift Z
G1 X118.087 Y110.587 F12000.000 ; move to first perimeter point
G1 Z0.200 F12000.000 ; restore layer Z
G1 E0.80000 F2100.00000 ; unretract
G1 F1056
G1 X127.743 Y110.587 E0.30276 ; perimeter
G1 X130.087 Y108.243 E0.10393 ; perimeter
G1 X130.087 Y97.587 E0.33411 ; perimeter
G1 X131.913 Y97.587 E0.05725 ; perimeter
G1 X131.913 Y110.913 E0.41782 ; perimeter
G1 X126.913 Y110.913 E0.15677 ; perimeter
G1 X126.913 Y112.413 E0.04703 ; perimeter
G1 X118.087 Y112.413 E0.27673 ; perimeter
G1 X118.087 Y110.647 E0.05537 ; perimeter
G1 F9600
G1 X121.744 Y110.624 E-0.76000 ; wipe and retract
G1 E-0.04000 F2100.00000 ; retract
G1 Z0.800 F12000.000 ; lift Z
G1 X127.290 Y111.290 F12000.000 ; move to first perimeter point
G1 Z0.200 F12000.000 ; restore layer Z
G1 E0.80000 F2100.00000 ; unretract
G1 F1800
G1 X127.290 Y112.790 E0.04703 ; perimeter
G1 X117.710 Y112.790 E0.30037 ; perimeter
G1 X117.710 Y110.210 E0.08089 ; perimeter
G1 X127.587 Y110.210 E0.30969 ; perimeter
G1 X129.710 Y108.087 E0.09414 ; perimeter
G1 X129.710 Y97.210 E0.34104 ; perimeter
G1 X132.290 Y97.210 E0.08089 ; perimeter
G1 X132.290 Y111.290 E0.44147 ; perimeter
G1 X127.350 Y111.290 E0.15489 ; perimeter
G1 X126.923 Y111.449 F12000.000 ; move inwards before travel
G1 X126.800 Y111.474 F12000.000 ; move to first infill point
G1 F1056
G1 X126.196 Y110.870 E0.02715 ; infill
G1 X125.655 Y110.870 E0.01719 ; infill
G1 X126.630 Y111.845 E0.04384 ; infill
G1 X126.630 Y112.130 E0.00907 ; infill
G1 X126.375 Y112.130 E0.00812 ; infill
G1 X125.114 Y110.870 E0.05667 ; infill
G1 X124.574 Y110.870 E0.01719 ; infill
G1 X125.834 Y112.130 E0.05667 ; infill
G1 X125.293 Y112.130 E0.01719 ; infill
G1 X124.033 Y110.870 E0.05667 ; infill
G1 X123.492 Y110.870 E0.01719 ; infill
G1 X124.752 Y112.130 E0.05667 ; infill
G1 X124.212 Y112.130 E0.01719 ; infill
G1 X122.951 Y110.870 E0.05667 ; infill
G1 X122.411 Y110.870 E0.01719 ; infill
G1 X123.671 Y112.130 E0.05667 ; infill
G1 X123.130 Y112.130 E0.01719 ; infill
G1 X121.870 Y110.870 E0.05667 ; infill
G1 X121.329 Y110.870 E0.01719 ; infill
G1 X122.589 Y112.130 E0.05667 ; infill
G1 X122.049 Y112.130 E0.01719 ; infill
G1 X120.788 Y110.870 E0.05667 ; infill
G1 X120.247 Y110.870 E0.01719 ; infill
G1 X121.508 Y112.130 E0.05667 ; infill
G1 X120.967 Y112.130 E0.01719 ; infill
G1 X119.707 Y110.870 E0.05667 ; infill
G1 X119.166 Y110.870 E0.01719 ; infill
G1 X120.426 Y112.130 E0.05667 ; infill
G1 X119.885 Y112.130 E0.01719 ; infill
G1 X118.625 Y110.870 E0.05667 ; infill
G1 X118.370 Y110.870 E0.00812 ; infill
G1 X118.370 Y111.155 E0.00908 ; infill
G1 X119.345 Y112.130 E0.04383 ; infill
G1 X118.804 Y112.130 E0.01719 ; infill
G1 X118.200 Y111.526 E0.02715 ; infill
G1 F9600
G1 X118.804 Y112.130 E-0.17742 ; wipe and retract
G1 F9600
G1 X119.345 Y112.130 E-0.11238 ; wipe and retract
G1 F9600
G1 X118.370 Y111.155 E-0.28648 ; wipe and retract
G1 F9600
G1 X118.370 Y110.870 E-0.05933 ; wipe and retract
G1 F9600
G1 X118.625 Y110.870 E-0.05305 ; wipe and retract
G1 F9600
G1 X118.868 Y111.113 E-0.07133 ; wipe and retract
G1 E-0.04000 F2100.00000 ; retract
G1 Z0.800 F12000.000 ; lift Z
G1 X128.437 Y110.800 F12000.000 ; move to first infill point
G1 Z0.200 F12000.000 ; restore layer Z
G1 E0.80000 F2100.00000 ; unretract
G1 F1056
G1 X128.184 Y110.546 E0.01140 ; infill
G1 X128.454 Y110.276 E0.01217 ; infill
G1 X128.809 Y110.630 E0.01594 ; infill
G1 X129.350 Y110.630 E0.01721 ; infill
G1 X128.725 Y110.005 E0.02811 ; infill
G1 X128.995 Y109.735 E0.01217 ; infill
G1 X129.891 Y110.630 E0.04027 ; infill
G1 X130.432 Y110.630 E0.01721 ; infill
G1 X129.266 Y109.464 E0.05244 ; infill
G1 X129.536 Y109.194 E0.01217 ; infill
G1 X130.973 Y110.630 E0.06461 ; infill
G1 X131.514 Y110.630 E0.01721 ; infill
G1 X129.807 Y108.923 E0.07677 ; infill
G1 X130.077 Y108.653 E0.01217 ; infill
G1 X131.630 Y110.206 E0.06985 ; infill
G1 X131.630 Y109.665 E0.01721 ; infill
G1 X130.348 Y108.382 E0.05768 ; infill
G1 X130.370 Y108.360 E0.00099 ; infill
G1 X130.370 Y107.863 E0.01580 ; infill
G1 X131.630 Y109.124 E0.05669 ; infill
G1 X131.630 Y108.583 E0.01721 ; infill
G1 X130.370 Y107.323 E0.05669 ; infill
G1 X130.370 Y106.782 E0.01721 ; infill
G1 X131.630 Y108.042 E0.05669 ; infill
G1 X131.630 Y107.501 E0.01721 ; infill
G1 X130.370 Y106.241 E0.05669 ; infill
G1 X130.370 Y105.700 E0.01721 ; infill
G1 X131.630 Y106.960 E0.05669 ; infill
G1 X131.630 Y106.419 E0.01721 ; infill
G1 X130.370 Y105.159 E0.05669 ; infill
G1 X130.370 Y104.618 E0.01721 ; infill
G1 X131.630 Y105.878 E0.05669 ; infill
G1 X131.630 Y105.337 E0.01721 ; infill
G1 X130.370 Y104.077 E0.05669 ; infill
G1 X130.370 Y103.536 E0.01721 ; infill
G1 X131.630 Y104.796 E0.05669 ; infill
G1 X131.630 Y104.255 E0.01721 ; infill
G1 X130.370 Y102.995 E0.05669 ; infill
G1 X130.370 Y102.454 E0.01721 ; infill
G1 X131.630 Y103.714 E0.05669 ; infill
G1 X131.630 Y103.173 E0.01721 ; infill
G1 X130.370 Y101.913 E0.05669 ; infill
G1 X130.370 Y101.372 E0.01721 ; infill
G1 X131.630 Y102.632 E0.05669 ; infill
G1 X131.630 Y102.091 E0.01721 ; infill
G1 X130.370 Y100.831 E0.05669 ; infill
G1 X130.370 Y100.290 E0.01721 ; infill
G1 X131.630 Y101.550 E0.05669 ; infill
G1 X131.630 Y101.009 E0.01721 ; infill
G1 X130.370 Y99.749 E0.05669 ; infill
G1 X130.370 Y99.208 E0.01721 ; infill
G1 X131.630 Y100.468 E0.05669 ; infill
G1 X131.630 Y99.927 E0.01721 ; infill
G1 X130.370 Y98.667 E0.05669 ; infill
G1 X130.370 Y98.126 E0.01721 ; infill
G1 X131.630 Y99.386 E0.05669 ; infill
G1 X131.630 Y98.845 E0.01721 ; infill
G1 X130.655 Y97.870 E0.04388 ; infill
G1 X131.196 Y97.870 E0.01721 ; infill
G1 X131.800 Y98.474 E0.02718 ; infill
M106 S255 ; enable fan
;BEFORE_LAYER_CHANGE
;0.35


G1 F9600
G1 X131.196 Y97.870 E-0.17755 ; wipe and retract
G1 F9600
G1 X130.655 Y97.870 E-0.11242 ; wipe and retract
G1 F9600
G1 X131.630 Y98.845 E-0.28667 ; wipe and retract
G1 F9600
G1 X131.630 Y99.386 E-0.11242 ; wipe and retract
G1 F9600
G1 X131.389 Y99.145 E-0.07094 ; wipe and retract
G1 E-0.04000 F2100.00000 ; retract
G1 Z0.800 F12000.000 ; lift Z
;AFTER_LAYER_CHANGE
;0.35
M104 S210 ; set temperature
G1 X134.945 Y95.733 F12000.000 ; move to first skirt point
G1 Z0.350 F12000.000 ; restore layer Z
G1 E0.80000 F2100.00000 ; unretract
G1 F900
G1 X135.236 Y96.688 E0.02416 ; skirt
G1 X135.252 Y111.598 E0.36060 ; skirt
G1 X135.082 Y112.459 E0.02123 ; skirt
G1 X134.651 Y113.220 E0.02113 ; skirt
G1 X134.109 Y113.735 E0.01809 ; skirt
G1 X133.448 Y114.086 E0.01809 ; skirt
G1 X127.782 Y115.740 E0.14277 ; skirt
G1 X117.365 Y115.751 E0.25193 ; skirt
G1 X116.525 Y115.576 E0.02074 ; skirt
G1 X115.780 Y115.151 E0.02074 ; skirt
G1 X115.372 Y114.749 E0.01386 ; skirt
G1 X115.057 Y114.271 E0.01386 ; skirt
G1 X114.847 Y113.738 E0.01386 ; skirt
G1 X114.751 Y113.173 E0.01386 ; skirt
G1 X114.766 Y109.669 E0.08475 ; skirt
G1 X114.961 Y108.934 E0.01838 ; skirt
G1 X115.349 Y108.280 E0.01838 ; skirt
G1 X127.757 Y94.868 E0.44189 ; skirt
G1 X128.410 Y94.471 E0.01848 ; skirt
G1 X129.142 Y94.269 E0.01838 ; skirt
G1 X132.504 Y94.246 E0.08130 ; skirt
G1 X133.482 Y94.427 E0.02406 ; skirt
G1 X134.336 Y94.947 E0.02416 ; skirt
G1 X134.909 Y95.685 E0.02261 ; skirt
G1 F9600
G1 X135.236 Y96.688 E-0.21929 ; wipe and retract
G1 F9600
G1 X135.239 Y99.290 E-0.54071 ; wipe and retract
G1 E-0.04000 F2100.00000 ; retract
G1 Z0.950 F12000.000 ; lift Z
G1 X131.857 Y97.643 F12000.000 ; move to first perimeter point
G1 Z0.350 F12000.000 ; restore layer Z
G1 E0.80000 F2100.00000 ; unretract
M204 S800 ; adjust acceleration
G1 F900
G1 X131.857 Y110.857 E0.34431 ; perimeter
G1 X126.857 Y110.857 E0.13028 ; perimeter
G1 X126.857 Y112.357 E0.03908 ; perimeter
G1 X118.143 Y112.357 E0.22706 ; perimeter
G1 X118.143 Y110.643 E0.04467 ; perimeter
G1 X127.766 Y110.643 E0.25075 ; perimeter
G1 X130.143 Y108.266 E0.08757 ; perimeter
G1 X130.143 Y97.643 E0.27680 ; perimeter
G1 X131.797 Y97.643 E0.04311 ; perimeter
M204 S1000 ; adjust acceleration
G1 F9600
G1 X131.814 Y101.300 E-0.76000 ; wipe and retract
G1 E-0.04000 F2100.00000 ; retract
G1 Z0.950 F12000.000 ; lift Z
G1 X127.275 Y111.275 F12000.000 ; move to first perimeter point
G1 Z0.350 F12000.000 ; restore layer Z
G1 E0.80000 F2100.00000 ; unretract
M204 S800 ; adjust acceleration
G1 F900
G1 X127.275 Y112.775 E0.03908 ; perimeter
G1 X117.725 Y112.775 E0.24883 ; perimeter
G1 X117.725 Y110.225 E0.06644 ; perimeter
G1 X127.593 Y110.225 E0.25712 ; perimeter
G1 X129.725 Y108.093 E0.07855 ; perimeter
G1 X129.725 Y97.225 E0.28318 ; perimeter
G1 X132.275 Y97.225 E0.06644 ; perimeter
G1 X132.275 Y111.275 E0.36608 ; perimeter
G1 X127.335 Y111.275 E0.12872 ; perimeter
M204 S1000 ; adjust acceleration
G1 X126.908 Y111.434 F12000.000 ; move inwards before travel
G1 F9600
G1 X127.275 Y112.775 E-0.31197 ; wipe and retract
G1 F9600
G1 X125.119 Y112.775 E-0.44803 ; wipe and retract
G1 E-0.04000 F2100.00000 ; retract
G1 Z0.950 F12000.000 ; lift Z
G1 X125.835 Y112.232 F12000.000 ; move to first infill point
G1 Z0.350 F12000.000 ; restore layer Z
G1 E0.80000 F2100.00000 ; unretract
M204 S1500 ; adjust acceleration
G1 F900
G1 X126.544 Y111.523 E0.02766 ; infill
G1 X126.544 Y110.956 E0.01564 ; infill
G1 X126.485 Y110.956 E0.00162 ; infill
G1 X125.397 Y112.044 E0.04244 ; infill
G1 X124.772 Y112.044 E0.01726 ; infill
G1 X125.859 Y110.956 E0.04244 ; infill
G1 X125.234 Y110.956 E0.01726 ; infill
G1 X124.146 Y112.044 E0.04244 ; infill
G1 X123.520 Y112.044 E0.01726 ; infill
G1 X124.608 Y110.956 E0.04244 ; infill
G1 X123.982 Y110.956 E0.01726 ; infill
G1 X122.895 Y112.044 E0.04244 ; infill
G1 X122.269 Y112.044 E0.01726 ; infill
G1 X123.357 Y110.956 E0.04244 ; infill
G1 X122.731 Y110.956 E0.01726 ; infill
G1 X121.643 Y112.044 E0.04244 ; infill
G1 X121.018 Y112.044 E0.01726 ; infill
G1 X122.105 Y110.956 E0.04244 ; infill
G1 X121.480 Y110.956 E0.01726 ; infill
G1 X120.392 Y112.044 E0.04244 ; infill
G1 X119.766 Y112.044 E0.01726 ; infill
G1 X120.854 Y110.956 E0.04244 ; infill
G1 X120.228 Y110.956 E0.01726 ; infill
G1 X119.141 Y112.044 E0.04244 ; infill
G1 X118.515 Y112.044 E0.01726 ; infill
G1 X119.603 Y110.956 E0.04244 ; infill
G1 X118.977 Y110.956 E0.01726 ; infill
G1 X118.268 Y111.665 E0.02765 ; infill
M204 S1000 ; adjust acceleration
G1 F9600
G1 X118.977 Y110.956 E-0.20828 ; wipe and retract
G1 F9600
G1 X119.603 Y110.956 E-0.13003 ; wipe and retract
G1 F9600
G1 X118.515 Y112.044 E-0.31966 ; wipe and retract
G1 F9600
G1 X119.006 Y112.044 E-0.10204 ; wipe and retract
G1 E-0.04000 F2100.00000 ; retract
G1 Z0.950 F12000.000 ; lift Z
G1 X130.867 Y110.732 F12000.000 ; move to first infill point
G1 Z0.350 F12000.000 ; restore layer Z
G1 E0.80000 F2100.00000 ; unretract
M204 S1500 ; adjust acceleration
G1 F900
G1 X131.544 Y110.055 E0.02554 ; infill
G1 X131.544 Y109.450 E0.01612 ; infill
G1 X130.450 Y110.544 E0.04124 ; infill
G1 X129.845 Y110.544 E0.01612 ; infill
G1 X131.544 Y108.845 E0.06404 ; infill
G1 X131.544 Y108.241 E0.01612 ; infill
G1 X129.241 Y110.544 E0.08684 ; infill
G1 X128.636 Y110.544 E0.01612 ; infill
G1 X131.544 Y107.636 E0.10964 ; infill
G1 X131.544 Y107.032 E0.01612 ; infill
G1 X130.456 Y108.119 E0.04101 ; infill
G1 X130.456 Y107.515 E0.01612 ; infill
G1 X131.544 Y106.427 E0.04101 ; infill
G1 X131.544 Y105.822 E0.01612 ; infill
G1 X130.456 Y106.910 E0.04101 ; infill
G1 X130.456 Y106.305 E0.01612 ; infill
G1 X131.544 Y105.218 E0.04101 ; infill
G1 X131.544 Y104.613 E0.01612 ; infill
G1 X130.456 Y105.701 E0.04101 ; infill
G1 X130.456 Y105.096 E0.01612 ; infill
G1 X131.544 Y104.008 E0.04101 ; infill
G1 X131.544 Y103.404 E0.01612 ; infill
G1 X130.456 Y104.491 E0.04101 ; infill
G1 X130.456 Y103.887 E0.01612 ; infill
G1 X131.544 Y102.799 E0.04101 ; infill
G1 X131.544 Y102.195 E0.01612 ; infill
G1 X130.456 Y103.282 E0.04101 ; infill
G1 X130.456 Y102.678 E0.01612 ; infill
G1 X131.544 Y101.590 E0.04101 ; infill
G1 X131.544 Y100.985 E0.01612 ; infill
G1 X130.456 Y102.073 E0.04101 ; infill
G1 X130.456 Y101.468 E0.01612 ; infill
G1 X131.544 Y100.381 E0.04101 ; infill
G1 X131.544 Y99.776 E0.01612 ; infill
G1 X130.456 Y100.864 E0.04101 ; infill
G1 X130.456 Y100.259 E0.01612 ; infill
G1 X131.544 Y99.171 E0.04101 ; infill
G1 X131.544 Y98.567 E0.01612 ; infill
G1 X130.456 Y99.654 E0.04101 ; infill
G1 X130.456 Y99.050 E0.01612 ; infill
G1 X131.544 Y97.956 E0.04113 ; infill
G1 X130.945 Y97.956 E0.01596 ; infill
G1 X130.268 Y98.633 E0.02553 ; infill
M204 S1000 ; adjust acceleration
;BEFORE_LAYER_CHANGE
;0.5


G1 F9600
G1 X130.945 Y97.956 E-0.19899 ; wipe and retract
G1 F9600
G1 X131.544 Y97.956 E-0.12440 ; wipe and retract
G1 F9600
G1 X130.456 Y99.050 E-0.32055 ; wipe and retract
G1 F9600
G1 X130.456 Y99.608 E-0.11606 ; wipe and retract
G1 E-0.04000 F2100.00000 ; retract
G1 Z0.950 F12000.000 ; lift Z
;AFTER_LAYER_CHANGE
;0.5
G1 X133.482 Y94.427 F12000.000 ; move to first skirt point
G1 Z0.500 F12000.000 ; restore layer Z
G1 E0.80000 F2100.00000 ; unretract
G1 F900
