; generated by Slic3r 1.37.2.1-prusa3d-win64 on 2018-04-21 at 19:14:11

; 

; external perimeters extrusion width = 0.45mm
; perimeters extrusion width = 0.45mm
; infill extrusion width = 0.45mm
; solid infill extrusion width = 0.45mm
; top infill extrusion width = 0.40mm
; support material extrusion width = 0.35mm
; first layer extrusion width = 0.42mm

M107 ; disable fan
M115 U3.1.1-RC5 ; tell printer latest fw version
M83  ; extruder relative mode
M104 S215 ; set extruder temp
M140 S60 ; set bed temp
M190 S60 ; wait for bed temp
M109 S215 ; wait for extruder temp
G28 W ; home all without mesh bed level
G80 ; mesh bed leveling
G1 Y-3.0 F1000.0 ; go outside print area
G92 E0.0
G1 X60.0 E9.0  F1000.0 ; intro line
G1 X100.0 E12.5  F1000.0 ; intro line
G92 E0.0
M221 S95
M900 K30
G21 ; set units to millimeters
G90 ; use absolute coordinates
M83 ; use relative distances for extrusion
;BEFORE_LAYER_CHANGE
;0.2


G1 E-0.80000 F2100.00000 ; retract
G1 Z0.600 F12000.000 ; lift Z
;AFTER_LAYER_CHANGE
;0.2
G1 X111.527 Y73.989 F12000.000 ; move to first skirt point
G1 Z0.200 F12000.000 ; restore layer Z
G1 E0.80000 F2100.00000 ; unretract
M204 S1000 ; adjust acceleration
G1 F1800
G1 X112.061 Y73.353 E0.02602 ; skirt
G1 X112.777 Y72.941 E0.02590 ; skirt
G1 X113.590 Y72.798 E0.02590 ; skirt
G1 X134.892 Y75.742 E0.67426 ; skirt
G1 X135.510 Y76.051 E0.02166 ; skirt
G1 X136.013 Y76.524 E0.02166 ; skirt
G1 X138.929 Y80.642 E0.15821 ; skirt
G1 X139.211 Y81.201 E0.01965 ; skirt
G1 X139.343 Y81.956 E0.02402 ; skirt
G1 X139.340 Y92.855 E0.34172 ; skirt
G1 X136.519 Y132.193 E1.23659 ; skirt
G1 X136.367 Y132.859 E0.02142 ; skirt
G1 X136.031 Y133.454 E0.02142 ; skirt
G1 X135.536 Y133.931 E0.02154 ; skirt
G1 X134.930 Y134.246 E0.02142 ; skirt
G1 X134.179 Y134.377 E0.02390 ; skirt
G1 X126.031 Y134.356 E0.25547 ; skirt
G1 X125.402 Y134.180 E0.02048 ; skirt
G1 X124.845 Y133.840 E0.02048 ; skirt
G1 X124.401 Y133.361 E0.02048 ; skirt
G1 X124.104 Y132.779 E0.02048 ; skirt
G1 X111.246 Y86.185 E1.51551 ; skirt
G1 X111.246 Y74.766 E0.35805 ; skirt
G1 X111.507 Y74.046 E0.02402 ; skirt
G1 F9600
G1 X112.061 Y73.353 E-0.18423 ; wipe and retract
G1 F9600
G1 X112.777 Y72.941 E-0.17168 ; wipe and retract
G1 F9600
G1 X113.590 Y72.798 E-0.17168 ; wipe and retract
G1 F9600
G1 X114.698 Y72.951 E-0.23241 ; wipe and retract
G1 E-0.04000 F2100.00000 ; retract
G1 Z0.800 F12000.000 ; lift Z
G1 X115.850 Y77.689 F12000.000 ; move to first support material point
G1 Z0.200 F12000.000 ; restore layer Z
G1 E0.80000 F2100.00000 ; unretract
G1 F1800
G1 X115.850 Y77.438 E0.00787 ; support material
G1 X115.096 Y76.684 E0.03344 ; support material
G1 X115.096 Y85.606 E0.27975 ; support material
G1 X115.850 Y85.606 E0.02365 ; support material
G1 X115.850 Y81.481 E0.12933 ; support material
G1 X116.604 Y81.481 E0.02365 ; support material
G1 X116.604 Y85.606 E0.12933 ; support material
G1 X117.358 Y85.606 E0.02365 ; support material
G1 X117.358 Y81.481 E0.12933 ; support material
G1 X118.112 Y81.481 E0.02365 ; support material
G1 X118.112 Y85.606 E0.12933 ; support material
G1 X118.867 Y85.606 E0.02365 ; support material
G1 X118.867 Y81.481 E0.12933 ; support material
G1 X119.621 Y81.481 E0.02365 ; support material
G1 X119.621 Y85.606 E0.12933 ; support material
G1 X120.375 Y85.606 E0.02365 ; support material
G1 X120.375 Y81.481 E0.12933 ; support material
G1 X121.129 Y81.481 E0.02365 ; support material
G1 X121.129 Y85.606 E0.12933 ; support material
G1 X121.883 Y85.606 E0.02365 ; support material
G1 X121.883 Y81.481 E0.12933 ; support material
G1 X122.637 Y81.481 E0.02365 ; support material
G1 X122.637 Y92.559 E0.34735 ; support material
G1 X123.392 Y92.559 E0.02365 ; support material
G1 X123.392 Y81.481 E0.34735 ; support material
G1 X123.456 Y81.481 E0.00202 ; support material
G1 X123.456 Y81.983 E0.01574 ; support material
G1 X124.146 Y81.983 E0.02163 ; support material
G1 X124.146 Y92.559 E0.33161 ; support material
G1 X124.900 Y92.559 E0.02365 ; support material
G1 X124.900 Y81.983 E0.33161 ; support material
G1 X125.654 Y81.983 E0.02365 ; support material
G1 X125.654 Y92.729 E0.33693 ; support material
G1 F9600
G1 X125.654 Y89.072 E-0.76000 ; wipe and retract
G1 E-0.04000 F2100.00000 ; retract
G1 Z0.800 F12000.000 ; lift Z
G1 X134.704 Y92.729 F12000.000 ; move to first support material point
G1 Z0.200 F12000.000 ; restore layer Z
G1 E0.80000 F2100.00000 ; unretract
G1 F1800
G1 X134.704 Y81.983 E0.33693 ; support material
G1 X135.458 Y81.983 E0.02365 ; support material
G1 X135.458 Y92.559 E0.33161 ; support material
G1 X136.212 Y92.559 E0.02365 ; support material
G1 X136.212 Y81.983 E0.33161 ; support material
G1 X136.966 Y81.983 E0.02365 ; support material
G1 X136.966 Y92.729 E0.33693 ; support material
G1 F9600
G1 X136.966 Y89.072 E-0.76000 ; wipe and retract
G1 E-0.04000 F2100.00000 ; retract
G1 Z0.800 F12000.000 ; lift Z
G1 X114.342 Y85.776 F12000.000 ; move to first support material point
G1 Z0.200 F12000.000 ; restore layer Z
G1 E0.80000 F2100.00000 ; unretract
G1 F1800
G1 X114.342 Y75.929 E0.30872 ; support material
G1 X113.588 Y75.175 E0.03344 ; support material
G1 X113.588 Y85.776 E0.33236 ; support material
G1 F9600
G1 X113.588 Y82.118 E-0.76000 ; wipe and retract
G1 E-0.04000 F2100.00000 ; retract
G1 Z0.800 F12000.000 ; lift Z
G1 X116.437 Y80.413 F12000.000 ; move to first perimeter point
G1 Z0.200 F12000.000 ; restore layer Z
G1 E0.80000 F2100.00000 ; unretract
G1 F1800
G1 X116.437 Y78.587 E0.05725 ; perimeter
G1 X133.563 Y78.587 E0.53697 ; perimeter
G1 X133.563 Y131.413 E1.65632 ; perimeter
G1 X126.937 Y131.413 E0.20775 ; perimeter
G1 X126.937 Y80.413 E1.59907 ; perimeter
G1 X116.497 Y80.413 E0.32734 ; perimeter
G1 F9600
G1 X116.437 Y78.587 E-0.37964 ; wipe and retract
G1 F9600
G1 X118.267 Y78.587 E-0.38036 ; wipe and retract
G1 E-0.04000 F2100.00000 ; retract
G1 Z0.800 F12000.000 ; lift Z
G1 X126.560 Y80.790 F12000.000 ; move to first perimeter point
G1 Z0.200 F12000.000 ; restore layer Z
G1 E0.80000 F2100.00000 ; unretract
G1 F1800
G1 X116.060 Y80.790 E0.32922 ; perimeter
G1 X116.060 Y78.210 E0.08089 ; perimeter
G1 X133.940 Y78.210 E0.56061 ; perimeter
G1 X133.940 Y131.790 E1.67996 ; perimeter
G1 X126.560 Y131.790 E0.23139 ; perimeter
G1 X126.560 Y80.850 E1.59719 ; perimeter
G1 X126.541 Y80.390 F12000.000 ; move inwards before travel
G1 X126.763 Y80.300 F12000.000 ; move to first infill point
G1 F1800
G1 X125.333 Y78.870 E0.06385 ; infill
G1 X124.796 Y78.870 E0.01696 ; infill
G1 X126.056 Y80.130 E0.05628 ; infill
G1 X125.519 Y80.130 E0.01696 ; infill
G1 X124.259 Y78.870 E0.05628 ; infill
G1 X123.722 Y78.870 E0.01696 ; infill
G1 X124.982 Y80.130 E0.05628 ; infill
G1 X124.445 Y80.130 E0.01696 ; infill
G1 X123.185 Y78.870 E0.05628 ; infill
G1 X122.648 Y78.870 E0.01696 ; infill
G1 X123.908 Y80.130 E0.05628 ; infill
G1 X123.371 Y80.130 E0.01696 ; infill
G1 X122.111 Y78.870 E0.05628 ; infill
G1 X121.574 Y78.870 E0.01696 ; infill
G1 X122.834 Y80.130 E0.05628 ; infill
G1 X122.297 Y80.130 E0.01696 ; infill
G1 X121.037 Y78.870 E0.05628 ; infill
G1 X120.500 Y78.870 E0.01696 ; infill
G1 X121.760 Y80.130 E0.05628 ; infill
G1 X121.223 Y80.130 E0.01696 ; infill
G1 X119.963 Y78.870 E0.05628 ; infill
G1 X119.426 Y78.870 E0.01696 ; infill
G1 X120.686 Y80.130 E0.05628 ; infill
G1 X120.149 Y80.130 E0.01696 ; infill
G1 X118.888 Y78.870 E0.05628 ; infill
G1 X118.351 Y78.870 E0.01696 ; infill
G1 X119.612 Y80.130 E0.05628 ; infill
G1 X119.075 Y80.130 E0.01696 ; infill
G1 X117.814 Y78.870 E0.05628 ; infill
G1 X117.277 Y78.870 E0.01696 ; infill
G1 X118.538 Y80.130 E0.05628 ; infill
G1 X118.001 Y80.130 E0.01696 ; infill
G1 X116.740 Y78.870 E0.05628 ; infill
G1 X116.720 Y78.870 E0.00065 ; infill
G1 X116.720 Y79.386 E0.01631 ; infill
G1 X117.464 Y80.130 E0.03321 ; infill
G1 X116.927 Y80.130 E0.01696 ; infill
G1 X116.550 Y79.754 E0.01680 ; infill
G1 F9600
G1 X116.927 Y80.130 E-0.11060 ; wipe and retract
G1 F9600
G1 X117.464 Y80.130 E-0.11160 ; wipe and retract
G1 F9600
G1 X116.720 Y79.386 E-0.21856 ; wipe and retract
G1 F9600
G1 X116.720 Y78.870 E-0.10735 ; wipe and retract
G1 F9600
G1 X116.740 Y78.870 E-0.00425 ; wipe and retract
G1 F9600
G1 X117.447 Y79.576 E-0.20763 ; wipe and retract
G1 E-0.04000 F2100.00000 ; retract
G1 Z0.800 F12000.000 ; lift Z
G1 X133.450 Y79.468 F12000.000 ; move to first infill point
G1 Z0.200 F12000.000 ; restore layer Z
G1 E0.80000 F2100.00000 ; unretract
G1 F1800
G1 X132.852 Y78.870 E0.02671 ; infill
G1 X132.315 Y78.870 E0.01696 ; infill
G1 X133.280 Y79.835 E0.04312 ; infill
G1 X133.280 Y80.373 E0.01696 ; infill
G1 X131.777 Y78.870 E0.06710 ; infill
G1 X131.240 Y78.870 E0.01696 ; infill
G1 X133.280 Y80.910 E0.09108 ; infill
G1 X133.280 Y81.447 E0.01696 ; infill
G1 X130.703 Y78.870 E0.11506 ; infill
G1 X130.166 Y78.870 E0.01696 ; infill
G1 X133.280 Y81.984 E0.13905 ; infill
G1 X133.280 Y82.521 E0.01696 ; infill
G1 X129.629 Y78.870 E0.16303 ; infill
G1 X129.092 Y78.870 E0.01696 ; infill
G1 X133.280 Y83.058 E0.18701 ; infill
G1 X133.280 Y83.595 E0.01696 ; infill
G1 X128.555 Y78.870 E0.21099 ; infill
G1 X128.018 Y78.870 E0.01696 ; infill
G1 X133.280 Y84.132 E0.23497 ; infill
G1 X133.280 Y84.669 E0.01696 ; infill
G1 X127.481 Y78.870 E0.25895 ; infill
G1 X126.944 Y78.870 E0.01696 ; infill
G1 X133.280 Y85.206 E0.28294 ; infill
G1 X133.280 Y85.743 E0.01696 ; infill
G1 X126.407 Y78.870 E0.30692 ; infill
G1 X125.870 Y78.870 E0.01696 ; infill
G1 X133.280 Y86.280 E0.33090 ; infill
G1 X133.280 Y86.817 E0.01696 ; infill
G1 X127.220 Y80.757 E0.27062 ; infill
G1 X127.220 Y81.294 E0.01696 ; infill
G1 X133.280 Y87.354 E0.27062 ; infill
G1 X133.280 Y87.891 E0.01696 ; infill
G1 X127.220 Y81.831 E0.27062 ; infill
G1 X127.220 Y82.368 E0.01696 ; infill
G1 X133.280 Y88.428 E0.27062 ; infill
G1 X133.280 Y88.965 E0.01696 ; infill
G1 X127.220 Y82.905 E0.27062 ; infill
G1 X127.220 Y83.442 E0.01696 ; infill
G1 X133.280 Y89.502 E0.27062 ; infill
G1 X133.280 Y90.039 E0.01696 ; infill
G1 X127.220 Y83.979 E0.27062 ; infill
G1 X127.220 Y84.516 E0.01696 ; infill
G1 X133.280 Y90.576 E0.27062 ; infill
G1 X133.280 Y91.113 E0.01696 ; infill
G1 X127.220 Y85.053 E0.27062 ; infill
G1 X127.220 Y85.590 E0.01696 ; infill
G1 X133.280 Y91.650 E0.27062 ; infill
G1 X133.280 Y92.187 E0.01696 ; infill
G1 X127.220 Y86.127 E0.27062 ; infill
G1 X127.220 Y86.664 E0.01696 ; infill
G1 X133.280 Y92.724 E0.27062 ; infill
G1 X133.280 Y93.262 E0.01696 ; infill
G1 X127.220 Y87.201 E0.27062 ; infill
G1 X127.220 Y87.738 E0.01696 ; infill
G1 X133.280 Y93.799 E0.27062 ; infill
G1 X133.280 Y94.336 E0.01696 ; infill
G1 X127.220 Y88.275 E0.27062 ; infill
G1 X127.220 Y88.812 E0.01696 ; infill
G1 X133.280 Y94.873 E0.27062 ; infill
G1 X133.280 Y95.410 E0.01696 ; infill
G1 X127.220 Y89.349 E0.27062 ; infill
G1 X127.220 Y89.886 E0.01696 ; infill
G1 X133.280 Y95.947 E0.27062 ; infill
G1 X133.280 Y96.484 E0.01696 ; infill
G1 X127.220 Y90.423 E0.27062 ; infill
G1 X127.220 Y90.961 E0.01696 ; infill
G1 X133.280 Y97.021 E0.27062 ; infill
G1 X133.280 Y97.558 E0.01696 ; infill
G1 X127.220 Y91.498 E0.27062 ; infill
G1 X127.220 Y92.035 E0.01696 ; infill
G1 X133.280 Y98.095 E0.27062 ; infill
G1 X133.280 Y98.632 E0.01696 ; infill
G1 X127.220 Y92.572 E0.27062 ; infill
G1 X127.220 Y93.109 E0.01696 ; infill
G1 X133.280 Y99.169 E0.27062 ; infill
G1 X133.280 Y99.706 E0.01696 ; infill
G1 X127.220 Y93.646 E0.27062 ; infill
G1 X127.220 Y94.183 E0.01696 ; infill
G1 X133.280 Y100.243 E0.27062 ; infill
G1 X133.280 Y100.780 E0.01696 ; infill
G1 X127.220 Y94.720 E0.27062 ; infill
G1 X127.220 Y95.257 E0.01696 ; infill
G1 X133.280 Y101.317 E0.27062 ; infill
G1 X133.280 Y101.854 E0.01696 ; infill
G1 X127.220 Y95.794 E0.27062 ; infill
G1 X127.220 Y96.331 E0.01696 ; infill
G1 X133.280 Y102.391 E0.27062 ; infill
G1 X133.280 Y102.928 E0.01696 ; infill
G1 X127.220 Y96.868 E0.27062 ; infill
G1 X127.220 Y97.405 E0.01696 ; infill
G1 X133.280 Y103.465 E0.27062 ; infill
G1 X133.280 Y104.002 E0.01696 ; infill
G1 X127.220 Y97.942 E0.27062 ; infill
G1 X127.220 Y98.479 E0.01696 ; infill
G1 X133.280 Y104.539 E0.27062 ; infill
G1 X133.280 Y105.076 E0.01696 ; infill
G1 X127.220 Y99.016 E0.27062 ; infill
G1 X127.220 Y99.553 E0.01696 ; infill
G1 X133.280 Y105.613 E0.27062 ; infill
G1 X133.280 Y106.151 E0.01696 ; infill
G1 X127.220 Y100.090 E0.27062 ; infill
G1 X127.220 Y100.627 E0.01696 ; infill
G1 X133.280 Y106.688 E0.27062 ; infill
G1 X133.280 Y107.225 E0.01696 ; infill
G1 X127.220 Y101.164 E0.27062 ; infill
G1 X127.220 Y101.701 E0.01696 ; infill
G1 X133.280 Y107.762 E0.27062 ; infill
G1 X133.280 Y108.299 E0.01696 ; infill
G1 X127.220 Y102.238 E0.27062 ; infill
G1 X127.220 Y102.775 E0.01696 ; infill
G1 X133.280 Y108.836 E0.27062 ; infill
G1 X133.280 Y109.373 E0.01696 ; infill
G1 X127.220 Y103.313 E0.27062 ; infill
G1 X127.220 Y103.850 E0.01696 ; infill
G1 X133.280 Y109.910 E0.27062 ; infill
G1 X133.280 Y110.447 E0.01696 ; infill
G1 X127.220 Y104.387 E0.27062 ; infill
G1 X127.220 Y104.924 E0.01696 ; infill
G1 X133.280 Y110.984 E0.27062 ; infill
G1 X133.280 Y111.521 E0.01696 ; infill
G1 X127.220 Y105.461 E0.27062 ; infill
G1 X127.220 Y105.998 E0.01696 ; infill
G1 X133.280 Y112.058 E0.27062 ; infill
G1 X133.280 Y112.595 E0.01696 ; infill
G1 X127.220 Y106.535 E0.27062 ; infill
G1 X127.220 Y107.072 E0.01696 ; infill
G1 X133.280 Y113.132 E0.27062 ; infill
G1 X133.280 Y113.669 E0.01696 ; infill
G1 X127.220 Y107.609 E0.27062 ; infill
G1 X127.220 Y108.146 E0.01696 ; infill
G1 X133.280 Y114.206 E0.27062 ; infill
G1 X133.280 Y114.743 E0.01696 ; infill
G1 X127.220 Y108.683 E0.27062 ; infill
G1 X127.220 Y109.220 E0.01696 ; infill
G1 X133.280 Y115.280 E0.27062 ; infill
G1 X133.280 Y115.817 E0.01696 ; infill
G1 X127.220 Y109.757 E0.27062 ; infill
G1 X127.220 Y110.294 E0.01696 ; infill
G1 X133.280 Y116.354 E0.27062 ; infill
G1 X133.280 Y116.891 E0.01696 ; infill
G1 X127.220 Y110.831 E0.27062 ; infill
G1 X127.220 Y111.368 E0.01696 ; infill
G1 X133.280 Y117.428 E0.27062 ; infill
G1 X133.280 Y117.965 E0.01696 ; infill
G1 X127.220 Y111.905 E0.27062 ; infill
G1 X127.220 Y112.442 E0.01696 ; infill
G1 X133.280 Y118.502 E0.27062 ; infill
G1 X133.280 Y119.040 E0.01696 ; infill
G1 X127.220 Y112.979 E0.27062 ; infill
G1 X127.220 Y113.516 E0.01696 ; infill
G1 X133.280 Y119.577 E0.27062 ; infill
G1 X133.280 Y120.114 E0.01696 ; infill
G1 X127.220 Y114.053 E0.27062 ; infill
G1 X127.220 Y114.590 E0.01696 ; infill
G1 X133.280 Y120.651 E0.27062 ; infill
G1 X133.280 Y121.188 E0.01696 ; infill
G1 X127.220 Y115.127 E0.27062 ; infill
G1 X127.220 Y115.664 E0.01696 ; infill
G1 X133.280 Y121.725 E0.27062 ; infill
G1 X133.280 Y122.262 E0.01696 ; infill
G1 X127.220 Y116.202 E0.27062 ; infill
G1 X127.220 Y116.739 E0.01696 ; infill
G1 X133.280 Y122.799 E0.27062 ; infill
G1 X133.280 Y123.336 E0.01696 ; infill
G1 X127.220 Y117.276 E0.27062 ; infill
G1 X127.220 Y117.813 E0.01696 ; infill
G1 X133.280 Y123.873 E0.27062 ; infill
G1 X133.280 Y124.410 E0.01696 ; infill
G1 X127.220 Y118.350 E0.27062 ; infill
G1 X127.220 Y118.887 E0.01696 ; infill
G1 X133.280 Y124.947 E0.27062 ; infill
G1 X133.280 Y125.484 E0.01696 ; infill
G1 X127.220 Y119.424 E0.27062 ; infill
G1 X127.220 Y119.961 E0.01696 ; infill
G1 X133.280 Y126.021 E0.27062 ; infill
G1 X133.280 Y126.558 E0.01696 ; infill
G1 X127.220 Y120.498 E0.27062 ; infill
G1 X127.220 Y121.035 E0.01696 ; infill
G1 X133.280 Y127.095 E0.27062 ; infill
G1 X133.280 Y127.632 E0.01696 ; infill
G1 X127.220 Y121.572 E0.27062 ; infill
G1 X127.220 Y122.109 E0.01696 ; infill
G1 X133.280 Y128.169 E0.27062 ; infill
G1 X133.280 Y128.706 E0.01696 ; infill
G1 X127.220 Y122.646 E0.27062 ; infill
G1 X127.220 Y123.183 E0.01696 ; infill
G1 X133.280 Y129.243 E0.27062 ; infill
G1 X133.280 Y129.780 E0.01696 ; infill
G1 X127.220 Y123.720 E0.27062 ; infill
G1 X127.220 Y124.257 E0.01696 ; infill
G1 X133.280 Y130.317 E0.27062 ; infill
G1 X133.280 Y130.854 E0.01696 ; infill
G1 X127.220 Y124.794 E0.27062 ; infill
G1 X127.220 Y125.331 E0.01696 ; infill
G1 X133.019 Y131.130 E0.25895 ; infill
G1 X132.482 Y131.130 E0.01696 ; infill
G1 X127.220 Y125.868 E0.23497 ; infill
