; generated by Slic3r 1.37.2.1-prusa3d-win64 on 2018-04-23 at 12:32:24

; 

; external perimeters extrusion width = 0.45mm
; perimeters extrusion width = 0.45mm
; infill extrusion width = 0.45mm
; solid infill extrusion width = 0.45mm
; top infill extrusion width = 0.40mm
; support material extrusion width = 0.35mm
; first layer extrusion width = 0.42mm

M107 ; disable fan
M115 U3.1.1-RC5 ; tell printer latest fw version
M83  ; extruder relative mode
M104 S215 ; set extruder temp
M140 S60 ; set bed temp
M190 S60 ; wait for bed temp
M109 S215 ; wait for extruder temp
G28 W ; home all without mesh bed level
G80 ; mesh bed leveling
G1 Y-3.0 F1000.0 ; go outside print area
G92 E0.0
G1 X60.0 E9.0  F1000.0 ; intro line
G1 X100.0 E12.5  F1000.0 ; intro line
G92 E0.0
M221 S95
M900 K30
G21 ; set units to millimeters
G90 ; use absolute coordinates
M83 ; use relative distances for extrusion
;BEFORE_LAYER_CHANGE
;0.2


G1 E-0.80000 F2100.00000 ; retract
G1 Z0.600 F12000.000 ; lift Z
;AFTER_LAYER_CHANGE
;0.2
G1 X111.934 Y92.153 F12000.000 ; move to first skirt point
G1 Z0.200 F12000.000 ; restore layer Z
G1 E0.80000 F2100.00000 ; unretract
M204 S1000 ; adjust acceleration
G1 F1800
G1 X112.785 Y91.637 E0.03119 ; skirt
G1 X113.768 Y91.457 E0.03132 ; skirt
G1 X134.750 Y94.315 E0.66397 ; skirt
G1 X135.486 Y94.537 E0.02409 ; skirt
G1 X136.134 Y94.957 E0.02422 ; skirt
G1 X136.554 Y95.416 E0.01950 ; skirt
G1 X139.436 Y99.493 E0.15656 ; skirt
G1 X139.705 Y100.008 E0.01822 ; skirt
G1 X139.860 Y100.568 E0.01822 ; skirt
G1 X139.894 Y111.900 E0.35531 ; skirt
G1 X139.700 Y112.789 E0.02854 ; skirt
G1 X139.224 Y113.570 E0.02866 ; skirt
G1 X138.825 Y113.946 E0.01720 ; skirt
G1 X138.356 Y114.238 E0.01733 ; skirt
G1 X135.400 Y115.573 E0.10169 ; skirt
G1 X134.763 Y115.755 E0.02078 ; skirt
G1 X126.515 Y115.790 E0.25862 ; skirt
G1 X125.873 Y115.711 E0.02026 ; skirt
G1 X121.339 Y113.921 E0.15284 ; skirt
G1 X111.959 Y106.892 E0.36752 ; skirt
G1 X111.590 Y106.503 E0.01681 ; skirt
G1 X111.302 Y106.046 E0.01694 ; skirt
G1 X111.109 Y105.541 E0.01694 ; skirt
G1 X111.017 Y105.009 E0.01694 ; skirt
G1 X111.029 Y93.892 E0.34854 ; skirt
G1 X111.321 Y92.941 E0.03119 ; skirt
G1 X111.898 Y92.200 E0.02944 ; skirt
G1 X112.174 Y92.444 F12000.000 ; move to first skirt point
G1 F1800
G1 X112.914 Y91.991 E0.02720 ; skirt
G1 X113.767 Y91.834 E0.02720 ; skirt
G1 X134.688 Y94.686 E0.66203 ; skirt
G1 X135.314 Y94.873 E0.02048 ; skirt
G1 X135.868 Y95.226 E0.02060 ; skirt
G1 X136.250 Y95.639 E0.01763 ; skirt
G1 X139.117 Y99.694 E0.15570 ; skirt
G1 X139.351 Y100.138 E0.01574 ; skirt
G1 X139.487 Y100.621 E0.01574 ; skirt
G1 X139.518 Y111.864 E0.35253 ; skirt
G1 X139.357 Y112.632 E0.02461 ; skirt
G1 X138.951 Y113.308 E0.02473 ; skirt
G1 X138.186 Y113.901 E0.03036 ; skirt
G1 X135.256 Y115.224 E0.10079 ; skirt
G1 X134.693 Y115.385 E0.01835 ; skirt
G1 X126.515 Y115.413 E0.25641 ; skirt
G1 X125.950 Y115.342 E0.01787 ; skirt
G1 X121.540 Y113.602 E0.14863 ; skirt
G1 X112.223 Y106.621 E0.36505 ; skirt
G1 X111.641 Y105.880 E0.02954 ; skirt
G1 X111.392 Y104.967 E0.02966 ; skirt
G1 X111.400 Y93.964 E0.34499 ; skirt
G1 X111.646 Y93.132 E0.02720 ; skirt
G1 X112.138 Y92.492 E0.02531 ; skirt
G1 F9600
G1 X112.914 Y91.991 E-0.19194 ; wipe and retract
G1 F9600
G1 X113.767 Y91.834 E-0.18025 ; wipe and retract
G1 F9600
G1 X115.616 Y92.086 E-0.38781 ; wipe and retract
G1 E-0.04000 F2100.00000 ; retract
G1 Z0.800 F12000.000 ; lift Z
G1 X116.027 Y96.725 F12000.000 ; move to first support material point
G1 Z0.200 F12000.000 ; restore layer Z
G1 E0.80000 F2100.00000 ; unretract
G1 F1800
G1 X116.027 Y96.474 E0.00787 ; support material
G1 X115.273 Y95.720 E0.03344 ; support material
G1 X115.273 Y104.642 E0.27975 ; support material
G1 X116.027 Y104.642 E0.02365 ; support material
G1 X116.027 Y100.517 E0.12933 ; support material
G1 X116.781 Y100.517 E0.02365 ; support material
G1 X116.781 Y104.642 E0.12933 ; support material
G1 X117.535 Y104.642 E0.02365 ; support material
G1 X117.535 Y100.517 E0.12933 ; support material
G1 X118.289 Y100.517 E0.02365 ; support material
G1 X118.289 Y104.642 E0.12933 ; support material
G1 X119.043 Y104.642 E0.02365 ; support material
G1 X119.043 Y100.517 E0.12933 ; support material
G1 X119.798 Y100.517 E0.02365 ; support material
G1 X119.798 Y104.642 E0.12933 ; support material
G1 X120.552 Y104.642 E0.02365 ; support material
G1 X120.552 Y100.517 E0.12933 ; support material
G1 X121.306 Y100.517 E0.02365 ; support material
G1 X121.306 Y104.642 E0.12933 ; support material
G1 X122.060 Y104.642 E0.02365 ; support material
G1 X122.060 Y100.517 E0.12933 ; support material
G1 X122.814 Y100.517 E0.02365 ; support material
G1 X122.814 Y111.595 E0.34735 ; support material
G1 X123.568 Y111.595 E0.02365 ; support material
G1 X123.568 Y100.517 E0.34735 ; support material
G1 X123.633 Y100.517 E0.00202 ; support material
G1 X123.633 Y101.019 E0.01574 ; support material
G1 X124.323 Y101.019 E0.02163 ; support material
G1 X124.323 Y111.595 E0.33161 ; support material
G1 X125.077 Y111.595 E0.02365 ; support material
G1 X125.077 Y101.019 E0.33161 ; support material
G1 X125.831 Y101.019 E0.02365 ; support material
G1 X125.831 Y111.765 E0.33693 ; support material
G1 F9600
G1 X125.831 Y108.108 E-0.76000 ; wipe and retract
G1 E-0.04000 F2100.00000 ; retract
G1 Z0.800 F12000.000 ; lift Z
G1 X134.881 Y111.765 F12000.000 ; move to first support material point
G1 Z0.200 F12000.000 ; restore layer Z
G1 E0.80000 F2100.00000 ; unretract
G1 F1800
G1 X134.881 Y101.019 E0.33693 ; support material
G1 X135.635 Y101.019 E0.02365 ; support material
G1 X135.635 Y111.595 E0.33161 ; support material
G1 X136.389 Y111.595 E0.02365 ; support material
G1 X136.389 Y101.019 E0.33161 ; support material
G1 X137.143 Y101.019 E0.02365 ; support material
G1 X137.143 Y111.765 E0.33693 ; support material
G1 F9600
G1 X137.143 Y108.108 E-0.76000 ; wipe and retract
G1 E-0.04000 F2100.00000 ; retract
G1 Z0.800 F12000.000 ; lift Z
G1 X114.518 Y104.812 F12000.000 ; move to first support material point
G1 Z0.200 F12000.000 ; restore layer Z
G1 E0.80000 F2100.00000 ; unretract
G1 F1800
G1 X114.518 Y94.965 E0.30872 ; support material
G1 X113.764 Y94.211 E0.03344 ; support material
G1 X113.764 Y104.812 E0.33236 ; support material
G1 F9600
G1 X113.764 Y101.154 E-0.76000 ; wipe and retract
G1 E-0.04000 F2100.00000 ; retract
G1 Z0.800 F12000.000 ; lift Z
G1 X116.614 Y99.449 F12000.000 ; move to first perimeter point
G1 Z0.200 F12000.000 ; restore layer Z
G1 E0.80000 F2100.00000 ; unretract
G1 F1800
G1 X116.614 Y97.623 E0.05725 ; perimeter
G1 X133.740 Y97.623 E0.53697 ; perimeter
G1 X133.740 Y112.449 E0.46485 ; perimeter
G1 X127.114 Y112.449 E0.20775 ; perimeter
G1 X127.114 Y99.449 E0.40761 ; perimeter
G1 X116.674 Y99.449 E0.32734 ; perimeter
G1 F9600
G1 X116.614 Y97.623 E-0.37964 ; wipe and retract
G1 F9600
G1 X118.444 Y97.623 E-0.38036 ; wipe and retract
G1 E-0.04000 F2100.00000 ; retract
G1 Z0.800 F12000.000 ; lift Z
G1 X126.737 Y99.826 F12000.000 ; move to first perimeter point
G1 Z0.200 F12000.000 ; restore layer Z
G1 E0.80000 F2100.00000 ; unretract
G1 F1800
G1 X116.237 Y99.826 E0.32922 ; perimeter
G1 X116.237 Y97.246 E0.08089 ; perimeter
G1 X134.117 Y97.246 E0.56061 ; perimeter
G1 X134.117 Y112.826 E0.48850 ; perimeter
G1 X126.737 Y112.826 E0.23139 ; perimeter
G1 X126.737 Y99.886 E0.40572 ; perimeter
G1 X126.668 Y99.432 F12000.000 ; move inwards before travel
G1 X126.888 Y99.336 F12000.000 ; move to first infill point
G1 F1800
G1 X125.458 Y97.906 E0.06425 ; infill
G1 X124.918 Y97.906 E0.01717 ; infill
G1 X126.178 Y99.166 E0.05663 ; infill
G1 X125.638 Y99.166 E0.01717 ; infill
G1 X124.377 Y97.906 E0.05663 ; infill
G1 X123.837 Y97.906 E0.01717 ; infill
G1 X125.097 Y99.166 E0.05663 ; infill
G1 X124.557 Y99.166 E0.01717 ; infill
G1 X123.297 Y97.906 E0.05663 ; infill
G1 X122.756 Y97.906 E0.01717 ; infill
G1 X124.016 Y99.166 E0.05663 ; infill
G1 X123.476 Y99.166 E0.01717 ; infill
G1 X122.216 Y97.906 E0.05663 ; infill
G1 X121.675 Y97.906 E0.01717 ; infill
G1 X122.936 Y99.166 E0.05663 ; infill
G1 X122.395 Y99.166 E0.01717 ; infill
G1 X121.135 Y97.906 E0.05663 ; infill
G1 X120.595 Y97.906 E0.01717 ; infill
G1 X121.855 Y99.166 E0.05663 ; infill
G1 X121.315 Y99.166 E0.01717 ; infill
G1 X120.054 Y97.906 E0.05663 ; infill
G1 X119.514 Y97.906 E0.01717 ; infill
G1 X120.774 Y99.166 E0.05663 ; infill
G1 X120.234 Y99.166 E0.01717 ; infill
G1 X118.974 Y97.906 E0.05663 ; infill
G1 X118.433 Y97.906 E0.01717 ; infill
G1 X119.693 Y99.166 E0.05663 ; infill
G1 X119.153 Y99.166 E0.01717 ; infill
G1 X117.893 Y97.906 E0.05663 ; infill
G1 X117.352 Y97.906 E0.01717 ; infill
G1 X118.613 Y99.166 E0.05663 ; infill
G1 X118.072 Y99.166 E0.01717 ; infill
G1 X116.897 Y97.990 E0.05283 ; infill
G1 X116.897 Y98.531 E0.01717 ; infill
G1 X117.532 Y99.166 E0.02855 ; infill
G1 X116.992 Y99.166 E0.01717 ; infill
G1 X116.727 Y98.901 E0.01189 ; infill
G1 F9600
G1 X116.992 Y99.166 E-0.07777 ; wipe and retract
G1 F9600
G1 X117.532 Y99.166 E-0.11230 ; wipe and retract
G1 F9600
G1 X116.897 Y98.531 E-0.18671 ; wipe and retract
G1 F9600
G1 X116.897 Y97.990 E-0.11230 ; wipe and retract
G1 F9600
G1 X117.819 Y98.912 E-0.27093 ; wipe and retract
G1 E-0.04000 F2100.00000 ; retract
G1 Z0.800 F12000.000 ; lift Z
G1 X127.227 Y111.563 F12000.000 ; move to first infill point
G1 Z0.200 F12000.000 ; restore layer Z
G1 E0.80000 F2100.00000 ; unretract
G1 F1800
G1 X127.830 Y112.166 E0.02710 ; infill
G1 X128.370 Y112.166 E0.01717 ; infill
G1 X127.397 Y111.192 E0.04376 ; infill
G1 X127.397 Y110.652 E0.01717 ; infill
G1 X128.911 Y112.166 E0.06804 ; infill
G1 X129.451 Y112.166 E0.01717 ; infill
G1 X127.397 Y110.112 E0.09232 ; infill
G1 X127.397 Y109.571 E0.01717 ; infill
G1 X129.992 Y112.166 E0.11660 ; infill
G1 X130.532 Y112.166 E0.01717 ; infill
G1 X127.397 Y109.031 E0.14088 ; infill
G1 X127.397 Y108.490 E0.01717 ; infill
G1 X131.072 Y112.166 E0.16516 ; infill
G1 X131.613 Y112.166 E0.01717 ; infill
G1 X127.397 Y107.950 E0.18944 ; infill
G1 X127.397 Y107.410 E0.01717 ; infill
G1 X132.153 Y112.166 E0.21372 ; infill
G1 X132.693 Y112.166 E0.01717 ; infill
G1 X127.397 Y106.869 E0.23800 ; infill
G1 X127.397 Y106.329 E0.01717 ; infill
G1 X133.234 Y112.166 E0.26228 ; infill
G1 X133.457 Y112.166 E0.00709 ; infill
G1 X133.457 Y111.849 E0.01008 ; infill
G1 X127.397 Y105.789 E0.27230 ; infill
G1 X127.397 Y105.248 E0.01717 ; infill
G1 X133.457 Y111.308 E0.27230 ; infill
G1 X133.457 Y110.768 E0.01717 ; infill
G1 X127.397 Y104.708 E0.27230 ; infill
G1 X127.397 Y104.167 E0.01717 ; infill
G1 X133.457 Y110.228 E0.27230 ; infill
G1 X133.457 Y109.687 E0.01717 ; infill
G1 X127.397 Y103.627 E0.27230 ; infill
G1 X127.397 Y103.087 E0.01717 ; infill
G1 X133.457 Y109.147 E0.27230 ; infill
G1 X133.457 Y108.607 E0.01717 ; infill
G1 X127.397 Y102.546 E0.27230 ; infill
G1 X127.397 Y102.006 E0.01717 ; infill
G1 X133.457 Y108.066 E0.27230 ; infill
G1 X133.457 Y107.526 E0.01717 ; infill
G1 X127.397 Y101.466 E0.27230 ; infill
G1 X127.397 Y100.925 E0.01717 ; infill
G1 X133.457 Y106.985 E0.27230 ; infill
G1 X133.457 Y106.445 E0.01717 ; infill
G1 X127.397 Y100.385 E0.27230 ; infill
G1 X127.397 Y99.844 E0.01717 ; infill
G1 X133.457 Y105.905 E0.27230 ; infill
G1 X133.457 Y105.364 E0.01717 ; infill
G1 X125.998 Y97.906 E0.33513 ; infill
G1 X126.539 Y97.906 E0.01717 ; infill
G1 X133.457 Y104.824 E0.31085 ; infill
G1 X133.457 Y104.284 E0.01717 ; infill
G1 X127.079 Y97.906 E0.28657 ; infill
G1 X127.620 Y97.906 E0.01717 ; infill
G1 X133.457 Y103.743 E0.26229 ; infill
G1 X133.457 Y103.203 E0.01717 ; infill
G1 X128.160 Y97.906 E0.23801 ; infill
G1 X128.700 Y97.906 E0.01717 ; infill
G1 X133.457 Y102.662 E0.21372 ; infill
G1 X133.457 Y102.122 E0.01717 ; infill
G1 X129.241 Y97.906 E0.18944 ; infill
G1 X129.781 Y97.906 E0.01717 ; infill
G1 X133.457 Y101.582 E0.16516 ; infill
G1 X133.457 Y101.041 E0.01717 ; infill
G1 X130.322 Y97.906 E0.14088 ; infill
G1 X130.862 Y97.906 E0.01717 ; infill
G1 X133.457 Y100.501 E0.11660 ; infill
G1 X133.457 Y99.961 E0.01717 ; infill
G1 X131.402 Y97.906 E0.09232 ; infill
G1 X131.943 Y97.906 E0.01717 ; infill
G1 X133.457 Y99.420 E0.06804 ; infill
G1 X133.457 Y98.880 E0.01717 ; infill
G1 X132.483 Y97.906 E0.04376 ; infill
G1 X133.023 Y97.906 E0.01717 ; infill
G1 X133.627 Y98.509 E0.02711 ; infill
M106 S255 ; enable fan
;BEFORE_LAYER_CHANGE
;0.35


G1 F9600
G1 X133.023 Y97.906 E-0.17729 ; wipe and retract
G1 F9600
G1 X132.483 Y97.906 E-0.11230 ; wipe and retract
G1 F9600
G1 X133.457 Y98.880 E-0.28623 ; wipe and retract
G1 F9600
G1 X133.457 Y99.420 E-0.11230 ; wipe and retract
G1 F9600
G1 X133.212 Y99.176 E-0.07189 ; wipe and retract
G1 E-0.04000 F2100.00000 ; retract
G1 Z0.800 F12000.000 ; lift Z
;AFTER_LAYER_CHANGE
;0.35
M104 S210 ; set temperature
G1 X135.486 Y94.537 F12000.000 ; move to first skirt point
G1 Z0.350 F12000.000 ; restore layer Z
G1 E0.80000 F2100.00000 ; unretract
G1 F900
G1 X136.134 Y94.957 E0.01868 ; skirt
G1 X136.554 Y95.416 E0.01504 ; skirt
G1 X139.436 Y99.493 E0.12076 ; skirt
G1 X139.705 Y100.008 E0.01405 ; skirt
G1 X139.860 Y100.568 E0.01405 ; skirt
G1 X139.894 Y111.900 E0.27406 ; skirt
G1 X139.700 Y112.789 E0.02201 ; skirt
G1 X139.224 Y113.570 E0.02211 ; skirt
G1 X138.825 Y113.946 E0.01327 ; skirt
G1 X138.356 Y114.238 E0.01336 ; skirt
G1 X135.400 Y115.573 E0.07844 ; skirt
G1 X134.763 Y115.755 E0.01602 ; skirt
G1 X126.515 Y115.790 E0.19948 ; skirt
G1 X125.873 Y115.711 E0.01563 ; skirt
G1 X121.339 Y113.921 E0.11789 ; skirt
G1 X111.959 Y106.892 E0.28348 ; skirt
G1 X111.590 Y106.503 E0.01297 ; skirt
G1 X111.302 Y106.046 E0.01307 ; skirt
G1 X111.109 Y105.541 E0.01307 ; skirt
G1 X111.017 Y105.009 E0.01307 ; skirt
G1 X111.029 Y93.892 E0.26885 ; skirt
G1 X111.321 Y92.941 E0.02406 ; skirt
G1 X111.934 Y92.153 E0.02416 ; skirt
G1 X112.785 Y91.637 E0.02406 ; skirt
G1 X113.768 Y91.457 E0.02416 ; skirt
G1 X134.750 Y94.315 E0.51215 ; skirt
G1 X135.428 Y94.520 E0.01713 ; skirt
G1 F9600
G1 X136.134 Y94.957 E-0.17252 ; wipe and retract
G1 F9600
G1 X136.554 Y95.416 E-0.12923 ; wipe and retract
G1 F9600
G1 X137.827 Y97.216 E-0.45825 ; wipe and retract
G1 E-0.04000 F2100.00000 ; retract
G1 Z0.950 F12000.000 ; lift Z
G1 X133.684 Y97.679 F12000.000 ; move to first perimeter point
G1 Z0.350 F12000.000 ; restore layer Z
G1 E0.80000 F2100.00000 ; unretract
M204 S800 ; adjust acceleration
G1 F900
G1 X133.684 Y112.393 E0.38339 ; perimeter
G1 X127.170 Y112.393 E0.16974 ; perimeter
G1 X127.170 Y99.393 E0.33872 ; perimeter
G1 X116.670 Y99.393 E0.27359 ; perimeter
G1 X116.670 Y97.679 E0.04467 ; perimeter
G1 X133.624 Y97.679 E0.44176 ; perimeter
M204 S1000 ; adjust acceleration
G1 F9600
G1 X133.639 Y101.336 E-0.76000 ; wipe and retract
G1 E-0.04000 F2100.00000 ; retract
G1 Z0.950 F12000.000 ; lift Z
G1 X126.752 Y99.811 F12000.000 ; move to first perimeter point
G1 Z0.350 F12000.000 ; restore layer Z
G1 E0.80000 F2100.00000 ; unretract
M204 S800 ; adjust acceleration
G1 F2100
G1 X116.252 Y99.811 E0.27359 ; perimeter
G1 X116.252 Y97.261 E0.06644 ; perimeter
G1 X134.102 Y97.261 E0.46510 ; perimeter
G1 X134.102 Y112.811 E0.40517 ; perimeter
G1 X126.752 Y112.811 E0.19151 ; perimeter
G1 X126.752 Y99.871 E0.33716 ; perimeter
M204 S1000 ; adjust acceleration
G1 X126.684 Y99.417 F12000.000 ; move inwards before travel
G1 F9600
G1 X123.095 Y99.850 E-0.76000 ; wipe and retract
G1 E-0.04000 F2100.00000 ; retract
G1 Z0.950 F12000.000 ; lift Z
G1 X116.795 Y98.665 F12000.000 ; move to first infill point
G1 Z0.350 F12000.000 ; restore layer Z
G1 E0.80000 F2100.00000 ; unretract
M204 S1500 ; adjust acceleration
G1 F2248
G1 X117.468 Y97.992 E0.02529 ; infill
G1 X118.070 Y97.992 E0.01599 ; infill
G1 X116.983 Y99.080 E0.04084 ; infill
G1 X117.585 Y99.080 E0.01598 ; infill
G1 X118.673 Y97.992 E0.04084 ; infill
G1 X119.275 Y97.992 E0.01599 ; infill
G1 X118.187 Y99.080 E0.04084 ; infill
G1 X118.789 Y99.080 E0.01599 ; infill
G1 X119.877 Y97.992 E0.04084 ; infill
G1 X120.479 Y97.992 E0.01599 ; infill
G1 X119.391 Y99.080 E0.04084 ; infill
G1 X119.993 Y99.080 E0.01599 ; infill
G1 X121.081 Y97.992 E0.04084 ; infill
