; generated by Slic3r 1.37.2.1-prusa3d-win64 on 2018-06-26 at 11:30:40

; 

; external perimeters extrusion width = 0.45mm
; perimeters extrusion width = 0.45mm
; infill extrusion width = 0.45mm
; solid infill extrusion width = 0.45mm
; top infill extrusion width = 0.40mm
; first layer extrusion width = 0.42mm

M107 ; disable fan
M115 U3.1.1-RC5 ; tell printer latest fw version
M83  ; extruder relative mode
M104 S215 ; set extruder temp
M140 S60 ; set bed temp
M190 S60 ; wait for bed temp
M109 S215 ; wait for extruder temp
G28 W ; home all without mesh bed level
G80 ; mesh bed leveling
G1 Y-3.0 F1000.0 ; go outside print area
G92 E0.0
G1 X60.0 E9.0  F1000.0 ; intro line
G1 X100.0 E12.5  F1000.0 ; intro line
G92 E0.0
M221 S95
M900 K30
G21 ; set units to millimeters
G90 ; use absolute coordinates
M83 ; use relative distances for extrusion
;BEFORE_LAYER_CHANGE
;0.2


G1 E-0.80000 F2100.00000 ; retract
G1 Z0.600 F12000.000 ; lift Z
;AFTER_LAYER_CHANGE
;0.2
G1 X114.961 Y108.934 F12000.000 ; move to first skirt point
G1 Z0.200 F12000.000 ; restore layer Z
G1 E0.80000 F2100.00000 ; unretract
M204 S1000 ; adjust acceleration
G1 F1125
G1 X115.349 Y108.280 E0.02383 ; skirt
G1 X127.757 Y94.868 E0.57289 ; skirt
G1 X128.410 Y94.471 E0.02396 ; skirt
G1 X129.142 Y94.269 E0.02383 ; skirt
G1 X132.504 Y94.246 E0.10540 ; skirt
G1 X133.490 Y94.430 E0.03145 ; skirt
G1 X134.345 Y94.955 E0.03145 ; skirt
G1 X134.955 Y95.751 E0.03145 ; skirt
G1 X135.239 Y96.713 E0.03145 ; skirt
G1 X135.253 Y113.090 E0.51350 ; skirt
G1 X135.085 Y113.952 E0.02752 ; skirt
G1 X134.651 Y114.720 E0.02765 ; skirt
G1 X134.230 Y115.143 E0.01873 ; skirt
G1 X133.723 Y115.468 E0.01886 ; skirt
G1 X133.158 Y115.674 E0.01886 ; skirt
G1 X132.562 Y115.753 E0.01886 ; skirt
G1 X117.402 Y115.752 E0.47535 ; skirt
G1 X116.541 Y115.582 E0.02752 ; skirt
G1 X115.780 Y115.151 E0.02739 ; skirt
G1 X115.372 Y114.749 E0.01796 ; skirt
G1 X115.057 Y114.271 E0.01796 ; skirt
G1 X114.847 Y113.738 E0.01796 ; skirt
G1 X114.751 Y113.173 E0.01796 ; skirt
G1 X114.766 Y109.669 E0.10987 ; skirt
G1 X114.945 Y108.992 E0.02195 ; skirt
G1 X115.307 Y109.087 F12000.000 ; move to first skirt point
G1 F1125
G1 X115.658 Y108.498 E0.02150 ; skirt
G1 X127.988 Y95.165 E0.56939 ; skirt
G1 X128.562 Y94.816 E0.02107 ; skirt
G1 X129.215 Y94.640 E0.02119 ; skirt
G1 X132.504 Y94.623 E0.10313 ; skirt
G1 X133.360 Y94.784 E0.02731 ; skirt
G1 X134.103 Y95.245 E0.02743 ; skirt
G1 X134.630 Y95.944 E0.02743 ; skirt
G1 X134.867 Y96.782 E0.02731 ; skirt
G1 X134.876 Y113.069 E0.51065 ; skirt
G1 X134.728 Y113.828 E0.02426 ; skirt
G1 X134.342 Y114.502 E0.02437 ; skirt
G1 X133.977 Y114.863 E0.01609 ; skirt
G1 X133.539 Y115.138 E0.01621 ; skirt
G1 X133.056 Y115.311 E0.01609 ; skirt
G1 X132.547 Y115.377 E0.01609 ; skirt
G1 X117.424 Y115.376 E0.47417 ; skirt
G1 X116.669 Y115.227 E0.02414 ; skirt
G1 X115.998 Y114.842 E0.02426 ; skirt
G1 X115.649 Y114.491 E0.01550 ; skirt
G1 X115.381 Y114.076 E0.01550 ; skirt
G1 X115.204 Y113.615 E0.01550 ; skirt
G1 X115.126 Y113.127 E0.01550 ; skirt
G1 X115.138 Y109.730 E0.10650 ; skirt
G1 X115.292 Y109.145 E0.01897 ; skirt
G1 F9600
G1 X115.658 Y108.498 E-0.15455 ; wipe and retract
G1 F9600
G1 X117.636 Y106.359 E-0.60545 ; wipe and retract
G1 E-0.04000 F2100.00000 ; retract
G1 Z0.800 F12000.000 ; lift Z
G1 X118.087 Y110.587 F12000.000 ; move to first perimeter point
G1 Z0.200 F12000.000 ; restore layer Z
G1 E0.80000 F2100.00000 ; unretract
G1 F1125
G1 X130.087 Y110.587 E0.37625 ; perimeter
G1 X130.087 Y97.587 E0.40761 ; perimeter
G1 X131.913 Y97.587 E0.05725 ; perimeter
G1 X131.913 Y112.413 E0.46485 ; perimeter
G1 X118.087 Y112.413 E0.43350 ; perimeter
G1 X118.087 Y110.647 E0.05537 ; perimeter
G1 F9600
G1 X121.744 Y110.629 E-0.76000 ; wipe and retract
G1 E-0.04000 F2100.00000 ; retract
G1 Z0.800 F12000.000 ; lift Z
G1 X129.710 Y110.210 F12000.000 ; move to first perimeter point
G1 Z0.200 F12000.000 ; restore layer Z
G1 E0.80000 F2100.00000 ; unretract
G1 F1800
G1 X129.710 Y97.210 E0.40761 ; perimeter
G1 X132.290 Y97.210 E0.08089 ; perimeter
G1 X132.290 Y112.790 E0.48850 ; perimeter
G1 X117.710 Y112.790 E0.45715 ; perimeter
G1 X117.710 Y110.210 E0.08089 ; perimeter
G1 X129.650 Y110.210 E0.37437 ; perimeter
G1 X130.109 Y110.182 F12000.000 ; move inwards before travel
G1 F9600
G1 X129.667 Y106.553 E-0.76000 ; wipe and retract
G1 E-0.04000 F2100.00000 ; retract
G1 Z0.800 F12000.000 ; lift Z
G1 X118.200 Y111.537 F12000.000 ; move to first infill point
G1 Z0.200 F12000.000 ; restore layer Z
G1 E0.80000 F2100.00000 ; unretract
G1 F1125
G1 X118.793 Y112.130 E0.02630 ; infill
G1 X119.326 Y112.130 E0.01673 ; infill
G1 X118.370 Y111.174 E0.04243 ; infill
G1 X118.370 Y110.870 E0.00952 ; infill
G1 X118.600 Y110.870 E0.00721 ; infill
G1 X119.860 Y112.130 E0.05590 ; infill
G1 X120.393 Y112.130 E0.01673 ; infill
G1 X119.133 Y110.870 E0.05590 ; infill
G1 X119.667 Y110.870 E0.01673 ; infill
G1 X120.927 Y112.130 E0.05590 ; infill
G1 X121.460 Y112.130 E0.01673 ; infill
G1 X120.200 Y110.870 E0.05590 ; infill
G1 X120.734 Y110.870 E0.01673 ; infill
G1 X121.994 Y112.130 E0.05590 ; infill
G1 X122.527 Y112.130 E0.01673 ; infill
G1 X121.267 Y110.870 E0.05590 ; infill
G1 X121.801 Y110.870 E0.01673 ; infill
G1 X123.061 Y112.130 E0.05590 ; infill
G1 X123.594 Y112.130 E0.01673 ; infill
G1 X122.334 Y110.870 E0.05590 ; infill
G1 X122.868 Y110.870 E0.01673 ; infill
G1 X124.128 Y112.130 E0.05590 ; infill
G1 X124.661 Y112.130 E0.01673 ; infill
G1 X123.401 Y110.870 E0.05590 ; infill
G1 X123.935 Y110.870 E0.01673 ; infill
G1 X125.195 Y112.130 E0.05590 ; infill
G1 X125.728 Y112.130 E0.01673 ; infill
G1 X124.468 Y110.870 E0.05590 ; infill
G1 X125.001 Y110.870 E0.01673 ; infill
G1 X126.262 Y112.130 E0.05590 ; infill
G1 X126.795 Y112.130 E0.01673 ; infill
G1 X125.535 Y110.870 E0.05590 ; infill
G1 X126.068 Y110.870 E0.01673 ; infill
G1 X127.329 Y112.130 E0.05590 ; infill
G1 X127.862 Y112.130 E0.01673 ; infill
G1 X126.602 Y110.870 E0.05590 ; infill
G1 X127.135 Y110.870 E0.01673 ; infill
G1 X128.396 Y112.130 E0.05590 ; infill
G1 X128.929 Y112.130 E0.01673 ; infill
G1 X127.669 Y110.870 E0.05590 ; infill
G1 X128.202 Y110.870 E0.01673 ; infill
G1 X129.463 Y112.130 E0.05590 ; infill
G1 X129.996 Y112.130 E0.01673 ; infill
G1 X128.736 Y110.870 E0.05590 ; infill
G1 X129.269 Y110.870 E0.01673 ; infill
G1 X130.530 Y112.130 E0.05590 ; infill
G1 X131.063 Y112.130 E0.01673 ; infill
G1 X129.803 Y110.870 E0.05590 ; infill
G1 X130.336 Y110.870 E0.01673 ; infill
G1 X131.597 Y112.130 E0.05590 ; infill
G1 X131.630 Y112.130 E0.00105 ; infill
G1 X131.630 Y111.630 E0.01568 ; infill
G1 X130.370 Y110.370 E0.05590 ; infill
G1 X130.370 Y109.836 E0.01673 ; infill
G1 X131.630 Y111.097 E0.05590 ; infill
G1 X131.630 Y110.563 E0.01673 ; infill
G1 X130.370 Y109.303 E0.05590 ; infill
G1 X130.370 Y108.769 E0.01673 ; infill
G1 X131.630 Y110.030 E0.05590 ; infill
G1 X131.630 Y109.496 E0.01673 ; infill
G1 X130.370 Y108.236 E0.05590 ; infill
G1 X130.370 Y107.702 E0.01673 ; infill
G1 X131.630 Y108.963 E0.05590 ; infill
G1 X131.630 Y108.429 E0.01673 ; infill
G1 X130.370 Y107.169 E0.05590 ; infill
G1 X130.370 Y106.636 E0.01673 ; infill
G1 X131.630 Y107.896 E0.05590 ; infill
G1 X131.630 Y107.362 E0.01673 ; infill
G1 X130.370 Y106.102 E0.05590 ; infill
G1 X130.370 Y105.569 E0.01673 ; infill
G1 X131.630 Y106.829 E0.05590 ; infill
G1 X131.630 Y106.295 E0.01673 ; infill
G1 X130.370 Y105.035 E0.05590 ; infill
G1 X130.370 Y104.502 E0.01673 ; infill
G1 X131.630 Y105.762 E0.05590 ; infill
G1 X131.630 Y105.228 E0.01673 ; infill
G1 X130.370 Y103.968 E0.05590 ; infill
G1 X130.370 Y103.435 E0.01673 ; infill
G1 X131.630 Y104.695 E0.05590 ; infill
G1 X131.630 Y104.161 E0.01673 ; infill
G1 X130.370 Y102.901 E0.05590 ; infill
G1 X130.370 Y102.368 E0.01673 ; infill
G1 X131.630 Y103.628 E0.05590 ; infill
G1 X131.630 Y103.094 E0.01673 ; infill
G1 X130.370 Y101.834 E0.05590 ; infill
G1 X130.370 Y101.301 E0.01673 ; infill
G1 X131.630 Y102.561 E0.05590 ; infill
G1 X131.630 Y102.027 E0.01673 ; infill
G1 X130.370 Y100.767 E0.05590 ; infill
G1 X130.370 Y100.234 E0.01673 ; infill
G1 X131.630 Y101.494 E0.05590 ; infill
G1 X131.630 Y100.961 E0.01673 ; infill
G1 X130.370 Y99.700 E0.05590 ; infill
G1 X130.370 Y99.167 E0.01673 ; infill
G1 X131.630 Y100.427 E0.05590 ; infill
G1 X131.630 Y99.894 E0.01673 ; infill
G1 X130.370 Y98.633 E0.05590 ; infill
G1 X130.370 Y98.100 E0.01673 ; infill
G1 X131.630 Y99.360 E0.05590 ; infill
G1 X131.630 Y98.827 E0.01673 ; infill
G1 X130.673 Y97.870 E0.04244 ; infill
G1 X131.207 Y97.870 E0.01673 ; infill
G1 X131.800 Y98.463 E0.02630 ; infill
M106 S255 ; enable fan
;BEFORE_LAYER_CHANGE
;0.35


G1 F9600
G1 X131.207 Y97.870 E-0.17425 ; wipe and retract
G1 F9600
G1 X130.673 Y97.870 E-0.11086 ; wipe and retract
G1 F9600
G1 X131.630 Y98.827 E-0.28117 ; wipe and retract
G1 F9600
G1 X131.630 Y99.360 E-0.11086 ; wipe and retract
G1 F9600
G1 X131.348 Y99.078 E-0.08285 ; wipe and retract
G1 E-0.04000 F2100.00000 ; retract
G1 Z0.800 F12000.000 ; lift Z
;AFTER_LAYER_CHANGE
;0.35
M104 S210 ; set temperature
G1 X134.955 Y95.751 F12000.000 ; move to first skirt point
G1 Z0.350 F12000.000 ; restore layer Z
G1 E0.80000 F2100.00000 ; unretract
G1 F900
G1 X135.239 Y96.713 E0.02426 ; skirt
G1 X135.253 Y113.090 E0.39609 ; skirt
G1 X135.085 Y113.952 E0.02123 ; skirt
G1 X134.651 Y114.720 E0.02133 ; skirt
G1 X134.230 Y115.143 E0.01445 ; skirt
G1 X133.723 Y115.468 E0.01455 ; skirt
G1 X133.158 Y115.674 E0.01455 ; skirt
G1 X132.562 Y115.753 E0.01455 ; skirt
G1 X117.402 Y115.752 E0.36666 ; skirt
G1 X116.541 Y115.582 E0.02123 ; skirt
G1 X115.780 Y115.151 E0.02113 ; skirt
G1 X115.372 Y114.749 E0.01386 ; skirt
G1 X115.057 Y114.271 E0.01386 ; skirt
G1 X114.847 Y113.738 E0.01386 ; skirt
G1 X114.751 Y113.173 E0.01386 ; skirt
G1 X114.766 Y109.669 E0.08475 ; skirt
G1 X114.961 Y108.934 E0.01838 ; skirt
G1 X115.349 Y108.280 E0.01838 ; skirt
G1 X127.757 Y94.868 E0.44189 ; skirt
G1 X128.410 Y94.471 E0.01848 ; skirt
G1 X129.142 Y94.269 E0.01838 ; skirt
G1 X132.504 Y94.246 E0.08130 ; skirt
G1 X133.490 Y94.430 E0.02426 ; skirt
G1 X134.345 Y94.955 E0.02426 ; skirt
G1 X134.918 Y95.703 E0.02281 ; skirt
G1 F9600
G1 X135.239 Y96.713 E-0.22012 ; wipe and retract
G1 F9600
G1 X135.241 Y99.311 E-0.53988 ; wipe and retract
G1 E-0.04000 F2100.00000 ; retract
G1 Z0.950 F12000.000 ; lift Z
G1 X131.857 Y97.643 F12000.000 ; move to first perimeter point
G1 Z0.350 F12000.000 ; restore layer Z
G1 E0.80000 F2100.00000 ; unretract
M204 S800 ; adjust acceleration
G1 F900
G1 X131.857 Y112.357 E0.38339 ; perimeter
G1 X118.143 Y112.357 E0.35734 ; perimeter
G1 X118.143 Y110.643 E0.04467 ; perimeter
G1 X130.143 Y110.643 E0.31267 ; perimeter
G1 X130.143 Y97.643 E0.33872 ; perimeter
G1 X131.797 Y97.643 E0.04311 ; perimeter
M204 S1000 ; adjust acceleration
G1 F9600
G1 X131.812 Y101.300 E-0.76000 ; wipe and retract
G1 E-0.04000 F2100.00000 ; retract
G1 Z0.950 F12000.000 ; lift Z
G1 X129.725 Y110.225 F12000.000 ; move to first perimeter point
G1 Z0.350 F12000.000 ; restore layer Z
G1 E0.80000 F2100.00000 ; unretract
M204 S800 ; adjust acceleration
G1 F900
G1 X129.725 Y97.225 E0.33872 ; perimeter
G1 X132.275 Y97.225 E0.06644 ; perimeter
G1 X132.275 Y112.775 E0.40517 ; perimeter
G1 X117.725 Y112.775 E0.37911 ; perimeter
G1 X117.725 Y110.225 E0.06644 ; perimeter
G1 X129.665 Y110.225 E0.31111 ; perimeter
M204 S1000 ; adjust acceleration
G1 X130.124 Y110.197 F12000.000 ; move inwards before travel
G1 X130.268 Y110.476 F12000.000 ; move to first infill point
M204 S1500 ; adjust acceleration
G1 F900
G1 X131.544 Y109.200 E0.04718 ; infill
G1 X131.544 Y108.607 E0.01551 ; infill
G1 X130.456 Y109.695 E0.04022 ; infill
G1 X130.456 Y109.102 E0.01551 ; infill
G1 X131.544 Y108.014 E0.04022 ; infill
G1 X131.544 Y107.421 E0.01551 ; infill
G1 X130.456 Y108.509 E0.04022 ; infill
G1 X130.456 Y107.916 E0.01551 ; infill
G1 X131.544 Y106.828 E0.04022 ; infill
G1 X131.544 Y106.235 E0.01551 ; infill
G1 X130.456 Y107.323 E0.04022 ; infill
G1 X130.456 Y106.730 E0.01551 ; infill
G1 X131.544 Y105.642 E0.04022 ; infill
G1 X131.544 Y105.049 E0.01551 ; infill
G1 X130.456 Y106.137 E0.04022 ; infill
G1 X130.456 Y105.544 E0.01551 ; infill
G1 X131.544 Y104.456 E0.04022 ; infill
G1 X131.544 Y103.863 E0.01551 ; infill
G1 X130.456 Y104.951 E0.04022 ; infill
G1 X130.456 Y104.358 E0.01551 ; infill
G1 X131.544 Y103.270 E0.04022 ; infill
G1 X131.544 Y102.677 E0.01551 ; infill
G1 X130.456 Y103.765 E0.04022 ; infill
G1 X130.456 Y103.172 E0.01551 ; infill
G1 X131.544 Y102.084 E0.04022 ; infill
G1 X131.544 Y101.491 E0.01551 ; infill
G1 X130.456 Y102.579 E0.04022 ; infill
G1 X130.456 Y101.986 E0.01551 ; infill
G1 X131.544 Y100.898 E0.04022 ; infill
G1 X131.544 Y100.305 E0.01551 ; infill
G1 X130.456 Y101.393 E0.04022 ; infill
G1 X130.456 Y100.800 E0.01551 ; infill
G1 X131.544 Y99.712 E0.04022 ; infill
G1 X131.544 Y99.119 E0.01551 ; infill
G1 X130.456 Y100.207 E0.04022 ; infill
G1 X130.456 Y99.614 E0.01551 ; infill
G1 X131.544 Y98.526 E0.04022 ; infill
G1 X131.544 Y97.956 E0.01490 ; infill
G1 X131.521 Y97.956 E0.00060 ; infill
G1 X130.456 Y99.021 E0.03937 ; infill
G1 X130.456 Y98.428 E0.01551 ; infill
G1 X131.116 Y97.768 E0.02439 ; infill
M204 S1000 ; adjust acceleration
G1 F9600
G1 X130.456 Y98.428 E-0.19387 ; wipe and retract
G1 F9600
G1 X130.456 Y99.021 E-0.12323 ; wipe and retract
G1 F9600
G1 X131.521 Y97.956 E-0.31289 ; wipe and retract
G1 F9600
G1 X131.544 Y97.956 E-0.00479 ; wipe and retract
G1 F9600
G1 X131.544 Y98.526 E-0.11844 ; wipe and retract
G1 F9600
G1 X131.521 Y98.549 E-0.00678 ; wipe and retract
G1 E-0.04000 F2100.00000 ; retract
G1 Z0.950 F12000.000 ; lift Z
G1 X130.884 Y112.232 F12000.000 ; move to first infill point
G1 Z0.350 F12000.000 ; restore layer Z
G1 E0.80000 F2100.00000 ; unretract
M204 S1500 ; adjust acceleration
G1 F900
G1 X131.544 Y111.572 E0.02440 ; infill
G1 X131.544 Y110.979 E0.01551 ; infill
G1 X130.479 Y112.044 E0.03938 ; infill
G1 X129.886 Y112.044 E0.01551 ; infill
G1 X131.544 Y110.386 E0.06131 ; infill
G1 X131.544 Y109.793 E0.01551 ; infill
G1 X129.293 Y112.044 E0.08324 ; infill
G1 X128.700 Y112.044 E0.01551 ; infill
G1 X129.788 Y110.956 E0.04022 ; infill
G1 X129.195 Y110.956 E0.01551 ; infill
G1 X128.107 Y112.044 E0.04022 ; infill
G1 X127.514 Y112.044 E0.01551 ; infill
G1 X128.602 Y110.956 E0.04022 ; infill
G1 X128.009 Y110.956 E0.01551 ; infill
G1 X126.921 Y112.044 E0.04022 ; infill
G1 X126.328 Y112.044 E0.01551 ; infill
G1 X127.416 Y110.956 E0.04022 ; infill
G1 X126.823 Y110.956 E0.01551 ; infill
G1 X125.735 Y112.044 E0.04022 ; infill
G1 X125.142 Y112.044 E0.01551 ; infill
G1 X126.230 Y110.956 E0.04022 ; infill
G1 X125.637 Y110.956 E0.01551 ; infill
G1 X124.549 Y112.044 E0.04022 ; infill
G1 X123.956 Y112.044 E0.01551 ; infill
G1 X125.044 Y110.956 E0.04022 ; infill
G1 X124.451 Y110.956 E0.01551 ; infill
G1 X123.363 Y112.044 E0.04022 ; infill
G1 X122.770 Y112.044 E0.01551 ; infill
G1 X123.858 Y110.956 E0.04022 ; infill
G1 X123.265 Y110.956 E0.01551 ; infill
G1 X122.177 Y112.044 E0.04022 ; infill
G1 X121.584 Y112.044 E0.01551 ; infill
G1 X122.672 Y110.956 E0.04022 ; infill
G1 X122.079 Y110.956 E0.01551 ; infill
G1 X120.991 Y112.044 E0.04022 ; infill
G1 X120.398 Y112.044 E0.01551 ; infill
G1 X121.486 Y110.956 E0.04022 ; infill
G1 X120.893 Y110.956 E0.01551 ; infill
G1 X119.805 Y112.044 E0.04022 ; infill
G1 X119.212 Y112.044 E0.01551 ; infill
G1 X120.300 Y110.956 E0.04022 ; infill
G1 X119.707 Y110.956 E0.01551 ; infill
G1 X118.619 Y112.044 E0.04022 ; infill
G1 X118.456 Y112.044 E0.00426 ; infill
G1 X118.456 Y111.614 E0.01125 ; infill
G1 X119.114 Y110.956 E0.02432 ; infill
G1 X118.521 Y110.956 E0.01551 ; infill
G1 X118.268 Y111.209 E0.00934 ; infill
M204 S1000 ; adjust acceleration
;BEFORE_LAYER_CHANGE
;0.5


G1 F9600
G1 X118.521 Y110.956 E-0.07425 ; wipe and retract
G1 F9600
G1 X119.114 Y110.956 E-0.12323 ; wipe and retract
G1 F9600
G1 X118.456 Y111.614 E-0.19327 ; wipe and retract
G1 F9600
G1 X118.456 Y112.044 E-0.08937 ; wipe and retract
G1 F9600
G1 X118.619 Y112.044 E-0.03386 ; wipe and retract
G1 F9600
