; generated by Slic3r 1.37.2.1-prusa3d-win64 on 2018-11-19 at 17:25:59

; 

; external perimeters extrusion width = 0.42mm
; perimeters extrusion width = 0.45mm
; infill extrusion width = 0.45mm
; solid infill extrusion width = 0.45mm
; top infill extrusion width = 0.42mm
; first layer extrusion width = 0.42mm

M107 ; disable fan
M115 U3.1.0 ; tell printer latest fw version
M83  ; extruder relative mode
M104 S215 ; set extruder temp
M140 S55 ; set bed temp
M190 S55 ; wait for bed temp
M109 S215 ; wait for extruder temp
G28 W ; home all without mesh bed level
G80 ; mesh bed leveling
G1 Y-3.0 F1000.0 ; go outside pritn area
G1 X60.0 E9.0  F1000.0 ; intro line
G1 X100.0 E12.5  F1000.0 ; intro line
G92 E0.0
M900 K30
G21 ; set units to millimeters
G90 ; use absolute coordinates
M83 ; use relative distances for extrusion
;BEFORE_LAYER_CHANGE
;0.2


G1 E-0.80000 F2100.00000 ; retract
G1 Z0.600 F7200.000 ; lift Z
;AFTER_LAYER_CHANGE
;0.2
G1 X47.229 Y90.905 F7200.000 ; move to first skirt point
G1 Z0.200 F7200.000 ; restore layer Z
G1 E0.80000 F2100.00000 ; unretract
M204 S1000 ; adjust acceleration
G1 F1800
G1 X47.661 Y90.272 E0.02402 ; skirt
G1 X49.859 Y88.087 E0.09717 ; skirt
G1 X50.337 Y87.777 E0.01787 ; skirt
G1 X50.875 Y87.590 E0.01787 ; skirt
G1 X51.383 Y87.535 E0.01599 ; skirt
G1 X198.621 Y87.535 E4.61657 ; skirt
G1 X199.509 Y87.709 E0.02837 ; skirt
G1 X200.265 Y88.199 E0.02825 ; skirt
G1 X202.502 Y90.463 E0.09979 ; skirt
G1 X202.839 Y91.066 E0.02166 ; skirt
G1 X202.988 Y91.740 E0.02166 ; skirt
G1 X202.990 Y120.233 E0.89336 ; skirt
G1 X202.821 Y120.980 E0.02402 ; skirt
G1 X202.423 Y121.634 E0.02402 ; skirt
G1 X201.837 Y122.128 E0.02402 ; skirt
G1 X201.125 Y122.410 E0.02402 ; skirt
G1 X200.618 Y122.465 E0.01601 ; skirt
G1 X49.356 Y122.465 E4.74270 ; skirt
G1 X48.576 Y122.324 E0.02484 ; skirt
G1 X47.883 Y121.932 E0.02496 ; skirt
G1 X47.358 Y121.334 E0.02496 ; skirt
G1 X47.060 Y120.596 E0.02496 ; skirt
G1 X47.005 Y120.093 E0.01585 ; skirt
G1 X47.021 Y91.638 E0.89217 ; skirt
G1 X47.213 Y90.963 E0.02202 ; skirt
G1 F5760
G1 X47.661 Y90.272 E-0.28511 ; wipe and retract
G1 F5760
G1 X48.634 Y89.306 E-0.47489 ; wipe and retract
G1 E-0.04000 F2100.00000 ; retract
G1 Z0.800 F7200.000 ; lift Z
G1 X49.970 Y119.175 F7200.000 ; move to first perimeter point
G1 Z0.200 F7200.000 ; restore layer Z
G1 E0.80000 F2100.00000 ; unretract
G1 F1800
G1 X200.030 Y119.175 E4.70505 ; perimeter
G1 X200.030 Y119.501 E0.01022 ; perimeter
G1 X49.970 Y119.501 E4.70505 ; perimeter
G1 X49.970 Y119.235 E0.00834 ; perimeter
G1 X49.592 Y118.798 F7200.000 ; move to first perimeter point
G1 F1800
G1 X200.408 Y118.798 E4.72870 ; perimeter
G1 X200.408 Y119.878 E0.03386 ; perimeter
G1 X49.592 Y119.878 E4.72870 ; perimeter
G1 X49.592 Y118.858 E0.03198 ; perimeter
G1 X49.992 Y118.799 F7200.000 ; move inwards before travel
G1 F5760
G1 X51.787 Y118.857 E-0.76000 ; wipe and retract
G1 E-0.04000 F2100.00000 ; retract
G1 Z0.800 F7200.000 ; lift Z
G1 X160.660 Y105.175 F7200.000 ; move to first perimeter point
G1 Z0.200 F7200.000 ; restore layer Z
G1 E0.80000 F2100.00000 ; unretract
G1 F1800
G1 X160.660 Y92.825 E0.38723 ; perimeter
G1 X168.080 Y92.825 E0.23262 ; perimeter
G1 X168.080 Y105.175 E0.38723 ; perimeter
G1 X160.720 Y105.175 E0.23074 ; perimeter
G1 X161.038 Y104.798 F7200.000 ; move to first perimeter point
G1 F1800
G1 X161.038 Y93.202 E0.36358 ; perimeter
G1 X167.702 Y93.202 E0.20898 ; perimeter
G1 X167.702 Y104.798 E0.36358 ; perimeter
G1 X161.098 Y104.798 E0.20710 ; perimeter
G1 X160.662 Y104.935 F7200.000 ; move inwards before travel
G1 F5760
G1 X161.086 Y102.604 E-0.76000 ; wipe and retract
G1 E-0.04000 F2100.00000 ; retract
G1 Z0.800 F7200.000 ; lift Z
G1 X199.515 Y92.325 F7200.000 ; move to first perimeter point
G1 Z0.200 F7200.000 ; restore layer Z
G1 E0.80000 F2100.00000 ; unretract
G1 F1800
G1 X188.090 Y92.325 E0.35820 ; perimeter
G1 X188.090 Y105.501 E0.41312 ; perimeter
G1 X179.830 Y105.501 E0.25901 ; perimeter
G1 X179.830 Y92.325 E0.41312 ; perimeter
G1 X168.405 Y92.325 E0.35820 ; perimeter
G1 X168.405 Y106.361 E0.44008 ; perimeter
G1 X168.080 Y106.361 E0.01022 ; perimeter
G1 X168.080 Y105.501 E0.02696 ; perimeter
G1 X160.145 Y105.501 E0.24880 ; perimeter
G1 X160.145 Y92.325 E0.41312 ; perimeter
G1 X148.720 Y92.325 E0.35820 ; perimeter
G1 X148.720 Y105.501 E0.41312 ; perimeter
G1 X140.460 Y105.501 E0.25901 ; perimeter
G1 X140.460 Y92.325 E0.41312 ; perimeter
G1 X129.499 Y92.325 E0.34365 ; perimeter
G1 X129.833 Y91.952 E0.01571 ; perimeter
G1 X130.401 Y91.535 E0.02209 ; perimeter
G1 X131.056 Y91.238 E0.02254 ; perimeter
G1 X132.524 Y90.833 E0.04773 ; perimeter
G1 X134.072 Y90.582 E0.04918 ; perimeter
G1 X135.622 Y90.499 E0.04865 ; perimeter
G1 X159.004 Y90.499 E0.73315 ; perimeter
G1 X161.004 Y92.499 E0.08868 ; perimeter
G1 X167.736 Y92.499 E0.21106 ; perimeter
G1 X169.736 Y90.499 E0.08868 ; perimeter
G1 X198.374 Y90.499 E0.89795 ; perimeter
G1 X200.030 Y92.155 E0.07343 ; perimeter
G1 X200.030 Y105.501 E0.41845 ; perimeter
G1 X199.515 Y105.501 E0.01617 ; perimeter
G1 X199.515 Y92.385 E0.41124 ; perimeter
G1 F5760
G1 X197.320 Y92.373 E-0.76000 ; wipe and retract
G1 E-0.04000 F2100.00000 ; retract
G1 Z0.800 F7200.000 ; lift Z
G1 X128.710 Y95.391 F7200.000 ; move to first perimeter point
G1 Z0.200 F7200.000 ; restore layer Z
G1 E0.80000 F2100.00000 ; unretract
G1 F1800
G1 X128.710 Y105.175 E0.30677 ; perimeter
G1 X121.290 Y105.175 E0.23262 ; perimeter
G1 X121.290 Y95.391 E0.30677 ; perimeter
G1 X128.650 Y95.391 E0.23074 ; perimeter
G1 X128.332 Y95.768 F7200.000 ; move to first perimeter point
G1 F1800
G1 X128.332 Y104.798 E0.28313 ; perimeter
G1 X121.668 Y104.798 E0.20898 ; perimeter
G1 X121.668 Y95.768 E0.28313 ; perimeter
G1 X128.272 Y95.768 E0.20710 ; perimeter
G1 X128.713 Y95.645 F7200.000 ; move inwards before travel
G1 F5760
G1 X128.287 Y97.962 E-0.76000 ; wipe and retract
G1 E-0.04000 F2100.00000 ; retract
G1 Z0.800 F7200.000 ; lift Z
G1 X121.349 Y95.065 F7200.000 ; move to first perimeter point
G1 Z0.200 F7200.000 ; restore layer Z
G1 E0.80000 F2100.00000 ; unretract
G1 F1800
G1 X128.651 Y95.065 E0.22896 ; perimeter
G1 X128.786 Y93.776 E0.04063 ; perimeter
G1 X129.035 Y93.044 E0.02426 ; perimeter
G1 X129.035 Y106.361 E0.41754 ; perimeter
G1 X128.710 Y106.361 E0.01022 ; perimeter
G1 X128.710 Y105.501 E0.02696 ; perimeter
G1 X120.775 Y105.501 E0.24880 ; perimeter
G1 X120.775 Y92.713 E0.40097 ; perimeter
G1 X120.995 Y93.097 E0.01388 ; perimeter
G1 X121.214 Y93.776 E0.02239 ; perimeter
G1 X121.343 Y95.005 E0.03875 ; perimeter
G1 F5760
G1 X123.537 Y95.023 E-0.76000 ; wipe and retract
G1 E-0.04000 F2100.00000 ; retract
G1 Z0.800 F7200.000 ; lift Z
G1 X81.920 Y92.825 F7200.000 ; move to first perimeter point
G1 Z0.200 F7200.000 ; restore layer Z
G1 E0.80000 F2100.00000 ; unretract
G1 F1800
G1 X89.340 Y92.825 E0.23262 ; perimeter
G1 X89.340 Y105.175 E0.38723 ; perimeter
G1 X81.920 Y105.175 E0.23262 ; perimeter
G1 X81.920 Y92.885 E0.38535 ; perimeter
G1 X82.298 Y93.202 F7200.000 ; move to first perimeter point
G1 F1800
G1 X88.962 Y93.202 E0.20898 ; perimeter
G1 X88.962 Y104.798 E0.36358 ; perimeter
G1 X82.298 Y104.798 E0.20898 ; perimeter
G1 X82.298 Y93.262 E0.36170 ; perimeter
G1 X82.228 Y92.808 F7200.000 ; move inwards before travel
G1 X82.298 Y92.499 F7200.000 ; move to first perimeter point
G1 F1800
G1 X88.996 Y92.499 E0.21002 ; perimeter
G1 X90.996 Y90.499 E0.08868 ; perimeter
G1 X114.378 Y90.499 E0.73315 ; perimeter
G1 X115.928 Y90.582 E0.04865 ; perimeter
G1 X117.476 Y90.833 E0.04918 ; perimeter
G1 X118.944 Y91.238 E0.04773 ; perimeter
G1 X119.599 Y91.535 E0.02254 ; perimeter
G1 X120.167 Y91.952 E0.02209 ; perimeter
G1 X120.501 Y92.325 E0.01571 ; perimeter
G1 X109.350 Y92.325 E0.34961 ; perimeter
G1 X109.350 Y105.501 E0.41312 ; perimeter
G1 X101.090 Y105.501 E0.25901 ; perimeter
G1 X101.090 Y92.325 E0.41312 ; perimeter
G1 X89.665 Y92.325 E0.35820 ; perimeter
G1 X89.665 Y106.361 E0.44008 ; perimeter
G1 X89.340 Y106.361 E0.01022 ; perimeter
G1 X89.340 Y105.501 E0.02696 ; perimeter
G1 X81.405 Y105.501 E0.24880 ; perimeter
G1 X81.405 Y92.325 E0.41312 ; perimeter
G1 X69.980 Y92.325 E0.35820 ; perimeter
G1 X69.980 Y105.501 E0.41312 ; perimeter
G1 X61.720 Y105.501 E0.25901 ; perimeter
G1 X61.720 Y92.325 E0.41312 ; perimeter
G1 X50.295 Y92.325 E0.35820 ; perimeter
G1 X50.295 Y106.361 E0.44008 ; perimeter
G1 X49.970 Y106.361 E0.01022 ; perimeter
G1 X49.970 Y92.155 E0.44541 ; perimeter
G1 X51.626 Y90.499 E0.07343 ; perimeter
G1 X80.264 Y90.499 E0.89794 ; perimeter
G1 X82.245 Y92.480 E0.08784 ; perimeter
G1 X82.421 Y92.122 F7200.000 ; move to first perimeter point
G1 F1800
G1 X88.839 Y92.122 E0.20126 ; perimeter
G1 X90.839 Y90.122 E0.08868 ; perimeter
G1 X114.389 Y90.122 E0.73837 ; perimeter
G1 X115.968 Y90.206 E0.04960 ; perimeter
G1 X117.557 Y90.465 E0.05045 ; perimeter
G1 X119.072 Y90.882 E0.04930 ; perimeter
G1 X119.790 Y91.207 E0.02470 ; perimeter
G1 X120.421 Y91.671 E0.02455 ; perimeter
G1 X120.952 Y92.264 E0.02494 ; perimeter
G1 X121.342 Y92.943 E0.02457 ; perimeter
G1 X121.585 Y93.698 E0.02487 ; perimeter
G1 X121.689 Y94.688 E0.03121 ; perimeter
G1 X128.311 Y94.688 E0.20766 ; perimeter
G1 X128.415 Y93.698 E0.03121 ; perimeter
G1 X128.658 Y92.943 E0.02487 ; perimeter
G1 X129.048 Y92.264 E0.02457 ; perimeter
G1 X129.579 Y91.671 E0.02494 ; perimeter
G1 X130.210 Y91.207 E0.02456 ; perimeter
G1 X130.928 Y90.882 E0.02470 ; perimeter
G1 X132.443 Y90.465 E0.04930 ; perimeter
G1 X134.032 Y90.206 E0.05045 ; perimeter
G1 X135.611 Y90.122 E0.04960 ; perimeter
G1 X159.161 Y90.122 E0.73837 ; perimeter
G1 X161.161 Y92.122 E0.08868 ; perimeter
G1 X167.579 Y92.122 E0.20126 ; perimeter
G1 X169.579 Y90.122 E0.08868 ; perimeter
G1 X198.531 Y90.122 E0.90774 ; perimeter
G1 X200.408 Y91.999 E0.08323 ; perimeter
G1 X200.408 Y105.878 E0.43517 ; perimeter
G1 X199.138 Y105.878 E0.03982 ; perimeter
G1 X199.138 Y92.702 E0.41312 ; perimeter
G1 X188.467 Y92.702 E0.33455 ; perimeter
G1 X188.467 Y105.878 E0.41312 ; perimeter
G1 X179.452 Y105.878 E0.28266 ; perimeter
G1 X179.452 Y92.702 E0.41312 ; perimeter
G1 X168.783 Y92.702 E0.33455 ; perimeter
G1 X168.783 Y106.738 E0.44008 ; perimeter
G1 X167.702 Y106.738 E0.03386 ; perimeter
G1 X167.702 Y105.878 E0.02696 ; perimeter
G1 X159.767 Y105.878 E0.24880 ; perimeter
G1 X159.767 Y92.702 E0.41312 ; perimeter
G1 X149.098 Y92.702 E0.33455 ; perimeter
G1 X149.098 Y105.878 E0.41312 ; perimeter
G1 X140.082 Y105.878 E0.28266 ; perimeter
G1 X140.082 Y92.702 E0.41312 ; perimeter
G1 X129.413 Y92.702 E0.33455 ; perimeter
G1 X129.413 Y106.738 E0.44008 ; perimeter
G1 X128.332 Y106.738 E0.03386 ; perimeter
G1 X128.332 Y105.878 E0.02696 ; perimeter
G1 X120.397 Y105.878 E0.24880 ; perimeter
G1 X120.397 Y92.702 E0.41312 ; perimeter
G1 X109.728 Y92.702 E0.33455 ; perimeter
G1 X109.728 Y105.878 E0.41312 ; perimeter
G1 X100.713 Y105.878 E0.28266 ; perimeter
G1 X100.713 Y92.702 E0.41312 ; perimeter
G1 X90.043 Y92.702 E0.33455 ; perimeter
G1 X90.043 Y106.738 E0.44008 ; perimeter
G1 X88.962 Y106.738 E0.03386 ; perimeter
G1 X88.962 Y105.878 E0.02696 ; perimeter
G1 X81.028 Y105.878 E0.24880 ; perimeter
G1 X81.028 Y92.702 E0.41312 ; perimeter
G1 X70.358 Y92.702 E0.33455 ; perimeter
G1 X70.358 Y105.878 E0.41312 ; perimeter
G1 X61.342 Y105.878 E0.28266 ; perimeter
G1 X61.342 Y92.702 E0.41312 ; perimeter
G1 X50.673 Y92.702 E0.33455 ; perimeter
G1 X50.673 Y106.738 E0.44008 ; perimeter
G1 X49.592 Y106.738 E0.03386 ; perimeter
G1 X49.592 Y91.999 E0.46213 ; perimeter
G1 X51.469 Y90.122 E0.08323 ; perimeter
G1 X80.421 Y90.122 E0.90774 ; perimeter
G1 X82.378 Y92.080 E0.08680 ; perimeter
G1 X82.613 Y92.473 F7200.000 ; move inwards before travel
G1 X81.864 Y92.365 F7200.000 ; move to first infill point
G1 F1800
G1 X81.732 Y92.498 E0.00427 ; infill
G1 X81.709 Y92.544 E0.00118 ; infill
G1 F1800
G1 X81.662 Y92.636 E0.00162 ; infill
G1 F1800
G1 X81.662 Y105.312 E0.10102 ; infill
G1 F5760
G1 X81.662 Y103.118 E-0.76000 ; wipe and retract
G1 E-0.04000 F2100.00000 ; retract
G1 Z0.800 F7200.000 ; lift Z
G1 X69.867 Y100.331 F7200.000 ; move to first infill point
G1 Z0.200 F7200.000 ; restore layer Z
G1 E0.80000 F2100.00000 ; unretract
G1 F1800
G1 X62.002 Y92.466 E0.35045 ; infill
G1 X62.002 Y93.002 E0.01688 ; infill
G1 X69.698 Y100.697 E0.34289 ; infill
G1 X69.698 Y101.233 E0.01688 ; infill
G1 X62.002 Y93.538 E0.34289 ; infill
G1 X62.002 Y94.074 E0.01688 ; infill
G1 X69.698 Y101.769 E0.34289 ; infill
G1 X69.698 Y102.305 E0.01688 ; infill
G1 X62.002 Y94.610 E0.34289 ; infill
G1 X62.002 Y95.146 E0.01688 ; infill
G1 X69.698 Y102.841 E0.34289 ; infill
G1 X69.698 Y103.377 E0.01688 ; infill
G1 X62.002 Y95.681 E0.34289 ; infill
G1 X62.002 Y96.217 E0.01688 ; infill
G1 X69.698 Y103.913 E0.34289 ; infill
G1 X69.698 Y104.448 E0.01688 ; infill
G1 X62.002 Y96.753 E0.34289 ; infill
G1 X62.002 Y97.289 E0.01688 ; infill
G1 X69.698 Y104.984 E0.34289 ; infill
G1 X69.698 Y105.218 E0.00737 ; infill
G1 X69.396 Y105.218 E0.00952 ; infill
G1 X62.002 Y97.825 E0.32943 ; infill
G1 X62.002 Y98.361 E0.01688 ; infill
G1 X68.860 Y105.218 E0.30555 ; infill
G1 X68.324 Y105.218 E0.01688 ; infill
G1 X62.002 Y98.897 E0.28168 ; infill
G1 X62.002 Y99.433 E0.01688 ; infill
G1 X67.788 Y105.218 E0.25780 ; infill
G1 X67.252 Y105.218 E0.01688 ; infill
G1 X62.002 Y99.968 E0.23392 ; infill
G1 X62.002 Y100.504 E0.01688 ; infill
G1 X66.716 Y105.218 E0.21004 ; infill
G1 X66.180 Y105.218 E0.01688 ; infill
G1 X62.002 Y101.040 E0.18616 ; infill
G1 X62.002 Y101.576 E0.01688 ; infill
G1 X65.644 Y105.218 E0.16228 ; infill
G1 X65.108 Y105.218 E0.01688 ; infill
G1 X62.002 Y102.112 E0.13840 ; infill
G1 X62.002 Y102.648 E0.01688 ; infill
G1 X64.573 Y105.218 E0.11453 ; infill
G1 X64.037 Y105.218 E0.01688 ; infill
G1 X62.002 Y103.184 E0.09065 ; infill
G1 X62.002 Y103.720 E0.01688 ; infill
G1 X63.501 Y105.218 E0.06677 ; infill
G1 X62.965 Y105.218 E0.01688 ; infill
G1 X62.002 Y104.256 E0.04289 ; infill
G1 X62.002 Y104.791 E0.01688 ; infill
G1 X62.599 Y105.388 E0.02657 ; infill
G1 F5760
G1 X62.002 Y104.791 E-0.29212 ; wipe and retract
G1 F5760
G1 X62.002 Y104.256 E-0.18561 ; wipe and retract
G1 F5760
G1 X62.579 Y104.832 E-0.28228 ; wipe and retract
G1 E-0.04000 F2100.00000 ; retract
G1 Z0.800 F7200.000 ; lift Z
G1 X51.030 Y92.212 F7200.000 ; move to first infill point
G1 Z0.200 F7200.000 ; restore layer Z
G1 E0.80000 F2100.00000 ; unretract
G1 F1800
G1 X50.672 Y91.853 E0.01599 ; infill
G1 X50.940 Y91.585 E0.01194 ; infill
G1 X51.397 Y92.042 E0.02036 ; infill
G1 X51.932 Y92.042 E0.01688 ; infill
G1 X51.208 Y91.317 E0.03230 ; infill
G1 X51.475 Y91.049 E0.01194 ; infill
G1 X52.468 Y92.042 E0.04424 ; infill
G1 X53.004 Y92.042 E0.01688 ; infill
G1 X51.744 Y90.782 E0.05616 ; infill
G1 X52.280 Y90.782 E0.01688 ; infill
G1 X53.540 Y92.042 E0.05616 ; infill
G1 X54.076 Y92.042 E0.01688 ; infill
G1 X52.816 Y90.782 E0.05616 ; infill
G1 X53.352 Y90.782 E0.01688 ; infill
G1 X54.612 Y92.042 E0.05616 ; infill
G1 X55.148 Y92.042 E0.01688 ; infill
G1 X53.888 Y90.782 E0.05616 ; infill
G1 X54.423 Y90.782 E0.01688 ; infill
G1 X55.684 Y92.042 E0.05616 ; infill
G1 X56.220 Y92.042 E0.01688 ; infill
G1 X54.959 Y90.782 E0.05616 ; infill
G1 X55.495 Y90.782 E0.01688 ; infill
G1 X56.755 Y92.042 E0.05616 ; infill
G1 X57.291 Y92.042 E0.01688 ; infill
G1 X56.031 Y90.782 E0.05616 ; infill
G1 X56.567 Y90.782 E0.01688 ; infill
G1 X57.827 Y92.042 E0.05616 ; infill
G1 X58.363 Y92.042 E0.01688 ; infill
G1 X57.103 Y90.782 E0.05616 ; infill
G1 X57.639 Y90.782 E0.01688 ; infill
G1 X58.899 Y92.042 E0.05616 ; infill
G1 X59.435 Y92.042 E0.01688 ; infill
G1 X58.175 Y90.782 E0.05616 ; infill
G1 X58.710 Y90.782 E0.01688 ; infill
G1 X59.971 Y92.042 E0.05616 ; infill
G1 X60.507 Y92.042 E0.01688 ; infill
G1 X59.246 Y90.782 E0.05616 ; infill
G1 X59.782 Y90.782 E0.01688 ; infill
G1 X61.042 Y92.042 E0.05616 ; infill
G1 X61.578 Y92.042 E0.01688 ; infill
G1 X60.318 Y90.782 E0.05616 ; infill
G1 X60.854 Y90.782 E0.01688 ; infill
G1 X69.698 Y99.626 E0.39406 ; infill
G1 X69.698 Y99.090 E0.01688 ; infill
G1 X61.390 Y90.782 E0.37018 ; infill
G1 X61.926 Y90.782 E0.01688 ; infill
