; generated by Slic3r 1.37.2.1-prusa3d-win64 on 2018-06-26 at 18:33:29

; 

; external perimeters extrusion width = 0.45mm
; perimeters extrusion width = 0.45mm
; infill extrusion width = 0.45mm
; solid infill extrusion width = 0.45mm
; top infill extrusion width = 0.40mm
; first layer extrusion width = 0.42mm

M107 ; disable fan
M115 U3.1.1-RC5 ; tell printer latest fw version
M83  ; extruder relative mode
M104 S215 ; set extruder temp
M140 S60 ; set bed temp
M190 S60 ; wait for bed temp
M109 S215 ; wait for extruder temp
G28 W ; home all without mesh bed level
G80 ; mesh bed leveling
G1 Y-3.0 F1000.0 ; go outside print area
G92 E0.0
G1 X60.0 E9.0  F1000.0 ; intro line
G1 X100.0 E12.5  F1000.0 ; intro line
G92 E0.0
M221 S95
M900 K30
G21 ; set units to millimeters
G90 ; use absolute coordinates
M83 ; use relative distances for extrusion
;BEFORE_LAYER_CHANGE
;0.2


G1 E-0.80000 F2100.00000 ; retract
G1 Z0.600 F12000.000 ; lift Z
;AFTER_LAYER_CHANGE
;0.2
G1 X102.062 Y97.845 F12000.000 ; move to first skirt point
G1 Z0.200 F12000.000 ; restore layer Z
G1 E0.80000 F2100.00000 ; unretract
M204 S1000 ; adjust acceleration
G1 F1800
G1 X102.535 Y97.077 E0.02828 ; skirt
G1 X114.869 Y83.752 E0.56930 ; skirt
G1 X115.522 Y83.355 E0.02396 ; skirt
G1 X116.255 Y83.154 E0.02383 ; skirt
G1 X119.617 Y83.130 E0.10540 ; skirt
G1 X120.464 Y83.265 E0.02689 ; skirt
G1 X121.228 Y83.654 E0.02689 ; skirt
G1 X127.033 Y88.499 E0.23708 ; skirt
G1 X134.384 Y94.991 E0.30749 ; skirt
G1 X140.196 Y100.625 E0.25379 ; skirt
G1 X140.687 Y101.292 E0.02600 ; skirt
G1 X140.917 Y101.888 E0.02001 ; skirt
G1 X141.003 Y102.524 E0.02014 ; skirt
G1 X140.999 Y118.733 E0.50823 ; skirt
G1 X140.869 Y119.424 E0.02205 ; skirt
G1 X140.566 Y120.063 E0.02218 ; skirt
G1 X140.110 Y120.604 E0.02218 ; skirt
G1 X139.531 Y121.011 E0.02218 ; skirt
G1 X138.916 Y121.246 E0.02065 ; skirt
G1 X138.258 Y121.327 E0.02078 ; skirt
G1 X123.204 Y121.327 E0.47201 ; skirt
G1 X122.619 Y121.254 E0.01848 ; skirt
G1 X122.063 Y121.059 E0.01848 ; skirt
G1 X121.423 Y120.635 E0.02409 ; skirt
G1 X102.769 Y103.931 E0.78510 ; skirt
G1 X102.176 Y103.168 E0.03031 ; skirt
G1 X101.964 Y102.640 E0.01784 ; skirt
G1 X101.866 Y102.079 E0.01784 ; skirt
G1 X101.863 Y98.725 E0.10519 ; skirt
G1 X102.049 Y97.903 E0.02640 ; skirt
G1 X102.411 Y97.989 F12000.000 ; move to first skirt point
G1 F1800
G1 X102.825 Y97.318 E0.02473 ; skirt
G1 X115.101 Y84.050 E0.56677 ; skirt
G1 X115.675 Y83.700 E0.02107 ; skirt
G1 X116.327 Y83.525 E0.02119 ; skirt
G1 X119.617 Y83.507 E0.10313 ; skirt
G1 X120.358 Y83.627 E0.02355 ; skirt
G1 X121.022 Y83.970 E0.02343 ; skirt
G1 X126.792 Y88.789 E0.23570 ; skirt
G1 X134.124 Y95.264 E0.30672 ; skirt
G1 X139.926 Y100.888 E0.25333 ; skirt
G1 X140.348 Y101.458 E0.02225 ; skirt
G1 X140.551 Y101.978 E0.01752 ; skirt
G1 X140.626 Y102.536 E0.01763 ; skirt
G1 X140.623 Y118.695 E0.50666 ; skirt
G1 X140.515 Y119.293 E0.01906 ; skirt
G1 X140.256 Y119.847 E0.01917 ; skirt
G1 X139.865 Y120.317 E0.01917 ; skirt
G1 X139.366 Y120.672 E0.01917 ; skirt
G1 X138.827 Y120.879 E0.01811 ; skirt
G1 X138.254 Y120.950 E0.01811 ; skirt
G1 X123.215 Y120.950 E0.47154 ; skirt
G1 X122.706 Y120.887 E0.01609 ; skirt
G1 X122.222 Y120.717 E0.01609 ; skirt
G1 X121.671 Y120.351 E0.02071 ; skirt
G1 X103.024 Y103.653 E0.78483 ; skirt
G1 X102.513 Y102.999 E0.02602 ; skirt
G1 X102.326 Y102.533 E0.01574 ; skirt
G1 X102.241 Y102.039 E0.01574 ; skirt
G1 X102.239 Y98.755 E0.10296 ; skirt
G1 X102.398 Y98.048 E0.02273 ; skirt
G1 F9600
G1 X102.825 Y97.318 E-0.17572 ; wipe and retract
G1 F9600
G1 X104.734 Y95.254 E-0.58428 ; wipe and retract
G1 E-0.04000 F2100.00000 ; retract
G1 Z0.800 F12000.000 ; lift Z
G1 X118.087 Y110.587 F12000.000 ; move to first perimeter point
G1 Z0.200 F12000.000 ; restore layer Z
G1 E0.80000 F2100.00000 ; unretract
G1 F1800
G1 X130.087 Y110.587 E0.37625 ; perimeter
G1 X130.087 Y97.587 E0.40761 ; perimeter
G1 X131.913 Y97.587 E0.05725 ; perimeter
G1 X131.913 Y112.413 E0.46485 ; perimeter
G1 X118.087 Y112.413 E0.43350 ; perimeter
G1 X118.087 Y110.647 E0.05537 ; perimeter
G1 F9600
G1 X121.744 Y110.629 E-0.76000 ; wipe and retract
G1 E-0.04000 F2100.00000 ; retract
G1 Z0.800 F12000.000 ; lift Z
G1 X129.710 Y110.210 F12000.000 ; move to first perimeter point
G1 Z0.200 F12000.000 ; restore layer Z
G1 E0.80000 F2100.00000 ; unretract
G1 F1800
G1 X129.710 Y97.210 E0.40761 ; perimeter
G1 X132.290 Y97.210 E0.08089 ; perimeter
G1 X132.290 Y112.790 E0.48850 ; perimeter
G1 X117.710 Y112.790 E0.45715 ; perimeter
G1 X117.710 Y110.210 E0.08089 ; perimeter
G1 X129.650 Y110.210 E0.37437 ; perimeter
G1 X130.109 Y110.182 F12000.000 ; move inwards before travel
G1 F9600
G1 X129.667 Y106.553 E-0.76000 ; wipe and retract
G1 E-0.04000 F2100.00000 ; retract
G1 Z0.800 F12000.000 ; lift Z
G1 X118.200 Y111.537 F12000.000 ; move to first infill point
G1 Z0.200 F12000.000 ; restore layer Z
G1 E0.80000 F2100.00000 ; unretract
G1 F1800
G1 X118.793 Y112.130 E0.02630 ; infill
G1 X119.326 Y112.130 E0.01673 ; infill
G1 X118.370 Y111.174 E0.04243 ; infill
G1 X118.370 Y110.870 E0.00952 ; infill
G1 X118.600 Y110.870 E0.00721 ; infill
G1 X119.860 Y112.130 E0.05590 ; infill
G1 X120.393 Y112.130 E0.01673 ; infill
G1 X119.133 Y110.870 E0.05590 ; infill
G1 X119.667 Y110.870 E0.01673 ; infill
G1 X120.927 Y112.130 E0.05590 ; infill
G1 X121.460 Y112.130 E0.01673 ; infill
G1 X120.200 Y110.870 E0.05590 ; infill
G1 X120.734 Y110.870 E0.01673 ; infill
G1 X121.994 Y112.130 E0.05590 ; infill
G1 X122.527 Y112.130 E0.01673 ; infill
G1 X121.267 Y110.870 E0.05590 ; infill
G1 X121.801 Y110.870 E0.01673 ; infill
G1 X123.061 Y112.130 E0.05590 ; infill
G1 X123.594 Y112.130 E0.01673 ; infill
G1 X122.334 Y110.870 E0.05590 ; infill
G1 X122.868 Y110.870 E0.01673 ; infill
G1 X124.128 Y112.130 E0.05590 ; infill
G1 X124.661 Y112.130 E0.01673 ; infill
G1 X123.401 Y110.870 E0.05590 ; infill
G1 X123.935 Y110.870 E0.01673 ; infill
G1 X125.195 Y112.130 E0.05590 ; infill
G1 X125.728 Y112.130 E0.01673 ; infill
G1 X124.468 Y110.870 E0.05590 ; infill
G1 X125.001 Y110.870 E0.01673 ; infill
G1 X126.262 Y112.130 E0.05590 ; infill
G1 X126.795 Y112.130 E0.01673 ; infill
G1 X125.535 Y110.870 E0.05590 ; infill
G1 X126.068 Y110.870 E0.01673 ; infill
G1 X127.329 Y112.130 E0.05590 ; infill
G1 X127.862 Y112.130 E0.01673 ; infill
G1 X126.602 Y110.870 E0.05590 ; infill
G1 X127.135 Y110.870 E0.01673 ; infill
G1 X128.396 Y112.130 E0.05590 ; infill
G1 X128.929 Y112.130 E0.01673 ; infill
G1 X127.669 Y110.870 E0.05590 ; infill
G1 X128.202 Y110.870 E0.01673 ; infill
G1 X129.463 Y112.130 E0.05590 ; infill
G1 X129.996 Y112.130 E0.01673 ; infill
G1 X128.736 Y110.870 E0.05590 ; infill
G1 X129.269 Y110.870 E0.01673 ; infill
G1 X130.530 Y112.130 E0.05590 ; infill
G1 X131.063 Y112.130 E0.01673 ; infill
G1 X129.803 Y110.870 E0.05590 ; infill
G1 X130.336 Y110.870 E0.01673 ; infill
G1 X131.597 Y112.130 E0.05590 ; infill
G1 X131.630 Y112.130 E0.00105 ; infill
G1 X131.630 Y111.630 E0.01568 ; infill
G1 X130.370 Y110.370 E0.05590 ; infill
G1 X130.370 Y109.836 E0.01673 ; infill
G1 X131.630 Y111.097 E0.05590 ; infill
G1 X131.630 Y110.563 E0.01673 ; infill
G1 X130.370 Y109.303 E0.05590 ; infill
G1 X130.370 Y108.769 E0.01673 ; infill
G1 X131.630 Y110.030 E0.05590 ; infill
G1 X131.630 Y109.496 E0.01673 ; infill
G1 X130.370 Y108.236 E0.05590 ; infill
G1 X130.370 Y107.702 E0.01673 ; infill
G1 X131.630 Y108.963 E0.05590 ; infill
G1 X131.630 Y108.429 E0.01673 ; infill
G1 X130.370 Y107.169 E0.05590 ; infill
G1 X130.370 Y106.636 E0.01673 ; infill
G1 X131.630 Y107.896 E0.05590 ; infill
G1 X131.630 Y107.362 E0.01673 ; infill
G1 X130.370 Y106.102 E0.05590 ; infill
G1 X130.370 Y105.569 E0.01673 ; infill
G1 X131.630 Y106.829 E0.05590 ; infill
G1 X131.630 Y106.295 E0.01673 ; infill
G1 X130.370 Y105.035 E0.05590 ; infill
G1 X130.370 Y104.502 E0.01673 ; infill
G1 X131.630 Y105.762 E0.05590 ; infill
G1 X131.630 Y105.228 E0.01673 ; infill
G1 X130.370 Y103.968 E0.05590 ; infill
G1 X130.370 Y103.435 E0.01673 ; infill
G1 X131.630 Y104.695 E0.05590 ; infill
G1 X131.630 Y104.161 E0.01673 ; infill
G1 X130.370 Y102.901 E0.05590 ; infill
G1 X130.370 Y102.368 E0.01673 ; infill
G1 X131.630 Y103.628 E0.05590 ; infill
G1 X131.630 Y103.094 E0.01673 ; infill
G1 X130.370 Y101.834 E0.05590 ; infill
G1 X130.370 Y101.301 E0.01673 ; infill
G1 X131.630 Y102.561 E0.05590 ; infill
G1 X131.630 Y102.027 E0.01673 ; infill
G1 X130.370 Y100.767 E0.05590 ; infill
G1 X130.370 Y100.234 E0.01673 ; infill
G1 X131.630 Y101.494 E0.05590 ; infill
G1 X131.630 Y100.961 E0.01673 ; infill
G1 X130.370 Y99.700 E0.05590 ; infill
G1 X130.370 Y99.167 E0.01673 ; infill
G1 X131.630 Y100.427 E0.05590 ; infill
G1 X131.630 Y99.894 E0.01673 ; infill
G1 X130.370 Y98.633 E0.05590 ; infill
G1 X130.370 Y98.100 E0.01673 ; infill
G1 X131.630 Y99.360 E0.05590 ; infill
G1 X131.630 Y98.827 E0.01673 ; infill
G1 X130.673 Y97.870 E0.04244 ; infill
G1 X131.207 Y97.870 E0.01673 ; infill
G1 X131.800 Y98.463 E0.02630 ; infill
G1 F9600
G1 X131.207 Y97.870 E-0.17425 ; wipe and retract
G1 F9600
G1 X130.673 Y97.870 E-0.11086 ; wipe and retract
G1 F9600
G1 X131.630 Y98.827 E-0.28117 ; wipe and retract
G1 F9600
G1 X131.630 Y99.360 E-0.11086 ; wipe and retract
G1 F9600
G1 X131.348 Y99.078 E-0.08285 ; wipe and retract
G1 E-0.04000 F2100.00000 ; retract
G1 Z0.800 F12000.000 ; lift Z
G1 X122.822 Y104.172 F12000.000 ; move to first perimeter point
G1 Z0.200 F12000.000 ; restore layer Z
G1 E0.80000 F2100.00000 ; unretract
G1 F1800
G1 X122.822 Y91.172 E0.40761 ; perimeter
G1 X124.648 Y91.172 E0.05725 ; perimeter
G1 X124.648 Y105.998 E0.46485 ; perimeter
G1 X110.822 Y105.998 E0.43350 ; perimeter
G1 X110.822 Y104.172 E0.05725 ; perimeter
G1 X122.762 Y104.172 E0.37437 ; perimeter
G1 X122.445 Y103.795 F12000.000 ; move to first perimeter point
G1 F1800
G1 X122.445 Y90.795 E0.40761 ; perimeter
G1 X125.025 Y90.795 E0.08089 ; perimeter
G1 X125.025 Y106.375 E0.48850 ; perimeter
G1 X110.445 Y106.375 E0.45715 ; perimeter
G1 X110.445 Y103.795 E0.08089 ; perimeter
G1 X122.385 Y103.795 E0.37437 ; perimeter
G1 X122.844 Y103.767 F12000.000 ; move inwards before travel
G1 F9600
G1 X122.402 Y100.138 E-0.76000 ; wipe and retract
G1 E-0.04000 F2100.00000 ; retract
G1 Z0.800 F12000.000 ; lift Z
G1 X110.936 Y105.123 F12000.000 ; move to first infill point
G1 Z0.200 F12000.000 ; restore layer Z
G1 E0.80000 F2100.00000 ; unretract
G1 F1800
G1 X111.528 Y105.715 E0.02630 ; infill
G1 X112.062 Y105.715 E0.01673 ; infill
G1 X111.105 Y104.759 E0.04243 ; infill
G1 X111.105 Y104.455 E0.00952 ; infill
G1 X111.335 Y104.455 E0.00721 ; infill
G1 X112.595 Y105.715 E0.05590 ; infill
G1 X113.129 Y105.715 E0.01673 ; infill
G1 X111.869 Y104.455 E0.05590 ; infill
G1 X112.402 Y104.455 E0.01673 ; infill
G1 X113.662 Y105.715 E0.05590 ; infill
G1 X114.196 Y105.715 E0.01673 ; infill
G1 X112.935 Y104.455 E0.05590 ; infill
G1 X113.469 Y104.455 E0.01673 ; infill
G1 X114.729 Y105.715 E0.05590 ; infill
G1 X115.263 Y105.715 E0.01673 ; infill
G1 X114.002 Y104.455 E0.05590 ; infill
G1 X114.536 Y104.455 E0.01673 ; infill
G1 X115.796 Y105.715 E0.05590 ; infill
G1 X116.330 Y105.715 E0.01673 ; infill
G1 X115.069 Y104.455 E0.05590 ; infill
G1 X115.603 Y104.455 E0.01673 ; infill
G1 X116.863 Y105.715 E0.05590 ; infill
G1 X117.397 Y105.715 E0.01673 ; infill
G1 X116.136 Y104.455 E0.05590 ; infill
G1 X116.670 Y104.455 E0.01673 ; infill
G1 X117.930 Y105.715 E0.05590 ; infill
G1 X118.464 Y105.715 E0.01673 ; infill
G1 X117.203 Y104.455 E0.05590 ; infill
G1 X117.737 Y104.455 E0.01673 ; infill
G1 X118.997 Y105.715 E0.05590 ; infill
G1 X119.531 Y105.715 E0.01673 ; infill
G1 X118.270 Y104.455 E0.05590 ; infill
G1 X118.804 Y104.455 E0.01673 ; infill
G1 X120.064 Y105.715 E0.05590 ; infill
G1 X120.598 Y105.715 E0.01673 ; infill
G1 X119.337 Y104.455 E0.05590 ; infill
G1 X119.871 Y104.455 E0.01673 ; infill
G1 X121.131 Y105.715 E0.05590 ; infill
G1 X121.665 Y105.715 E0.01673 ; infill
G1 X120.404 Y104.455 E0.05590 ; infill
G1 X120.938 Y104.455 E0.01673 ; infill
G1 X122.198 Y105.715 E0.05590 ; infill
G1 X122.732 Y105.715 E0.01673 ; infill
G1 X121.471 Y104.455 E0.05590 ; infill
G1 X122.005 Y104.455 E0.01673 ; infill
G1 X123.265 Y105.715 E0.05590 ; infill
G1 X123.798 Y105.715 E0.01673 ; infill
G1 X122.538 Y104.455 E0.05590 ; infill
G1 X123.072 Y104.455 E0.01673 ; infill
G1 X124.332 Y105.715 E0.05590 ; infill
G1 X124.365 Y105.715 E0.00105 ; infill
G1 X124.365 Y105.215 E0.01568 ; infill
G1 X123.105 Y103.955 E0.05590 ; infill
G1 X123.105 Y103.422 E0.01673 ; infill
G1 X124.365 Y104.682 E0.05590 ; infill
G1 X124.365 Y104.148 E0.01673 ; infill
G1 X123.105 Y102.888 E0.05590 ; infill
G1 X123.105 Y102.355 E0.01673 ; infill
G1 X124.365 Y103.615 E0.05590 ; infill
G1 X124.365 Y103.081 E0.01673 ; infill
G1 X123.105 Y101.821 E0.05590 ; infill
G1 X123.105 Y101.288 E0.01673 ; infill
G1 X124.365 Y102.548 E0.05590 ; infill
G1 X124.365 Y102.015 E0.01673 ; infill
G1 X123.105 Y100.754 E0.05590 ; infill
G1 X123.105 Y100.221 E0.01673 ; infill
G1 X124.365 Y101.481 E0.05590 ; infill
G1 X124.365 Y100.948 E0.01673 ; infill
G1 X123.105 Y99.687 E0.05590 ; infill
G1 X123.105 Y99.154 E0.01673 ; infill
G1 X124.365 Y100.414 E0.05590 ; infill
G1 X124.365 Y99.881 E0.01673 ; infill
G1 X123.105 Y98.620 E0.05590 ; infill
G1 X123.105 Y98.087 E0.01673 ; infill
G1 X124.365 Y99.347 E0.05590 ; infill
G1 X124.365 Y98.814 E0.01673 ; infill
G1 X123.105 Y97.553 E0.05590 ; infill
G1 X123.105 Y97.020 E0.01673 ; infill
G1 X124.365 Y98.280 E0.05590 ; infill
G1 X124.365 Y97.747 E0.01673 ; infill
G1 X123.105 Y96.486 E0.05590 ; infill
G1 X123.105 Y95.953 E0.01673 ; infill
G1 X124.365 Y97.213 E0.05590 ; infill
G1 X124.365 Y96.680 E0.01673 ; infill
G1 X123.105 Y95.419 E0.05590 ; infill
G1 X123.105 Y94.886 E0.01673 ; infill
G1 X124.365 Y96.146 E0.05590 ; infill
G1 X124.365 Y95.613 E0.01673 ; infill
G1 X123.105 Y94.352 E0.05590 ; infill
G1 X123.105 Y93.819 E0.01673 ; infill
G1 X124.365 Y95.079 E0.05590 ; infill
G1 X124.365 Y94.546 E0.01673 ; infill
G1 X123.105 Y93.285 E0.05590 ; infill
G1 X123.105 Y92.752 E0.01673 ; infill
G1 X124.365 Y94.012 E0.05590 ; infill
G1 X124.365 Y93.479 E0.01673 ; infill
G1 X123.105 Y92.219 E0.05590 ; infill
G1 X123.105 Y91.685 E0.01673 ; infill
G1 X124.365 Y92.945 E0.05590 ; infill
G1 X124.365 Y92.412 E0.01673 ; infill
G1 X123.409 Y91.455 E0.04244 ; infill
G1 X123.942 Y91.455 E0.01673 ; infill
G1 X124.535 Y92.048 E0.02630 ; infill
G1 F9600
G1 X123.942 Y91.455 E-0.17425 ; wipe and retract
G1 F9600
G1 X123.409 Y91.455 E-0.11086 ; wipe and retract
G1 F9600
G1 X124.365 Y92.412 E-0.28117 ; wipe and retract
G1 F9600
G1 X124.365 Y92.945 E-0.11086 ; wipe and retract
G1 F9600
G1 X124.084 Y92.663 E-0.08285 ; wipe and retract
G1 E-0.04000 F2100.00000 ; retract
G1 Z0.800 F12000.000 ; lift Z
G1 X135.836 Y103.160 F12000.000 ; move to first perimeter point
G1 Z0.200 F12000.000 ; restore layer Z
G1 E0.80000 F2100.00000 ; unretract
G1 F1800
G1 X137.662 Y103.160 E0.05725 ; perimeter
G1 X137.662 Y117.986 E0.46485 ; perimeter
G1 X123.836 Y117.986 E0.43350 ; perimeter
G1 X123.836 Y116.160 E0.05725 ; perimeter
G1 X135.836 Y116.160 E0.37625 ; perimeter
G1 X135.836 Y103.220 E0.40572 ; perimeter
G1 F9600
G1 X137.662 Y103.160 E-0.37964 ; wipe and retract
G1 F9600
G1 X137.662 Y104.991 E-0.38036 ; wipe and retract
G1 E-0.04000 F2100.00000 ; retract
G1 Z0.800 F12000.000 ; lift Z
G1 X135.459 Y115.783 F12000.000 ; move to first perimeter point
G1 Z0.200 F12000.000 ; restore layer Z
G1 E0.80000 F2100.00000 ; unretract
G1 F1800
G1 X135.459 Y102.783 E0.40761 ; perimeter
G1 X138.039 Y102.783 E0.08089 ; perimeter
G1 X138.039 Y118.363 E0.48850 ; perimeter
G1 X123.459 Y118.363 E0.45715 ; perimeter
G1 X123.459 Y115.783 E0.08089 ; perimeter
G1 X135.399 Y115.783 E0.37437 ; perimeter
G1 X135.858 Y115.755 F12000.000 ; move inwards before travel
G1 F9600
G1 X135.416 Y112.126 E-0.76000 ; wipe and retract
G1 E-0.04000 F2100.00000 ; retract
G1 Z0.800 F12000.000 ; lift Z
G1 X123.949 Y117.111 F12000.000 ; move to first infill point
G1 Z0.200 F12000.000 ; restore layer Z
G1 E0.80000 F2100.00000 ; unretract
G1 F1800
