; generated by Slic3r 1.37.2.1-prusa3d-win64 on 2018-05-08 at 18:01:33

; 

; external perimeters extrusion width = 0.45mm
; perimeters extrusion width = 0.45mm
; infill extrusion width = 0.45mm
; solid infill extrusion width = 0.45mm
; top infill extrusion width = 0.40mm
; support material extrusion width = 0.35mm
; first layer extrusion width = 0.42mm

M107 ; disable fan
M115 U3.1.1-RC5 ; tell printer latest fw version
M83  ; extruder relative mode
M104 S215 ; set extruder temp
M140 S60 ; set bed temp
M190 S60 ; wait for bed temp
M109 S215 ; wait for extruder temp
G28 W ; home all without mesh bed level
G80 ; mesh bed leveling
G1 Y-3.0 F1000.0 ; go outside print area
G92 E0.0
G1 X60.0 E9.0  F1000.0 ; intro line
G1 X100.0 E12.5  F1000.0 ; intro line
G92 E0.0
M221 S95
M900 K30
G21 ; set units to millimeters
G90 ; use absolute coordinates
M83 ; use relative distances for extrusion
;BEFORE_LAYER_CHANGE
;0.2


G1 E-0.80000 F2100.00000 ; retract
G1 Z0.600 F12000.000 ; lift Z
;AFTER_LAYER_CHANGE
;0.2
G1 X107.025 Y100.160 F12000.000 ; move to first skirt point
G1 Z0.200 F12000.000 ; restore layer Z
G1 E0.80000 F2100.00000 ; unretract
M204 S1000 ; adjust acceleration
G1 F1800
G1 X108.062 Y98.761 E0.05458 ; skirt
G1 X114.712 Y91.430 E0.31034 ; skirt
G1 X116.026 Y90.289 E0.05458 ; skirt
G1 X117.520 Y89.379 E0.05483 ; skirt
G1 X122.777 Y87.257 E0.17776 ; skirt
G1 X124.652 Y86.763 E0.06080 ; skirt
G1 X126.196 Y86.624 E0.04861 ; skirt
G1 X134.158 Y86.623 E0.24963 ; skirt
G1 X136.159 Y86.819 E0.06303 ; skirt
G1 X138.077 Y87.395 E0.06278 ; skirt
G1 X139.327 Y88.006 E0.04364 ; skirt
G1 X143.053 Y90.261 E0.13656 ; skirt
G1 X144.372 Y91.396 E0.05458 ; skirt
G1 X145.488 Y92.743 E0.05483 ; skirt
G1 X146.361 Y94.258 E0.05483 ; skirt
G1 X146.968 Y95.899 E0.05483 ; skirt
G1 X147.237 Y97.183 E0.04115 ; skirt
G1 X147.342 Y98.491 E0.04115 ; skirt
G1 X147.342 Y107.253 E0.27471 ; skirt
G1 X147.185 Y108.899 E0.05185 ; skirt
G1 X146.897 Y110.105 E0.03890 ; skirt
G1 X146.463 Y111.276 E0.03915 ; skirt
G1 X143.486 Y117.531 E0.21719 ; skirt
G1 X142.972 Y118.465 E0.03342 ; skirt
G1 X142.080 Y119.694 E0.04762 ; skirt
G1 X141.024 Y120.774 E0.04737 ; skirt
G1 X139.822 Y121.690 E0.04737 ; skirt
G1 X138.493 Y122.425 E0.04762 ; skirt
G1 X137.269 Y122.897 E0.04115 ; skirt
G1 X126.443 Y126.283 E0.35563 ; skirt
G1 X125.441 Y126.537 E0.03243 ; skirt
G1 X124.418 Y126.691 E0.03243 ; skirt
G1 X123.377 Y126.742 E0.03267 ; skirt
G1 X114.807 Y126.519 E0.26882 ; skirt
G1 X113.652 Y126.336 E0.03666 ; skirt
G1 X112.517 Y126.022 E0.03691 ; skirt
G1 X111.426 Y125.582 E0.03691 ; skirt
G1 X110.391 Y125.020 E0.03691 ; skirt
G1 X109.241 Y124.195 E0.04438 ; skirt
G1 X108.213 Y123.221 E0.04438 ; skirt
G1 X107.328 Y122.117 E0.04438 ; skirt
G1 X106.602 Y120.902 E0.04438 ; skirt
G1 X106.114 Y119.787 E0.03816 ; skirt
G1 X105.761 Y118.622 E0.03816 ; skirt
G1 X105.086 Y114.593 E0.12811 ; skirt
G1 X104.993 Y113.363 E0.03865 ; skirt
G1 X105.003 Y109.323 E0.12667 ; skirt
G1 X105.566 Y104.236 E0.16050 ; skirt
G1 X105.767 Y103.165 E0.03417 ; skirt
G1 X106.080 Y102.121 E0.03417 ; skirt
G1 X106.501 Y101.115 E0.03417 ; skirt
G1 X106.996 Y100.212 E0.03229 ; skirt
G1 F9600
G1 X108.062 Y98.761 E-0.37413 ; wipe and retract
G1 F9600
G1 X109.309 Y97.386 E-0.38587 ; wipe and retract
G1 E-0.04000 F2100.00000 ; retract
G1 Z0.800 F12000.000 ; lift Z
G1 X113.596 Y97.269 F12000.000 ; move to first brim point
G1 Z0.200 F12000.000 ; restore layer Z
G1 E0.80000 F2100.00000 ; unretract
G1 F1800
G1 X114.065 Y95.479 E0.05799 ; brim
G1 X115.281 Y93.341 E0.07713 ; brim
G1 X116.760 Y91.855 E0.06572 ; brim
G1 X118.562 Y90.749 E0.06630 ; brim
G1 X120.678 Y90.103 E0.06936 ; brim
G1 X121.447 Y90.047 E0.02418 ; brim
G1 X121.568 Y89.955 E0.00476 ; brim
G1 X122.971 Y89.181 E0.05024 ; brim
G1 X125.296 Y88.554 E0.07551 ; brim
G1 X135.132 Y88.550 E0.30839 ; brim
G1 X137.374 Y89.111 E0.07248 ; brim
G1 X138.751 Y89.831 E0.04871 ; brim
G1 X139.390 Y90.358 E0.02599 ; brim
G1 X140.409 Y90.691 E0.03360 ; brim
G1 X142.492 Y91.948 E0.07628 ; brim
G1 X143.537 Y92.986 E0.04618 ; brim
G1 X144.435 Y94.180 E0.04685 ; brim
G1 X145.560 Y97.394 E0.10676 ; brim
G1 X145.640 Y107.600 E0.32002 ; brim
G1 X145.482 Y108.964 E0.04304 ; brim
G1 X144.172 Y111.913 E0.10117 ; brim
G1 X142.570 Y113.667 E0.07448 ; brim
G1 X142.519 Y114.552 E0.02782 ; brim
G1 X142.033 Y116.229 E0.05472 ; brim
G1 X141.016 Y118.038 E0.06508 ; brim
G1 X138.842 Y120.108 E0.09413 ; brim
G1 X137.181 Y120.956 E0.05845 ; brim
G1 X135.358 Y121.425 E0.05905 ; brim
G1 X130.380 Y121.468 E0.15607 ; brim
G1 X130.265 Y121.626 E0.00614 ; brim
G1 X128.432 Y123.362 E0.07915 ; brim
G1 X126.823 Y124.241 E0.05749 ; brim
G1 X125.029 Y124.756 E0.05852 ; brim
G1 X123.539 Y124.828 E0.04677 ; brim
G1 X123.078 Y124.868 E0.01448 ; brim
G1 X115.084 Y124.858 E0.25065 ; brim
G1 X112.717 Y124.303 E0.07625 ; brim
G1 X110.556 Y123.076 E0.07792 ; brim
G1 X109.444 Y122.056 E0.04732 ; brim
G1 X108.588 Y120.991 E0.04281 ; brim
G1 X107.557 Y118.859 E0.07427 ; brim
G1 X107.264 Y116.217 E0.08334 ; brim
G1 X107.033 Y115.593 E0.02088 ; brim
G1 X106.696 Y113.666 E0.06133 ; brim
G1 X106.696 Y109.334 E0.13584 ; brim
G1 X107.032 Y107.416 E0.06106 ; brim
G1 X107.196 Y106.954 E0.01535 ; brim
G1 X107.297 Y104.080 E0.09019 ; brim
G1 X107.878 Y102.160 E0.06290 ; brim
G1 X108.900 Y100.397 E0.06390 ; brim
G1 X110.104 Y99.108 E0.05529 ; brim
G1 X111.527 Y98.070 E0.05523 ; brim
G1 X113.540 Y97.290 E0.06769 ; brim
G1 F9600
G1 X114.065 Y95.479 E-0.39179 ; wipe and retract
G1 F9600
G1 X114.941 Y93.939 E-0.36821 ; wipe and retract
G1 E-0.04000 F2100.00000 ; retract
G1 Z0.800 F12000.000 ; lift Z
G1 X130.173 Y121.093 F12000.000 ; move to first brim point
G1 Z0.200 F12000.000 ; restore layer Z
G1 E0.80000 F2100.00000 ; unretract
G1 F1800
G1 X129.987 Y121.370 E0.01047 ; brim
G1 X128.229 Y123.043 E0.07610 ; brim
G1 X126.697 Y123.884 E0.05478 ; brim
G1 X124.988 Y124.380 E0.05580 ; brim
G1 X123.513 Y124.452 E0.04631 ; brim
G1 X123.070 Y124.491 E0.01393 ; brim
G1 X115.149 Y124.486 E0.24835 ; brim
G1 X112.830 Y123.942 E0.07470 ; brim
G1 X110.762 Y122.759 E0.07469 ; brim
G1 X109.710 Y121.788 E0.04489 ; brim
G1 X108.896 Y120.773 E0.04081 ; brim
G1 X107.911 Y118.725 E0.07124 ; brim
G1 X107.634 Y116.130 E0.08185 ; brim
G1 X107.401 Y115.510 E0.02077 ; brim
G1 X107.073 Y113.650 E0.05922 ; brim
G1 X107.073 Y109.350 E0.13480 ; brim
G1 X107.400 Y107.498 E0.05898 ; brim
G1 X107.571 Y107.027 E0.01571 ; brim
G1 X107.665 Y104.165 E0.08977 ; brim
G1 X108.233 Y102.291 E0.06142 ; brim
G1 X109.215 Y100.605 E0.06116 ; brim
G1 X110.366 Y99.379 E0.05274 ; brim
G1 X111.728 Y98.390 E0.05278 ; brim
G1 X113.913 Y97.551 E0.07338 ; brim
G1 X114.405 Y95.643 E0.06179 ; brim
G1 X115.567 Y93.588 E0.07400 ; brim
G1 X116.977 Y92.164 E0.06284 ; brim
G1 X118.695 Y91.103 E0.06332 ; brim
G1 X120.766 Y90.470 E0.06790 ; brim
G1 X121.591 Y90.415 E0.02592 ; brim
G1 X121.767 Y90.276 E0.00703 ; brim
G1 X123.092 Y89.539 E0.04753 ; brim
G1 X125.370 Y88.925 E0.07400 ; brim
G1 X135.063 Y88.922 E0.30392 ; brim
G1 X137.220 Y89.456 E0.06965 ; brim
G1 X138.558 Y90.155 E0.04735 ; brim
G1 X139.205 Y90.695 E0.02642 ; brim
G1 X140.234 Y91.025 E0.03389 ; brim
G1 X142.243 Y92.232 E0.07345 ; brim
G1 X143.262 Y93.244 E0.04503 ; brim
G1 X144.116 Y94.383 E0.04464 ; brim
G1 X145.194 Y97.488 E0.10306 ; brim
G1 X145.262 Y107.591 E0.31678 ; brim
G1 X145.111 Y108.892 E0.04105 ; brim
G1 X143.840 Y111.730 E0.09751 ; brim
G1 X142.347 Y113.351 E0.06911 ; brim
G1 X142.202 Y113.461 E0.00569 ; brim
G1 X142.150 Y114.469 E0.03165 ; brim
G1 X141.677 Y116.103 E0.05333 ; brim
G1 X140.702 Y117.828 E0.06214 ; brim
G1 X138.603 Y119.815 E0.09064 ; brim
G1 X137.030 Y120.610 E0.05526 ; brim
G1 X135.331 Y121.048 E0.05500 ; brim
G1 X130.233 Y121.092 E0.15987 ; brim
G1 F9600
G1 X129.987 Y121.370 E-0.07709 ; wipe and retract
G1 F9600
G1 X128.229 Y123.043 E-0.50441 ; wipe and retract
G1 F9600
G1 X127.476 Y123.457 E-0.17850 ; wipe and retract
G1 E-0.04000 F2100.00000 ; retract
G1 Z0.800 F12000.000 ; lift Z
G1 X141.834 Y113.254 F12000.000 ; move to first brim point
G1 Z0.200 F12000.000 ; restore layer Z
G1 E0.80000 F2100.00000 ; unretract
G1 F1800
G1 X141.782 Y114.386 E0.03553 ; brim
G1 X141.321 Y115.976 E0.05191 ; brim
G1 X140.389 Y117.617 E0.05917 ; brim
G1 X138.365 Y119.521 E0.08713 ; brim
G1 X136.879 Y120.264 E0.05208 ; brim
G1 X135.305 Y120.672 E0.05100 ; brim
G1 X129.963 Y120.718 E0.16751 ; brim
G1 X129.709 Y121.115 E0.01479 ; brim
G1 X128.025 Y122.725 E0.07303 ; brim
G1 X126.534 Y123.544 E0.05334 ; brim
G1 X124.906 Y124.012 E0.05313 ; brim
G1 X123.488 Y124.076 E0.04450 ; brim
G1 X123.062 Y124.114 E0.01342 ; brim
G1 X115.213 Y124.114 E0.24609 ; brim
G1 X112.993 Y123.601 E0.07145 ; brim
G1 X110.968 Y122.443 E0.07312 ; brim
G1 X109.977 Y121.522 E0.04242 ; brim
G1 X109.204 Y120.554 E0.03883 ; brim
G1 X108.265 Y118.593 E0.06820 ; brim
G1 X108.005 Y116.042 E0.08040 ; brim
G1 X107.769 Y115.425 E0.02068 ; brim
G1 X107.450 Y113.633 E0.05709 ; brim
G1 X107.450 Y109.367 E0.13375 ; brim
G1 X107.768 Y107.581 E0.05688 ; brim
G1 X107.946 Y107.100 E0.01607 ; brim
G1 X108.033 Y104.250 E0.08942 ; brim
G1 X108.570 Y102.461 E0.05855 ; brim
G1 X109.530 Y100.814 E0.05977 ; brim
G1 X110.628 Y99.651 E0.05016 ; brim
G1 X111.928 Y98.710 E0.05034 ; brim
G1 X114.272 Y97.818 E0.07862 ; brim
G1 X114.288 Y97.607 E0.00663 ; brim
G1 X114.746 Y95.806 E0.05827 ; brim
G1 X115.882 Y93.796 E0.07240 ; brim
G1 X117.228 Y92.446 E0.05978 ; brim
G1 X118.829 Y91.456 E0.05900 ; brim
G1 X120.855 Y90.838 E0.06641 ; brim
G1 X121.738 Y90.785 E0.02773 ; brim
G1 X121.967 Y90.595 E0.00934 ; brim
G1 X123.213 Y89.897 E0.04476 ; brim
G1 X125.444 Y89.295 E0.07247 ; brim
G1 X135.040 Y89.299 E0.30088 ; brim
G1 X137.065 Y89.800 E0.06540 ; brim
G1 X138.365 Y90.480 E0.04598 ; brim
G1 X139.019 Y91.032 E0.02686 ; brim
G1 X140.060 Y91.361 E0.03423 ; brim
G1 X141.994 Y92.516 E0.07062 ; brim
G1 X142.968 Y93.481 E0.04300 ; brim
G1 X143.796 Y94.585 E0.04327 ; brim
G1 X144.827 Y97.581 E0.09935 ; brim
G1 X144.885 Y107.582 E0.31356 ; brim
G1 X144.740 Y108.818 E0.03905 ; brim
G1 X143.509 Y111.546 E0.09383 ; brim
G1 X142.087 Y113.077 E0.06551 ; brim
G1 X141.883 Y113.220 E0.00781 ; brim
G1 X141.464 Y113.045 F12000.000 ; move to first brim point
G1 F1800
G1 X141.413 Y114.303 E0.03949 ; brim
G1 X140.965 Y115.849 E0.05047 ; brim
G1 X140.076 Y117.405 E0.05617 ; brim
G1 X138.128 Y119.227 E0.08362 ; brim
G1 X136.730 Y119.917 E0.04890 ; brim
G1 X135.278 Y120.295 E0.04703 ; brim
G1 X129.749 Y120.342 E0.17337 ; brim
G1 X129.429 Y120.861 E0.01911 ; brim
G1 X127.821 Y122.407 E0.06995 ; brim
G1 X126.409 Y123.187 E0.05057 ; brim
G1 X124.824 Y123.643 E0.05174 ; brim
G1 X123.463 Y123.699 E0.04269 ; brim
G1 X123.053 Y123.737 E0.01291 ; brim
G1 X115.235 Y123.737 E0.24513 ; brim
G1 X113.106 Y123.240 E0.06854 ; brim
G1 X111.176 Y122.127 E0.06985 ; brim
G1 X110.245 Y121.257 E0.03997 ; brim
G1 X109.513 Y120.337 E0.03686 ; brim
G1 X108.620 Y118.461 E0.06515 ; brim
G1 X108.375 Y115.953 E0.07899 ; brim
G1 X108.137 Y115.340 E0.02062 ; brim
G1 X107.827 Y113.616 E0.05493 ; brim
G1 X107.827 Y109.384 E0.13269 ; brim
G1 X108.136 Y107.665 E0.05475 ; brim
G1 X108.321 Y107.174 E0.01645 ; brim
G1 X108.401 Y104.333 E0.08913 ; brim
G1 X108.907 Y102.631 E0.05566 ; brim
G1 X109.844 Y101.023 E0.05836 ; brim
G1 X110.889 Y99.924 E0.04755 ; brim
G1 X112.129 Y99.030 E0.04794 ; brim
G1 X114.177 Y98.245 E0.06878 ; brim
G1 X114.640 Y98.199 E0.01458 ; brim
G1 X114.660 Y97.676 E0.01642 ; brim
G1 X115.087 Y95.969 E0.05516 ; brim
G1 X116.198 Y94.004 E0.07079 ; brim
G1 X117.446 Y92.754 E0.05538 ; brim
G1 X118.963 Y91.810 E0.05602 ; brim
G1 X120.942 Y91.205 E0.06489 ; brim
G1 X121.885 Y91.155 E0.02961 ; brim
G1 X122.170 Y90.914 E0.01169 ; brim
G1 X123.335 Y90.255 E0.04198 ; brim
G1 X125.470 Y89.673 E0.06938 ; brim
G1 X134.973 Y89.671 E0.29797 ; brim
G1 X136.911 Y90.145 E0.06256 ; brim
G1 X138.171 Y90.804 E0.04457 ; brim
G1 X138.833 Y91.369 E0.02732 ; brim
G1 X139.888 Y91.696 E0.03460 ; brim
G1 X141.745 Y92.800 E0.06775 ; brim
G1 X142.693 Y93.739 E0.04183 ; brim
G1 X143.476 Y94.787 E0.04102 ; brim
G1 X144.460 Y97.674 E0.09563 ; brim
G1 X144.508 Y107.572 E0.31035 ; brim
G1 X144.369 Y108.745 E0.03704 ; brim
G1 X143.179 Y111.362 E0.09013 ; brim
G1 X141.829 Y112.801 E0.06190 ; brim
G1 X141.514 Y113.011 E0.01185 ; brim
G1 X141.094 Y112.833 F12000.000 ; move to first brim point
G1 F1800
G1 X141.044 Y114.221 E0.04354 ; brim
G1 X140.609 Y115.722 E0.04901 ; brim
G1 X139.763 Y117.192 E0.05315 ; brim
G1 X137.892 Y118.931 E0.08011 ; brim
G1 X136.616 Y119.557 E0.04458 ; brim
G1 X135.251 Y119.918 E0.04425 ; brim
G1 X129.533 Y119.967 E0.17929 ; brim
G1 X129.148 Y120.608 E0.02344 ; brim
G1 X127.615 Y122.090 E0.06684 ; brim
G1 X126.283 Y122.831 E0.04781 ; brim
G1 X124.785 Y123.267 E0.04893 ; brim
G1 X123.438 Y123.323 E0.04228 ; brim
G1 X123.044 Y123.360 E0.01240 ; brim
G1 X115.257 Y123.360 E0.24416 ; brim
G1 X113.220 Y122.880 E0.06561 ; brim
G1 X111.385 Y121.813 E0.06656 ; brim
G1 X110.514 Y120.992 E0.03752 ; brim
G1 X109.822 Y120.120 E0.03491 ; brim
G1 X108.975 Y118.330 E0.06208 ; brim
G1 X108.746 Y115.865 E0.07762 ; brim
G1 X108.505 Y115.254 E0.02059 ; brim
G1 X108.204 Y113.599 E0.05275 ; brim
G1 X108.204 Y109.401 E0.13162 ; brim
G1 X108.504 Y107.751 E0.05259 ; brim
G1 X108.696 Y107.249 E0.01684 ; brim
G1 X108.770 Y104.415 E0.08889 ; brim
G1 X109.244 Y102.801 E0.05275 ; brim
G1 X110.159 Y101.233 E0.05692 ; brim
G1 X111.149 Y100.197 E0.04491 ; brim
G1 X112.329 Y99.351 E0.04554 ; brim
G1 X114.283 Y98.608 E0.06556 ; brim
G1 X115.011 Y98.554 E0.02287 ; brim
G1 X115.031 Y97.746 E0.02534 ; brim
G1 X115.447 Y96.086 E0.05366 ; brim
G1 X116.513 Y94.213 E0.06757 ; brim
G1 X117.696 Y93.038 E0.05231 ; brim
G1 X119.140 Y92.143 E0.05324 ; brim
G1 X121.028 Y91.573 E0.06184 ; brim
G1 X122.034 Y91.526 E0.03157 ; brim
G1 X122.374 Y91.231 E0.01411 ; brim
G1 X123.458 Y90.612 E0.03914 ; brim
G1 X125.545 Y90.043 E0.06782 ; brim
G1 X134.950 Y90.048 E0.29490 ; brim
G1 X136.756 Y90.490 E0.05831 ; brim
G1 X137.976 Y91.127 E0.04315 ; brim
G1 X138.647 Y91.707 E0.02779 ; brim
G1 X139.716 Y92.033 E0.03503 ; brim
G1 X141.497 Y93.085 E0.06487 ; brim
G1 X142.399 Y93.976 E0.03977 ; brim
G1 X143.156 Y94.988 E0.03962 ; brim
G1 X144.093 Y97.765 E0.09188 ; brim
G1 X144.131 Y107.561 E0.30716 ; brim
G1 X143.998 Y108.670 E0.03502 ; brim
G1 X142.850 Y111.176 E0.08641 ; brim
G1 X141.572 Y112.525 E0.05827 ; brim
G1 X141.145 Y112.801 E0.01595 ; brim
G1 X140.723 Y112.620 F12000.000 ; move to first brim point
G1 F1800
G1 X140.675 Y114.139 E0.04766 ; brim
G1 X140.254 Y115.595 E0.04752 ; brim
G1 X139.452 Y116.977 E0.05010 ; brim
G1 X137.657 Y118.635 E0.07660 ; brim
G1 X136.500 Y119.198 E0.04034 ; brim
G1 X135.224 Y119.541 E0.04145 ; brim
G1 X129.315 Y119.592 E0.18527 ; brim
G1 X128.866 Y120.356 E0.02779 ; brim
G1 X127.410 Y121.772 E0.06369 ; brim
G1 X126.119 Y122.491 E0.04634 ; brim
G1 X124.703 Y122.898 E0.04618 ; brim
G1 X123.413 Y122.947 E0.04049 ; brim
G1 X123.035 Y122.982 E0.01191 ; brim
G1 X115.279 Y122.982 E0.24317 ; brim
G1 X113.335 Y122.519 E0.06266 ; brim
G1 X111.595 Y121.499 E0.06326 ; brim
G1 X110.784 Y120.728 E0.03508 ; brim
G1 X110.131 Y119.903 E0.03298 ; brim
G1 X109.331 Y118.200 E0.05900 ; brim
G1 X109.116 Y115.776 E0.07630 ; brim
G1 X108.872 Y115.167 E0.02058 ; brim
G1 X108.581 Y113.582 E0.05053 ; brim
G1 X108.581 Y109.418 E0.13053 ; brim
G1 X108.871 Y107.837 E0.05040 ; brim
G1 X109.072 Y107.325 E0.01724 ; brim
G1 X109.139 Y104.496 E0.08872 ; brim
G1 X109.582 Y102.971 E0.04981 ; brim
G1 X110.473 Y101.442 E0.05547 ; brim
G1 X111.408 Y100.472 E0.04225 ; brim
G1 X112.527 Y99.672 E0.04314 ; brim
G1 X114.388 Y98.971 E0.06234 ; brim
G1 X115.383 Y98.913 E0.03125 ; brim
G1 X115.402 Y97.816 E0.03438 ; brim
G1 X115.806 Y96.203 E0.05214 ; brim
G1 X116.827 Y94.424 E0.06433 ; brim
G1 X117.946 Y93.321 E0.04926 ; brim
G1 X119.273 Y92.497 E0.04897 ; brim
G1 X121.114 Y91.941 E0.06030 ; brim
G1 X122.183 Y91.897 E0.03357 ; brim
G1 X122.579 Y91.549 E0.01653 ; brim
G1 X123.624 Y90.951 E0.03776 ; brim
G1 X125.570 Y90.420 E0.06323 ; brim
G1 X134.927 Y90.425 E0.29340 ; brim
