; generated by Slic3r 1.37.2.1-prusa3d-win64 on 2018-04-24 at 12:45:40

; 

; external perimeters extrusion width = 0.45mm
; perimeters extrusion width = 0.45mm
; infill extrusion width = 0.45mm
; solid infill extrusion width = 0.45mm
; top infill extrusion width = 0.40mm
; first layer extrusion width = 0.42mm

M107 ; disable fan
M115 U3.1.1-RC5 ; tell printer latest fw version
M83  ; extruder relative mode
M104 S215 ; set extruder temp
M140 S60 ; set bed temp
M190 S60 ; wait for bed temp
M109 S215 ; wait for extruder temp
G28 W ; home all without mesh bed level
G80 ; mesh bed leveling
G1 Y-3.0 F1000.0 ; go outside print area
G92 E0.0
G1 X60.0 E9.0  F1000.0 ; intro line
G1 X100.0 E12.5  F1000.0 ; intro line
G92 E0.0
M221 S95
M900 K30
G21 ; set units to millimeters
G90 ; use absolute coordinates
M83 ; use relative distances for extrusion
;BEFORE_LAYER_CHANGE
;0.2


G1 E-0.80000 F2100.00000 ; retract
G1 Z0.600 F12000.000 ; lift Z
;AFTER_LAYER_CHANGE
;0.2
G1 X113.307 Y95.941 F12000.000 ; move to first skirt point
G1 Z0.200 F12000.000 ; restore layer Z
G1 E0.80000 F2100.00000 ; unretract
M204 S1000 ; adjust acceleration
G1 F1800
G1 X113.689 Y95.293 E0.02358 ; skirt
G1 X114.231 Y94.772 E0.02358 ; skirt
G1 X114.894 Y94.417 E0.02358 ; skirt
G1 X115.628 Y94.255 E0.02358 ; skirt
G1 X134.154 Y94.246 E0.58087 ; skirt
G1 X135.125 Y94.424 E0.03094 ; skirt
G1 X135.970 Y94.933 E0.03094 ; skirt
G1 X136.582 Y95.707 E0.03094 ; skirt
G1 X136.882 Y96.648 E0.03094 ; skirt
G1 X136.904 Y113.029 E0.51362 ; skirt
G1 X136.848 Y113.554 E0.01656 ; skirt
G1 X136.693 Y114.059 E0.01656 ; skirt
G1 X136.334 Y114.678 E0.02243 ; skirt
G1 X135.825 Y115.186 E0.02256 ; skirt
G1 X135.202 Y115.545 E0.02256 ; skirt
G1 X134.506 Y115.731 E0.02256 ; skirt
G1 X126.293 Y115.754 E0.25754 ; skirt
G1 X125.291 Y115.543 E0.03208 ; skirt
G1 X124.718 Y115.219 E0.02065 ; skirt
G1 X124.235 Y114.765 E0.02078 ; skirt
G1 X113.500 Y101.436 E0.53662 ; skirt
G1 X113.213 Y100.794 E0.02205 ; skirt
G1 X113.098 Y100.096 E0.02218 ; skirt
G1 X113.099 Y96.861 E0.10144 ; skirt
G1 X113.294 Y96.000 E0.02767 ; skirt
G1 X113.659 Y96.083 F12000.000 ; move to first skirt point
G1 F1800
G1 X113.994 Y95.515 E0.02066 ; skirt
G1 X114.468 Y95.066 E0.02048 ; skirt
G1 X115.043 Y94.764 E0.02036 ; skirt
G1 X115.681 Y94.629 E0.02048 ; skirt
G1 X134.154 Y94.623 E0.57919 ; skirt
G1 X134.999 Y94.780 E0.02696 ; skirt
G1 X135.734 Y95.227 E0.02696 ; skirt
G1 X136.261 Y95.907 E0.02696 ; skirt
G1 X136.512 Y96.733 E0.02708 ; skirt
G1 X136.527 Y113.023 E0.51076 ; skirt
G1 X136.337 Y113.930 E0.02907 ; skirt
G1 X136.018 Y114.470 E0.01965 ; skirt
G1 X135.572 Y114.905 E0.01953 ; skirt
G1 X135.025 Y115.210 E0.01965 ; skirt
G1 X134.421 Y115.362 E0.01953 ; skirt
G1 X126.304 Y115.377 E0.25449 ; skirt
G1 X125.420 Y115.187 E0.02837 ; skirt
G1 X124.932 Y114.908 E0.01763 ; skirt
G1 X124.523 Y114.521 E0.01763 ; skirt
G1 X113.825 Y101.245 E0.53459 ; skirt
G1 X113.573 Y100.683 E0.01929 ; skirt
G1 X113.474 Y100.076 E0.01929 ; skirt
G1 X113.475 Y96.890 E0.09991 ; skirt
G1 X113.646 Y96.141 E0.02406 ; skirt
G1 F9600
G1 X113.994 Y95.515 E-0.14886 ; wipe and retract
G1 F9600
G1 X114.468 Y95.066 E-0.13572 ; wipe and retract
G1 F9600
G1 X115.043 Y94.764 E-0.13493 ; wipe and retract
G1 F9600
G1 X115.681 Y94.629 E-0.13572 ; wipe and retract
G1 F9600
G1 X116.667 Y94.629 E-0.20477 ; wipe and retract
G1 E-0.04000 F2100.00000 ; retract
G1 Z0.800 F12000.000 ; lift Z
G1 X116.437 Y97.587 F12000.000 ; move to first perimeter point
G1 Z0.200 F12000.000 ; restore layer Z
G1 E0.80000 F2100.00000 ; unretract
G1 F1800
G1 X133.563 Y97.587 E0.53697 ; perimeter
G1 X133.563 Y112.413 E0.46485 ; perimeter
G1 X126.937 Y112.413 E0.20775 ; perimeter
G1 X126.937 Y99.413 E0.40761 ; perimeter
G1 X116.437 Y99.413 E0.32922 ; perimeter
G1 X116.437 Y97.647 E0.05537 ; perimeter
G1 F9600
G1 X120.094 Y97.634 E-0.76000 ; wipe and retract
G1 E-0.04000 F2100.00000 ; retract
G1 Z0.800 F12000.000 ; lift Z
G1 X126.560 Y99.790 F12000.000 ; move to first perimeter point
G1 Z0.200 F12000.000 ; restore layer Z
G1 E0.80000 F2100.00000 ; unretract
G1 F1800
G1 X116.060 Y99.790 E0.32922 ; perimeter
G1 X116.060 Y97.210 E0.08089 ; perimeter
G1 X133.940 Y97.210 E0.56061 ; perimeter
G1 X133.940 Y112.790 E0.48850 ; perimeter
G1 X126.560 Y112.790 E0.23139 ; perimeter
G1 X126.560 Y99.850 E0.40572 ; perimeter
G1 X126.491 Y99.396 F12000.000 ; move inwards before travel
G1 X126.711 Y99.300 F12000.000 ; move to first infill point
G1 F1800
G1 X125.281 Y97.870 E0.06425 ; infill
G1 X124.741 Y97.870 E0.01717 ; infill
G1 X126.001 Y99.130 E0.05663 ; infill
G1 X125.461 Y99.130 E0.01717 ; infill
G1 X124.201 Y97.870 E0.05663 ; infill
G1 X123.660 Y97.870 E0.01717 ; infill
G1 X124.920 Y99.130 E0.05663 ; infill
G1 X124.380 Y99.130 E0.01717 ; infill
G1 X123.120 Y97.870 E0.05663 ; infill
G1 X122.579 Y97.870 E0.01717 ; infill
G1 X123.840 Y99.130 E0.05663 ; infill
G1 X123.299 Y99.130 E0.01717 ; infill
G1 X122.039 Y97.870 E0.05663 ; infill
G1 X121.499 Y97.870 E0.01717 ; infill
G1 X122.759 Y99.130 E0.05663 ; infill
G1 X122.219 Y99.130 E0.01717 ; infill
G1 X120.958 Y97.870 E0.05663 ; infill
G1 X120.418 Y97.870 E0.01717 ; infill
G1 X121.678 Y99.130 E0.05663 ; infill
G1 X121.138 Y99.130 E0.01717 ; infill
G1 X119.878 Y97.870 E0.05663 ; infill
G1 X119.337 Y97.870 E0.01717 ; infill
G1 X120.597 Y99.130 E0.05663 ; infill
G1 X120.057 Y99.130 E0.01717 ; infill
G1 X118.797 Y97.870 E0.05663 ; infill
G1 X118.256 Y97.870 E0.01717 ; infill
G1 X119.517 Y99.130 E0.05663 ; infill
G1 X118.976 Y99.130 E0.01717 ; infill
G1 X117.716 Y97.870 E0.05663 ; infill
G1 X117.176 Y97.870 E0.01717 ; infill
G1 X118.436 Y99.130 E0.05663 ; infill
G1 X117.896 Y99.130 E0.01717 ; infill
G1 X116.720 Y97.954 E0.05283 ; infill
G1 X116.720 Y98.495 E0.01717 ; infill
G1 X117.355 Y99.130 E0.02855 ; infill
G1 X116.815 Y99.130 E0.01717 ; infill
G1 X116.550 Y98.866 E0.01189 ; infill
G1 F9600
G1 X116.815 Y99.130 E-0.07777 ; wipe and retract
G1 F9600
G1 X117.355 Y99.130 E-0.11230 ; wipe and retract
G1 F9600
G1 X116.720 Y98.495 E-0.18671 ; wipe and retract
G1 F9600
G1 X116.720 Y97.954 E-0.11230 ; wipe and retract
G1 F9600
G1 X117.642 Y98.876 E-0.27093 ; wipe and retract
G1 E-0.04000 F2100.00000 ; retract
G1 Z0.800 F12000.000 ; lift Z
G1 X127.050 Y111.527 F12000.000 ; move to first infill point
G1 Z0.200 F12000.000 ; restore layer Z
G1 E0.80000 F2100.00000 ; unretract
G1 F1800
G1 X127.653 Y112.130 E0.02710 ; infill
G1 X128.194 Y112.130 E0.01717 ; infill
G1 X127.220 Y111.156 E0.04376 ; infill
G1 X127.220 Y110.616 E0.01717 ; infill
G1 X128.734 Y112.130 E0.06804 ; infill
G1 X129.274 Y112.130 E0.01717 ; infill
G1 X127.220 Y110.076 E0.09232 ; infill
G1 X127.220 Y109.535 E0.01717 ; infill
G1 X129.815 Y112.130 E0.11660 ; infill
G1 X130.355 Y112.130 E0.01717 ; infill
G1 X127.220 Y108.995 E0.14088 ; infill
G1 X127.220 Y108.454 E0.01717 ; infill
G1 X130.896 Y112.130 E0.16516 ; infill
G1 X131.436 Y112.130 E0.01717 ; infill
G1 X127.220 Y107.914 E0.18944 ; infill
G1 X127.220 Y107.374 E0.01717 ; infill
G1 X131.976 Y112.130 E0.21372 ; infill
G1 X132.517 Y112.130 E0.01717 ; infill
G1 X127.220 Y106.833 E0.23800 ; infill
G1 X127.220 Y106.293 E0.01717 ; infill
G1 X133.057 Y112.130 E0.26228 ; infill
G1 X133.280 Y112.130 E0.00709 ; infill
G1 X133.280 Y111.813 E0.01008 ; infill
G1 X127.220 Y105.753 E0.27230 ; infill
G1 X127.220 Y105.212 E0.01717 ; infill
G1 X133.280 Y111.272 E0.27230 ; infill
G1 X133.280 Y110.732 E0.01717 ; infill
G1 X127.220 Y104.672 E0.27230 ; infill
G1 X127.220 Y104.131 E0.01717 ; infill
G1 X133.280 Y110.192 E0.27230 ; infill
G1 X133.280 Y109.651 E0.01717 ; infill
G1 X127.220 Y103.591 E0.27230 ; infill
G1 X127.220 Y103.051 E0.01717 ; infill
G1 X133.280 Y109.111 E0.27230 ; infill
G1 X133.280 Y108.571 E0.01717 ; infill
G1 X127.220 Y102.510 E0.27230 ; infill
G1 X127.220 Y101.970 E0.01717 ; infill
G1 X133.280 Y108.030 E0.27230 ; infill
G1 X133.280 Y107.490 E0.01717 ; infill
G1 X127.220 Y101.430 E0.27230 ; infill
G1 X127.220 Y100.889 E0.01717 ; infill
G1 X133.280 Y106.949 E0.27230 ; infill
G1 X133.280 Y106.409 E0.01717 ; infill
G1 X127.220 Y100.349 E0.27230 ; infill
G1 X127.220 Y99.808 E0.01717 ; infill
G1 X133.280 Y105.869 E0.27230 ; infill
G1 X133.280 Y105.328 E0.01717 ; infill
G1 X125.822 Y97.870 E0.33513 ; infill
G1 X126.362 Y97.870 E0.01717 ; infill
G1 X133.280 Y104.788 E0.31085 ; infill
G1 X133.280 Y104.248 E0.01717 ; infill
G1 X126.902 Y97.870 E0.28657 ; infill
G1 X127.443 Y97.870 E0.01717 ; infill
G1 X133.280 Y103.707 E0.26229 ; infill
G1 X133.280 Y103.167 E0.01717 ; infill
G1 X127.983 Y97.870 E0.23801 ; infill
G1 X128.524 Y97.870 E0.01717 ; infill
G1 X133.280 Y102.626 E0.21372 ; infill
G1 X133.280 Y102.086 E0.01717 ; infill
G1 X129.064 Y97.870 E0.18944 ; infill
G1 X129.604 Y97.870 E0.01717 ; infill
G1 X133.280 Y101.546 E0.16516 ; infill
G1 X133.280 Y101.005 E0.01717 ; infill
G1 X130.145 Y97.870 E0.14088 ; infill
G1 X130.685 Y97.870 E0.01717 ; infill
G1 X133.280 Y100.465 E0.11660 ; infill
G1 X133.280 Y99.925 E0.01717 ; infill
G1 X131.225 Y97.870 E0.09232 ; infill
G1 X131.766 Y97.870 E0.01717 ; infill
G1 X133.280 Y99.384 E0.06804 ; infill
G1 X133.280 Y98.844 E0.01717 ; infill
G1 X132.306 Y97.870 E0.04376 ; infill
G1 X132.847 Y97.870 E0.01717 ; infill
G1 X133.450 Y98.473 E0.02711 ; infill
M106 S255 ; enable fan
;BEFORE_LAYER_CHANGE
;0.35


G1 F9600
G1 X132.847 Y97.870 E-0.17729 ; wipe and retract
G1 F9600
G1 X132.306 Y97.870 E-0.11230 ; wipe and retract
G1 F9600
G1 X133.280 Y98.844 E-0.28623 ; wipe and retract
G1 F9600
G1 X133.280 Y99.384 E-0.11230 ; wipe and retract
G1 F9600
G1 X133.036 Y99.140 E-0.07189 ; wipe and retract
G1 E-0.04000 F2100.00000 ; retract
G1 Z0.800 F12000.000 ; lift Z
;AFTER_LAYER_CHANGE
;0.35
M104 S210 ; set temperature
G1 X136.582 Y95.707 F12000.000 ; move to first skirt point
G1 Z0.350 F12000.000 ; restore layer Z
G1 E0.80000 F2100.00000 ; unretract
G1 F900
G1 X136.882 Y96.648 E0.02387 ; skirt
G1 X136.904 Y113.029 E0.39617 ; skirt
G1 X136.848 Y113.554 E0.01277 ; skirt
G1 X136.693 Y114.059 E0.01277 ; skirt
G1 X136.334 Y114.678 E0.01730 ; skirt
G1 X135.825 Y115.186 E0.01740 ; skirt
G1 X135.202 Y115.545 E0.01740 ; skirt
G1 X134.506 Y115.731 E0.01740 ; skirt
G1 X126.293 Y115.754 E0.19865 ; skirt
G1 X125.291 Y115.543 E0.02474 ; skirt
G1 X124.718 Y115.219 E0.01593 ; skirt
G1 X124.235 Y114.765 E0.01602 ; skirt
G1 X113.500 Y101.436 E0.41392 ; skirt
G1 X113.213 Y100.794 E0.01701 ; skirt
G1 X113.098 Y100.096 E0.01711 ; skirt
G1 X113.099 Y96.861 E0.07824 ; skirt
G1 X113.307 Y95.941 E0.02279 ; skirt
G1 X113.689 Y95.293 E0.01819 ; skirt
G1 X114.231 Y94.772 E0.01819 ; skirt
G1 X114.894 Y94.417 E0.01819 ; skirt
G1 X115.628 Y94.255 E0.01819 ; skirt
G1 X134.154 Y94.246 E0.44805 ; skirt
G1 X135.125 Y94.424 E0.02387 ; skirt
G1 X135.970 Y94.933 E0.02387 ; skirt
G1 X136.545 Y95.660 E0.02242 ; skirt
G1 F9600
G1 X136.882 Y96.648 E-0.21679 ; wipe and retract
G1 F9600
G1 X136.885 Y99.262 E-0.54321 ; wipe and retract
G1 E-0.04000 F2100.00000 ; retract
G1 Z0.950 F12000.000 ; lift Z
G1 X133.507 Y97.643 F12000.000 ; move to first perimeter point
G1 Z0.350 F12000.000 ; restore layer Z
G1 E0.80000 F2100.00000 ; unretract
M204 S800 ; adjust acceleration
G1 F900
G1 X133.507 Y112.357 E0.38339 ; perimeter
G1 X126.993 Y112.357 E0.16974 ; perimeter
G1 X126.993 Y99.357 E0.33872 ; perimeter
G1 X116.493 Y99.357 E0.27359 ; perimeter
G1 X116.493 Y97.643 E0.04467 ; perimeter
G1 X133.447 Y97.643 E0.44176 ; perimeter
M204 S1000 ; adjust acceleration
G1 F9600
G1 X133.462 Y101.300 E-0.76000 ; wipe and retract
G1 E-0.04000 F2100.00000 ; retract
G1 Z0.950 F12000.000 ; lift Z
G1 X126.575 Y99.775 F12000.000 ; move to first perimeter point
G1 Z0.350 F12000.000 ; restore layer Z
G1 E0.80000 F2100.00000 ; unretract
M204 S800 ; adjust acceleration
G1 F2100
G1 X116.075 Y99.775 E0.27359 ; perimeter
G1 X116.075 Y97.225 E0.06644 ; perimeter
G1 X133.925 Y97.225 E0.46510 ; perimeter
G1 X133.925 Y112.775 E0.40517 ; perimeter
G1 X126.575 Y112.775 E0.19151 ; perimeter
G1 X126.575 Y99.835 E0.33716 ; perimeter
M204 S1000 ; adjust acceleration
G1 X126.507 Y99.381 F12000.000 ; move inwards before travel
G1 F9600
G1 X122.918 Y99.814 E-0.76000 ; wipe and retract
G1 E-0.04000 F2100.00000 ; retract
G1 Z0.950 F12000.000 ; lift Z
G1 X116.618 Y98.630 F12000.000 ; move to first infill point
G1 Z0.350 F12000.000 ; restore layer Z
G1 E0.80000 F2100.00000 ; unretract
M204 S1500 ; adjust acceleration
G1 F2022
G1 X117.292 Y97.956 E0.02529 ; infill
G1 X117.894 Y97.956 E0.01599 ; infill
G1 X116.806 Y99.044 E0.04084 ; infill
G1 X117.408 Y99.044 E0.01598 ; infill
G1 X118.496 Y97.956 E0.04084 ; infill
G1 X119.098 Y97.956 E0.01599 ; infill
G1 X118.010 Y99.044 E0.04084 ; infill
G1 X118.612 Y99.044 E0.01599 ; infill
G1 X119.700 Y97.956 E0.04084 ; infill
G1 X120.302 Y97.956 E0.01599 ; infill
G1 X119.214 Y99.044 E0.04084 ; infill
G1 X119.817 Y99.044 E0.01599 ; infill
G1 X120.904 Y97.956 E0.04084 ; infill
G1 X121.506 Y97.956 E0.01599 ; infill
G1 X120.419 Y99.044 E0.04084 ; infill
G1 X121.021 Y99.044 E0.01599 ; infill
G1 X122.109 Y97.956 E0.04084 ; infill
G1 X122.711 Y97.956 E0.01599 ; infill
G1 X121.623 Y99.044 E0.04084 ; infill
G1 X122.225 Y99.044 E0.01599 ; infill
G1 X123.313 Y97.956 E0.04084 ; infill
G1 X123.915 Y97.956 E0.01599 ; infill
G1 X122.827 Y99.044 E0.04084 ; infill
G1 X123.429 Y99.044 E0.01599 ; infill
G1 X124.517 Y97.956 E0.04084 ; infill
G1 X125.119 Y97.956 E0.01599 ; infill
G1 X124.032 Y99.044 E0.04084 ; infill
G1 X124.634 Y99.044 E0.01599 ; infill
G1 X125.721 Y97.956 E0.04084 ; infill
G1 X126.324 Y97.956 E0.01599 ; infill
G1 X125.236 Y99.044 E0.04084 ; infill
G1 X125.838 Y99.044 E0.01599 ; infill
G1 X126.926 Y97.956 E0.04084 ; infill
G1 X127.528 Y97.956 E0.01599 ; infill
G1 X126.440 Y99.044 E0.04084 ; infill
G1 X127.042 Y99.044 E0.01599 ; infill
G1 X128.130 Y97.956 E0.04084 ; infill
G1 X128.732 Y97.956 E0.01599 ; infill
G1 X127.306 Y99.382 E0.05354 ; infill
G1 X127.306 Y99.984 E0.01599 ; infill
G1 X129.334 Y97.956 E0.07615 ; infill
G1 X129.936 Y97.956 E0.01599 ; infill
G1 X127.306 Y100.586 E0.09876 ; infill
G1 X127.306 Y101.188 E0.01599 ; infill
G1 X130.538 Y97.956 E0.12138 ; infill
G1 X131.141 Y97.956 E0.01599 ; infill
G1 X127.306 Y101.791 E0.14399 ; infill
G1 X127.306 Y102.393 E0.01599 ; infill
G1 X131.743 Y97.956 E0.16660 ; infill
G1 X132.345 Y97.956 E0.01599 ; infill
G1 X127.306 Y102.995 E0.18921 ; infill
G1 X127.306 Y103.597 E0.01599 ; infill
G1 X132.947 Y97.956 E0.21182 ; infill
G1 X133.194 Y97.956 E0.00655 ; infill
G1 X133.194 Y98.311 E0.00943 ; infill
G1 X127.306 Y104.199 E0.22109 ; infill
G1 X127.306 Y104.801 E0.01599 ; infill
G1 X133.194 Y98.914 E0.22109 ; infill
G1 X133.194 Y99.516 E0.01599 ; infill
G1 X127.306 Y105.403 E0.22109 ; infill
G1 X127.306 Y106.006 E0.01599 ; infill
G1 X133.194 Y100.118 E0.22109 ; infill
G1 X133.194 Y100.720 E0.01599 ; infill
G1 X127.306 Y106.608 E0.22109 ; infill
G1 X127.306 Y107.210 E0.01599 ; infill
G1 X133.194 Y101.322 E0.22109 ; infill
G1 X133.194 Y101.924 E0.01599 ; infill
G1 X127.306 Y107.812 E0.22109 ; infill
G1 X127.306 Y108.414 E0.01599 ; infill
G1 X133.194 Y102.526 E0.22109 ; infill
G1 X133.194 Y103.129 E0.01599 ; infill
G1 X127.306 Y109.016 E0.22109 ; infill
G1 X127.306 Y109.618 E0.01599 ; infill
G1 X133.194 Y103.731 E0.22109 ; infill
G1 X133.194 Y104.333 E0.01599 ; infill
G1 X127.306 Y110.220 E0.22109 ; infill
G1 X127.306 Y110.823 E0.01599 ; infill
G1 X133.194 Y104.935 E0.22109 ; infill
G1 X133.194 Y105.537 E0.01599 ; infill
G1 X127.306 Y111.425 E0.22109 ; infill
G1 X127.306 Y112.027 E0.01599 ; infill
G1 X133.194 Y106.139 E0.22109 ; infill
G1 X133.194 Y106.741 E0.01599 ; infill
G1 X127.891 Y112.044 E0.19911 ; infill
G1 X128.493 Y112.044 E0.01599 ; infill
G1 X133.194 Y107.343 E0.17650 ; infill
G1 X133.194 Y107.946 E0.01599 ; infill
G1 X129.096 Y112.044 E0.15389 ; infill
G1 X129.698 Y112.044 E0.01599 ; infill
G1 X133.194 Y108.548 E0.13128 ; infill
G1 X133.194 Y109.150 E0.01599 ; infill
G1 X130.300 Y112.044 E0.10867 ; infill
G1 X130.902 Y112.044 E0.01599 ; infill
G1 X133.194 Y109.752 E0.08606 ; infill
