; generated by Slic3r 1.37.2.1-prusa3d-win64 on 2018-04-27 at 13:11:15

; 

; external perimeters extrusion width = 0.45mm
; perimeters extrusion width = 0.45mm
; infill extrusion width = 0.45mm
; solid infill extrusion width = 0.45mm
; top infill extrusion width = 0.40mm
; first layer extrusion width = 0.42mm

M107 ; disable fan
M115 U3.1.1-RC5 ; tell printer latest fw version
M83  ; extruder relative mode
M104 S215 ; set extruder temp
M140 S60 ; set bed temp
M190 S60 ; wait for bed temp
M109 S215 ; wait for extruder temp
G28 W ; home all without mesh bed level
G80 ; mesh bed leveling
G1 Y-3.0 F1000.0 ; go outside print area
G92 E0.0
G1 X60.0 E9.0  F1000.0 ; intro line
G1 X100.0 E12.5  F1000.0 ; intro line
G92 E0.0
M221 S95
M900 K30
G21 ; set units to millimeters
G90 ; use absolute coordinates
M83 ; use relative distances for extrusion
;BEFORE_LAYER_CHANGE
;0.2


G1 E-0.80000 F2100.00000 ; retract
G1 Z0.600 F12000.000 ; lift Z
;AFTER_LAYER_CHANGE
;0.2
G1 X97.618 Y93.393 F12000.000 ; move to first skirt point
G1 Z0.200 F12000.000 ; restore layer Z
G1 E0.80000 F2100.00000 ; unretract
M204 S1000 ; adjust acceleration
G1 F1800
G1 X98.491 Y93.223 E0.02790 ; skirt
G1 X151.504 Y93.223 E1.66217 ; skirt
G1 X152.371 Y93.388 E0.02767 ; skirt
G1 X153.120 Y93.861 E0.02778 ; skirt
G1 X153.645 Y94.575 E0.02778 ; skirt
G1 X153.871 Y95.431 E0.02778 ; skirt
G1 X153.852 Y103.745 E0.26068 ; skirt
G1 X153.683 Y104.341 E0.01941 ; skirt
G1 X153.366 Y104.873 E0.01941 ; skirt
G1 X152.922 Y105.305 E0.01941 ; skirt
G1 X152.382 Y105.607 E0.01941 ; skirt
G1 X101.906 Y116.742 E1.62069 ; skirt
G1 X98.477 Y116.777 E0.10752 ; skirt
G1 X97.901 Y116.700 E0.01823 ; skirt
G1 X97.384 Y116.499 E0.01740 ; skirt
G1 X96.928 Y116.183 E0.01740 ; skirt
G1 X96.557 Y115.770 E0.01740 ; skirt
G1 X96.293 Y115.282 E0.01740 ; skirt
G1 X96.123 Y114.420 E0.02755 ; skirt
G1 X96.127 Y95.455 E0.59463 ; skirt
G1 X96.261 Y94.801 E0.02095 ; skirt
G1 X96.572 Y94.209 E0.02095 ; skirt
G1 X97.035 Y93.728 E0.02095 ; skirt
G1 X97.566 Y93.423 E0.01919 ; skirt
G1 F9600
G1 X98.491 Y93.223 E-0.19676 ; wipe and retract
G1 F9600
G1 X101.202 Y93.223 E-0.56324 ; wipe and retract
G1 E-0.04000 F2100.00000 ; retract
G1 Z0.800 F12000.000 ; lift Z
G1 X99.087 Y96.187 F12000.000 ; move to first perimeter point
G1 Z0.200 F12000.000 ; restore layer Z
G1 E0.80000 F2100.00000 ; unretract
G1 F1800
G1 X150.913 Y96.187 E1.62496 ; perimeter
G1 X150.913 Y102.813 E0.20775 ; perimeter
G1 X100.913 Y102.813 E1.56771 ; perimeter
G1 X100.913 Y113.813 E0.34490 ; perimeter
G1 X99.087 Y113.813 E0.05725 ; perimeter
G1 X99.087 Y96.247 E0.55076 ; perimeter
G1 F9600
G1 X102.744 Y96.243 E-0.76000 ; wipe and retract
G1 E-0.04000 F2100.00000 ; retract
G1 Z0.800 F12000.000 ; lift Z
G1 X101.290 Y103.190 F12000.000 ; move to first perimeter point
G1 Z0.200 F12000.000 ; restore layer Z
G1 E0.80000 F2100.00000 ; unretract
G1 F1800
G1 X101.290 Y114.190 E0.34490 ; perimeter
G1 X98.710 Y114.190 E0.08089 ; perimeter
G1 X98.710 Y95.810 E0.57629 ; perimeter
G1 X151.290 Y95.810 E1.64861 ; perimeter
G1 X151.290 Y103.190 E0.23139 ; perimeter
G1 X101.350 Y103.190 E1.56583 ; perimeter
G1 X100.890 Y103.210 F12000.000 ; move inwards before travel
G1 F9600
G1 X101.330 Y106.847 E-0.76000 ; wipe and retract
G1 E-0.04000 F2100.00000 ; retract
G1 Z0.800 F12000.000 ; lift Z
G1 X99.200 Y112.934 F12000.000 ; move to first infill point
G1 Z0.200 F12000.000 ; restore layer Z
G1 E0.80000 F2100.00000 ; unretract
G1 F1800
G1 X99.796 Y113.530 E0.02653 ; infill
G1 X100.331 Y113.530 E0.01686 ; infill
G1 X99.370 Y112.569 E0.04281 ; infill
G1 X99.370 Y112.033 E0.01686 ; infill
G1 X100.630 Y113.293 E0.05611 ; infill
G1 X100.630 Y112.758 E0.01686 ; infill
G1 X99.370 Y111.498 E0.05611 ; infill
G1 X99.370 Y110.962 E0.01686 ; infill
G1 X100.630 Y112.222 E0.05611 ; infill
G1 X100.630 Y111.687 E0.01686 ; infill
G1 X99.370 Y110.427 E0.05611 ; infill
G1 X99.370 Y109.891 E0.01686 ; infill
G1 X100.630 Y111.152 E0.05611 ; infill
G1 X100.630 Y110.616 E0.01686 ; infill
G1 X99.370 Y109.356 E0.05611 ; infill
G1 X99.370 Y108.820 E0.01686 ; infill
G1 X100.630 Y110.081 E0.05611 ; infill
G1 X100.630 Y109.545 E0.01686 ; infill
G1 X99.370 Y108.285 E0.05611 ; infill
G1 X99.370 Y107.749 E0.01686 ; infill
G1 X100.630 Y109.010 E0.05611 ; infill
G1 X100.630 Y108.474 E0.01686 ; infill
G1 X99.370 Y107.214 E0.05611 ; infill
G1 X99.370 Y106.678 E0.01686 ; infill
G1 X100.630 Y107.939 E0.05611 ; infill
G1 X100.630 Y107.403 E0.01686 ; infill
G1 X99.370 Y106.143 E0.05611 ; infill
G1 X99.370 Y105.608 E0.01686 ; infill
G1 X100.630 Y106.868 E0.05611 ; infill
G1 X100.630 Y106.332 E0.01686 ; infill
G1 X99.370 Y105.072 E0.05611 ; infill
G1 X99.370 Y104.537 E0.01686 ; infill
G1 X100.630 Y105.797 E0.05611 ; infill
G1 X100.630 Y105.261 E0.01686 ; infill
G1 X99.370 Y104.001 E0.05611 ; infill
G1 X99.370 Y103.466 E0.01686 ; infill
G1 X100.630 Y104.726 E0.05611 ; infill
G1 X100.630 Y104.191 E0.01686 ; infill
G1 X99.370 Y102.930 E0.05611 ; infill
G1 X99.370 Y102.395 E0.01686 ; infill
G1 X100.630 Y103.655 E0.05611 ; infill
G1 X100.630 Y103.120 E0.01686 ; infill
G1 X99.370 Y101.859 E0.05611 ; infill
G1 X99.370 Y101.324 E0.01686 ; infill
G1 X100.630 Y102.584 E0.05611 ; infill
G1 X100.630 Y102.530 E0.00170 ; infill
G1 X101.112 Y102.530 E0.01516 ; infill
G1 X99.370 Y100.788 E0.07755 ; infill
G1 X99.370 Y100.253 E0.01686 ; infill
G1 X101.647 Y102.530 E0.10139 ; infill
G1 X102.183 Y102.530 E0.01686 ; infill
G1 X99.370 Y99.717 E0.12523 ; infill
G1 X99.370 Y99.182 E0.01686 ; infill
G1 X102.718 Y102.530 E0.14907 ; infill
G1 X103.253 Y102.530 E0.01686 ; infill
G1 X99.370 Y98.647 E0.17291 ; infill
G1 X99.370 Y98.111 E0.01686 ; infill
G1 X103.789 Y102.530 E0.19675 ; infill
G1 X104.324 Y102.530 E0.01686 ; infill
G1 X99.370 Y97.576 E0.22059 ; infill
G1 X99.370 Y97.040 E0.01686 ; infill
G1 X104.860 Y102.530 E0.24443 ; infill
G1 X105.395 Y102.530 E0.01686 ; infill
G1 X99.370 Y96.505 E0.26828 ; infill
G1 X99.370 Y96.470 E0.00110 ; infill
G1 X99.870 Y96.470 E0.01576 ; infill
G1 X105.931 Y102.530 E0.26983 ; infill
G1 X106.466 Y102.530 E0.01686 ; infill
G1 X100.406 Y96.470 E0.26983 ; infill
G1 X100.941 Y96.470 E0.01686 ; infill
G1 X107.002 Y102.530 E0.26983 ; infill
G1 X107.537 Y102.530 E0.01686 ; infill
G1 X101.477 Y96.470 E0.26983 ; infill
G1 X102.012 Y96.470 E0.01686 ; infill
G1 X108.073 Y102.530 E0.26983 ; infill
G1 X108.608 Y102.530 E0.01686 ; infill
G1 X102.548 Y96.470 E0.26983 ; infill
G1 X103.083 Y96.470 E0.01686 ; infill
G1 X109.144 Y102.530 E0.26983 ; infill
G1 X109.679 Y102.530 E0.01686 ; infill
G1 X103.619 Y96.470 E0.26983 ; infill
G1 X104.154 Y96.470 E0.01686 ; infill
G1 X110.214 Y102.530 E0.26983 ; infill
G1 X110.750 Y102.530 E0.01686 ; infill
G1 X104.690 Y96.470 E0.26983 ; infill
G1 X105.225 Y96.470 E0.01686 ; infill
G1 X111.285 Y102.530 E0.26983 ; infill
G1 X111.821 Y102.530 E0.01686 ; infill
G1 X105.761 Y96.470 E0.26983 ; infill
G1 X106.296 Y96.470 E0.01686 ; infill
G1 X112.356 Y102.530 E0.26983 ; infill
G1 X112.892 Y102.530 E0.01686 ; infill
G1 X106.832 Y96.470 E0.26983 ; infill
G1 X107.367 Y96.470 E0.01686 ; infill
G1 X113.427 Y102.530 E0.26983 ; infill
G1 X113.963 Y102.530 E0.01686 ; infill
G1 X107.902 Y96.470 E0.26983 ; infill
G1 X108.438 Y96.470 E0.01686 ; infill
G1 X114.498 Y102.530 E0.26983 ; infill
G1 X115.034 Y102.530 E0.01686 ; infill
G1 X108.973 Y96.470 E0.26983 ; infill
G1 X109.509 Y96.470 E0.01686 ; infill
G1 X115.569 Y102.530 E0.26983 ; infill
G1 X116.105 Y102.530 E0.01686 ; infill
G1 X110.044 Y96.470 E0.26983 ; infill
G1 X110.580 Y96.470 E0.01686 ; infill
G1 X116.640 Y102.530 E0.26983 ; infill
G1 X117.175 Y102.530 E0.01686 ; infill
G1 X111.115 Y96.470 E0.26983 ; infill
G1 X111.651 Y96.470 E0.01686 ; infill
G1 X117.711 Y102.530 E0.26983 ; infill
G1 X118.246 Y102.530 E0.01686 ; infill
G1 X112.186 Y96.470 E0.26983 ; infill
G1 X112.722 Y96.470 E0.01686 ; infill
G1 X118.782 Y102.530 E0.26983 ; infill
G1 X119.317 Y102.530 E0.01686 ; infill
G1 X113.257 Y96.470 E0.26983 ; infill
G1 X113.793 Y96.470 E0.01686 ; infill
G1 X119.853 Y102.530 E0.26983 ; infill
G1 X120.388 Y102.530 E0.01686 ; infill
G1 X114.328 Y96.470 E0.26983 ; infill
G1 X114.863 Y96.470 E0.01686 ; infill
G1 X120.924 Y102.530 E0.26983 ; infill
G1 X121.459 Y102.530 E0.01686 ; infill
G1 X115.399 Y96.470 E0.26983 ; infill
G1 X115.934 Y96.470 E0.01686 ; infill
G1 X121.995 Y102.530 E0.26983 ; infill
G1 X122.530 Y102.530 E0.01686 ; infill
G1 X116.470 Y96.470 E0.26983 ; infill
G1 X117.005 Y96.470 E0.01686 ; infill
G1 X123.066 Y102.530 E0.26983 ; infill
G1 X123.601 Y102.530 E0.01686 ; infill
G1 X117.541 Y96.470 E0.26983 ; infill
G1 X118.076 Y96.470 E0.01686 ; infill
G1 X124.136 Y102.530 E0.26983 ; infill
G1 X124.672 Y102.530 E0.01686 ; infill
G1 X118.612 Y96.470 E0.26983 ; infill
G1 X119.147 Y96.470 E0.01686 ; infill
G1 X125.207 Y102.530 E0.26983 ; infill
G1 X125.743 Y102.530 E0.01686 ; infill
G1 X119.683 Y96.470 E0.26983 ; infill
G1 X120.218 Y96.470 E0.01686 ; infill
G1 X126.278 Y102.530 E0.26983 ; infill
G1 X126.814 Y102.530 E0.01686 ; infill
G1 X120.754 Y96.470 E0.26983 ; infill
G1 X121.289 Y96.470 E0.01686 ; infill
G1 X127.349 Y102.530 E0.26983 ; infill
G1 X127.885 Y102.530 E0.01686 ; infill
G1 X121.824 Y96.470 E0.26983 ; infill
G1 X122.360 Y96.470 E0.01686 ; infill
G1 X128.420 Y102.530 E0.26983 ; infill
G1 X128.956 Y102.530 E0.01686 ; infill
G1 X122.895 Y96.470 E0.26983 ; infill
G1 X123.431 Y96.470 E0.01686 ; infill
G1 X129.491 Y102.530 E0.26983 ; infill
G1 X130.027 Y102.530 E0.01686 ; infill
G1 X123.966 Y96.470 E0.26983 ; infill
G1 X124.502 Y96.470 E0.01686 ; infill
G1 X130.562 Y102.530 E0.26983 ; infill
G1 X131.097 Y102.530 E0.01686 ; infill
G1 X125.037 Y96.470 E0.26983 ; infill
G1 X125.573 Y96.470 E0.01686 ; infill
G1 X131.633 Y102.530 E0.26983 ; infill
G1 X132.168 Y102.530 E0.01686 ; infill
G1 X126.108 Y96.470 E0.26983 ; infill
G1 X126.644 Y96.470 E0.01686 ; infill
G1 X132.704 Y102.530 E0.26983 ; infill
G1 X133.239 Y102.530 E0.01686 ; infill
G1 X127.179 Y96.470 E0.26983 ; infill
G1 X127.715 Y96.470 E0.01686 ; infill
G1 X133.775 Y102.530 E0.26983 ; infill
G1 X134.310 Y102.530 E0.01686 ; infill
G1 X128.250 Y96.470 E0.26983 ; infill
G1 X128.785 Y96.470 E0.01686 ; infill
G1 X134.846 Y102.530 E0.26983 ; infill
G1 X135.381 Y102.530 E0.01686 ; infill
G1 X129.321 Y96.470 E0.26983 ; infill
G1 X129.856 Y96.470 E0.01686 ; infill
G1 X135.917 Y102.530 E0.26983 ; infill
G1 X136.452 Y102.530 E0.01686 ; infill
G1 X130.392 Y96.470 E0.26983 ; infill
G1 X130.927 Y96.470 E0.01686 ; infill
G1 X136.988 Y102.530 E0.26983 ; infill
G1 X137.523 Y102.530 E0.01686 ; infill
G1 X131.463 Y96.470 E0.26983 ; infill
G1 X131.998 Y96.470 E0.01686 ; infill
G1 X138.058 Y102.530 E0.26983 ; infill
G1 X138.594 Y102.530 E0.01686 ; infill
G1 X132.534 Y96.470 E0.26983 ; infill
G1 X133.069 Y96.470 E0.01686 ; infill
G1 X139.129 Y102.530 E0.26983 ; infill
G1 X139.665 Y102.530 E0.01686 ; infill
G1 X133.605 Y96.470 E0.26983 ; infill
G1 X134.140 Y96.470 E0.01686 ; infill
G1 X140.200 Y102.530 E0.26983 ; infill
G1 X140.736 Y102.530 E0.01686 ; infill
G1 X134.676 Y96.470 E0.26983 ; infill
G1 X135.211 Y96.470 E0.01686 ; infill
G1 X141.271 Y102.530 E0.26983 ; infill
G1 X141.807 Y102.530 E0.01686 ; infill
G1 X135.746 Y96.470 E0.26983 ; infill
G1 X136.282 Y96.470 E0.01686 ; infill
G1 X142.342 Y102.530 E0.26983 ; infill
G1 X142.878 Y102.530 E0.01686 ; infill
G1 X136.817 Y96.470 E0.26983 ; infill
G1 X137.353 Y96.470 E0.01686 ; infill
G1 X143.413 Y102.530 E0.26983 ; infill
G1 X143.949 Y102.530 E0.01686 ; infill
G1 X137.888 Y96.470 E0.26983 ; infill
G1 X138.424 Y96.470 E0.01686 ; infill
G1 X144.484 Y102.530 E0.26983 ; infill
G1 X145.020 Y102.530 E0.01686 ; infill
G1 X138.959 Y96.470 E0.26983 ; infill
G1 X139.495 Y96.470 E0.01686 ; infill
G1 X145.555 Y102.530 E0.26983 ; infill
G1 X146.090 Y102.530 E0.01686 ; infill
G1 X140.030 Y96.470 E0.26983 ; infill
G1 X140.566 Y96.470 E0.01686 ; infill
G1 X146.626 Y102.530 E0.26983 ; infill
G1 X147.161 Y102.530 E0.01686 ; infill
G1 X141.101 Y96.470 E0.26983 ; infill
G1 X141.637 Y96.470 E0.01686 ; infill
G1 X147.697 Y102.530 E0.26983 ; infill
G1 X148.232 Y102.530 E0.01686 ; infill
G1 X142.172 Y96.470 E0.26983 ; infill
G1 X142.707 Y96.470 E0.01686 ; infill
G1 X148.768 Y102.530 E0.26983 ; infill
G1 X149.303 Y102.530 E0.01686 ; infill
G1 X143.243 Y96.470 E0.26983 ; infill
G1 X143.778 Y96.470 E0.01686 ; infill
G1 X149.839 Y102.530 E0.26983 ; infill
G1 X150.374 Y102.530 E0.01686 ; infill
G1 X144.314 Y96.470 E0.26983 ; infill
G1 X144.849 Y96.470 E0.01686 ; infill
G1 X150.630 Y102.251 E0.25738 ; infill
G1 X150.630 Y101.715 E0.01686 ; infill
G1 X145.385 Y96.470 E0.23354 ; infill
G1 X145.920 Y96.470 E0.01686 ; infill
G1 X150.630 Y101.180 E0.20970 ; infill
G1 X150.630 Y100.644 E0.01686 ; infill
G1 X146.456 Y96.470 E0.18586 ; infill
G1 X146.991 Y96.470 E0.01686 ; infill
G1 X150.630 Y100.109 E0.16202 ; infill
G1 X150.630 Y99.573 E0.01686 ; infill
G1 X147.527 Y96.470 E0.13818 ; infill
G1 X148.062 Y96.470 E0.01686 ; infill
G1 X150.630 Y99.038 E0.11434 ; infill
G1 X150.630 Y98.502 E0.01686 ; infill
G1 X148.598 Y96.470 E0.09050 ; infill
G1 X149.133 Y96.470 E0.01686 ; infill
G1 X150.630 Y97.967 E0.06666 ; infill
G1 X150.630 Y97.432 E0.01686 ; infill
G1 X149.668 Y96.470 E0.04282 ; infill
G1 X150.204 Y96.470 E0.01686 ; infill
G1 X150.800 Y97.066 E0.02653 ; infill
M106 S255 ; enable fan
;BEFORE_LAYER_CHANGE
;0.35


G1 F9600
G1 X150.204 Y96.470 E-0.17512 ; wipe and retract
G1 F9600
G1 X149.668 Y96.470 E-0.11128 ; wipe and retract
G1 F9600
G1 X150.630 Y97.432 E-0.28262 ; wipe and retract
G1 F9600
G1 X150.630 Y97.967 E-0.11128 ; wipe and retract
G1 F9600
G1 X150.359 Y97.696 E-0.07971 ; wipe and retract
G1 E-0.04000 F2100.00000 ; retract
G1 Z0.800 F12000.000 ; lift Z
;AFTER_LAYER_CHANGE
;0.35
M104 S210 ; set temperature
G1 X153.645 Y94.575 F12000.000 ; move to first skirt point
G1 Z0.350 F12000.000 ; restore layer Z
G1 E0.80000 F2100.00000 ; unretract
G1 F1993
G1 X153.871 Y95.431 E0.02143 ; skirt
G1 X153.852 Y103.745 E0.20107 ; skirt
G1 X153.683 Y104.341 E0.01497 ; skirt
G1 X153.366 Y104.873 E0.01497 ; skirt
G1 X152.922 Y105.305 E0.01497 ; skirt
G1 X152.382 Y105.607 E0.01497 ; skirt
G1 X101.906 Y116.742 E1.25011 ; skirt
G1 X98.477 Y116.777 E0.08293 ; skirt
G1 X97.901 Y116.700 E0.01406 ; skirt
G1 X97.384 Y116.499 E0.01342 ; skirt
G1 X96.928 Y116.183 E0.01342 ; skirt
G1 X96.557 Y115.770 E0.01342 ; skirt
G1 X96.293 Y115.282 E0.01342 ; skirt
G1 X96.123 Y114.420 E0.02125 ; skirt
G1 X96.127 Y95.455 E0.45866 ; skirt
G1 X96.261 Y94.801 E0.01616 ; skirt
G1 X96.572 Y94.209 E0.01616 ; skirt
G1 X97.035 Y93.728 E0.01616 ; skirt
G1 X97.618 Y93.393 E0.01625 ; skirt
G1 X98.491 Y93.223 E0.02152 ; skirt
G1 X151.504 Y93.223 E1.28210 ; skirt
G1 X152.371 Y93.388 E0.02134 ; skirt
G1 X153.120 Y93.861 E0.02143 ; skirt
G1 X153.609 Y94.526 E0.01998 ; skirt
G1 F9600
G1 X153.871 Y95.431 E-0.19580 ; wipe and retract
G1 F9600
G1 X153.865 Y98.146 E-0.56420 ; wipe and retract
G1 E-0.04000 F2100.00000 ; retract
G1 Z0.950 F12000.000 ; lift Z
G1 X150.857 Y96.243 F12000.000 ; move to first perimeter point
G1 Z0.350 F12000.000 ; restore layer Z
G1 E0.80000 F2100.00000 ; unretract
M204 S800 ; adjust acceleration
G1 F1794
G1 X150.857 Y102.757 E0.16974 ; perimeter
G1 X100.857 Y102.757 E1.30279 ; perimeter
G1 X100.857 Y113.757 E0.28661 ; perimeter
G1 X99.143 Y113.757 E0.04467 ; perimeter
G1 X99.143 Y96.243 E0.45635 ; perimeter
G1 X150.797 Y96.243 E1.34589 ; perimeter
M204 S1000 ; adjust acceleration
G1 F9600
G1 X150.831 Y99.900 E-0.76000 ; wipe and retract
G1 E-0.04000 F2100.00000 ; retract
G1 Z0.950 F12000.000 ; lift Z
G1 X101.275 Y103.175 F12000.000 ; move to first perimeter point
G1 Z0.350 F12000.000 ; restore layer Z
G1 E0.80000 F2100.00000 ; unretract
M204 S800 ; adjust acceleration
G1 F2100
G1 X101.275 Y114.175 E0.28661 ; perimeter
G1 X98.725 Y114.175 E0.06644 ; perimeter
G1 X98.725 Y95.825 E0.47812 ; perimeter
G1 X151.275 Y95.825 E1.36923 ; perimeter
G1 X151.275 Y103.175 E0.19151 ; perimeter
G1 X101.335 Y103.175 E1.30122 ; perimeter
M204 S1000 ; adjust acceleration
