; generated by Slic3r 1.37.2.1-prusa3d-win64 on 2018-02-12 at 09:40:04

; 

; external perimeters extrusion width = 0.45mm
; perimeters extrusion width = 0.45mm
; infill extrusion width = 0.45mm
; solid infill extrusion width = 0.45mm
; top infill extrusion width = 0.40mm
; support material extrusion width = 0.35mm
; first layer extrusion width = 0.42mm

M107 ; disable fan
M115 U3.1.1-RC5 ; tell printer latest fw version
M83  ; extruder relative mode
M104 S215 ; set extruder temp
M140 S60 ; set bed temp
M190 S60 ; wait for bed temp
M109 S215 ; wait for extruder temp
G28 W ; home all without mesh bed level
G80 ; mesh bed leveling
G1 Y-3.0 F1000.0 ; go outside print area
G92 E0.0
G1 X60.0 E9.0  F1000.0 ; intro line
G1 X100.0 E12.5  F1000.0 ; intro line
G92 E0.0
M221 S95
M900 K30
G21 ; set units to millimeters
G90 ; use absolute coordinates
M83 ; use relative distances for extrusion
;BEFORE_LAYER_CHANGE
;0.2


G1 E-0.80000 F2100.00000 ; retract
G1 Z0.600 F12000.000 ; lift Z
;AFTER_LAYER_CHANGE
;0.2
G1 X23.613 Y62.605 F12000.000 ; move to first skirt point
G1 Z0.200 F12000.000 ; restore layer Z
G1 E0.80000 F2100.00000 ; unretract
M204 S1000 ; adjust acceleration
G1 F1800
G1 X24.919 Y61.129 E0.06179 ; skirt
G1 X27.197 Y59.155 E0.09449 ; skirt
G1 X28.060 Y58.572 E0.03267 ; skirt
G1 X28.977 Y58.077 E0.03267 ; skirt
G1 X30.045 Y57.640 E0.03616 ; skirt
G1 X31.154 Y57.325 E0.03616 ; skirt
G1 X32.292 Y57.134 E0.03616 ; skirt
G1 X33.443 Y57.071 E0.03616 ; skirt
G1 X217.491 Y63.179 E5.77386 ; skirt
G1 X218.529 Y63.271 E0.03267 ; skirt
G1 X219.560 Y63.468 E0.03292 ; skirt
G1 X220.567 Y63.768 E0.03292 ; skirt
G1 X221.537 Y64.169 E0.03292 ; skirt
G1 X222.806 Y64.882 E0.04563 ; skirt
G1 X223.962 Y65.766 E0.04563 ; skirt
G1 X225.667 Y67.519 E0.07669 ; skirt
G1 X226.469 Y68.517 E0.04015 ; skirt
G1 X227.206 Y69.726 E0.04438 ; skirt
G1 X227.771 Y71.024 E0.04438 ; skirt
G1 X228.155 Y72.386 E0.04438 ; skirt
G1 X228.350 Y73.796 E0.04463 ; skirt
G1 X228.376 Y144.616 E2.22050 ; skirt
G1 X228.302 Y145.727 E0.03492 ; skirt
G1 X228.109 Y146.824 E0.03492 ; skirt
G1 X227.800 Y147.894 E0.03492 ; skirt
G1 X227.378 Y148.924 E0.03492 ; skirt
G1 X226.677 Y150.172 E0.04488 ; skirt
G1 X225.811 Y151.312 E0.04488 ; skirt
G1 X224.797 Y152.322 E0.04488 ; skirt
G1 X223.653 Y153.183 E0.04488 ; skirt
G1 X222.409 Y153.875 E0.04463 ; skirt
G1 X221.074 Y154.392 E0.04488 ; skirt
G1 X219.681 Y154.721 E0.04488 ; skirt
G1 X218.256 Y154.855 E0.04488 ; skirt
G1 X31.944 Y154.858 E5.84167 ; skirt
G1 X30.817 Y154.790 E0.03542 ; skirt
G1 X29.696 Y154.599 E0.03567 ; skirt
G1 X28.609 Y154.288 E0.03542 ; skirt
G1 X27.556 Y153.858 E0.03567 ; skirt
G1 X26.355 Y153.188 E0.04314 ; skirt
G1 X25.259 Y152.370 E0.04289 ; skirt
G1 X24.274 Y151.409 E0.04314 ; skirt
G1 X23.430 Y150.332 E0.04289 ; skirt
G1 X22.731 Y149.147 E0.04314 ; skirt
G1 X22.198 Y147.888 E0.04289 ; skirt
G1 X21.834 Y146.561 E0.04314 ; skirt
G1 X21.648 Y145.198 E0.04314 ; skirt
G1 X21.642 Y68.087 E2.41776 ; skirt
G1 X21.946 Y66.148 E0.06154 ; skirt
G1 X22.612 Y64.293 E0.06179 ; skirt
G1 X23.582 Y62.656 E0.05966 ; skirt
G1 F9600
G1 X24.919 Y61.129 E-0.42179 ; wipe and retract
G1 F9600
G1 X26.149 Y60.063 E-0.33821 ; wipe and retract
G1 E-0.04000 F2100.00000 ; retract
G1 Z0.800 F12000.000 ; lift Z
G1 X32.051 Y59.401 F12000.000 ; move to first brim point
G1 Z0.200 F12000.000 ; restore layer Z
G1 E0.80000 F2100.00000 ; unretract
G1 F1800
G1 X40.414 Y59.591 E0.26229 ; brim
G1 X218.317 Y65.500 E5.58110 ; brim
G1 X221.301 Y66.374 E0.09748 ; brim
G1 X223.142 Y67.623 E0.06975 ; brim
G1 X224.634 Y69.330 E0.07109 ; brim
G1 X225.640 Y71.370 E0.07130 ; brim
G1 X226.081 Y73.585 E0.07084 ; brim
G1 X226.084 Y145.255 E2.24716 ; brim
G1 X225.194 Y148.351 E0.10099 ; brim
G1 X223.965 Y150.120 E0.06755 ; brim
G1 X222.315 Y151.572 E0.06892 ; brim
G1 X220.417 Y152.515 E0.06644 ; brim
G1 X218.325 Y152.965 E0.06709 ; brim
G1 X129.486 Y152.965 E2.78547 ; brim
G1 X128.174 Y152.814 E0.04143 ; brim
G1 X125.637 Y151.794 E0.08570 ; brim
G1 X123.807 Y150.298 E0.07412 ; brim
G1 X122.481 Y148.484 E0.07044 ; brim
G1 X121.695 Y146.391 E0.07012 ; brim
G1 X121.518 Y139.729 E0.20895 ; brim
G1 X121.415 Y137.496 E0.07008 ; brim
G1 X121.140 Y135.529 E0.06228 ; brim
G1 X120.686 Y133.595 E0.06229 ; brim
G1 X120.054 Y131.712 E0.06229 ; brim
G1 X119.252 Y129.894 E0.06229 ; brim
G1 X118.285 Y128.159 E0.06228 ; brim
G1 X117.163 Y126.520 E0.06229 ; brim
G1 X115.894 Y124.992 E0.06229 ; brim
G1 X114.489 Y123.587 E0.06228 ; brim
G1 X112.961 Y122.318 E0.06228 ; brim
G1 X111.322 Y121.195 E0.06229 ; brim
G1 X109.586 Y120.229 E0.06229 ; brim
G1 X107.769 Y119.426 E0.06229 ; brim
G1 X105.886 Y118.795 E0.06229 ; brim
G1 X103.952 Y118.340 E0.06229 ; brim
G1 X102.017 Y118.070 E0.06126 ; brim
G1 X99.995 Y117.974 E0.06347 ; brim
G1 X98.016 Y118.066 E0.06212 ; brim
G1 X96.048 Y118.340 E0.06229 ; brim
G1 X94.146 Y118.788 E0.06125 ; brim
G1 X92.226 Y119.428 E0.06347 ; brim
G1 X90.414 Y120.229 E0.06213 ; brim
G1 X88.678 Y121.195 E0.06229 ; brim
G1 X87.039 Y122.318 E0.06229 ; brim
G1 X85.511 Y123.587 E0.06228 ; brim
G1 X84.106 Y124.992 E0.06229 ; brim
G1 X82.837 Y126.520 E0.06229 ; brim
G1 X81.715 Y128.159 E0.06229 ; brim
G1 X80.748 Y129.894 E0.06228 ; brim
G1 X79.959 Y131.682 E0.06126 ; brim
G1 X79.313 Y133.600 E0.06347 ; brim
G1 X78.860 Y135.529 E0.06212 ; brim
G1 X78.585 Y137.496 E0.06229 ; brim
G1 X78.482 Y139.719 E0.06975 ; brim
G1 X78.304 Y146.431 E0.21054 ; brim
G1 X77.700 Y148.111 E0.05598 ; brim
G1 X76.730 Y149.691 E0.05815 ; brim
G1 X75.454 Y151.003 E0.05738 ; brim
G1 X73.944 Y152.034 E0.05732 ; brim
G1 X70.815 Y152.965 E0.10235 ; brim
G1 X31.625 Y152.965 E1.22878 ; brim
G1 X28.530 Y152.075 E0.10098 ; brim
G1 X26.761 Y150.845 E0.06755 ; brim
G1 X25.309 Y149.195 E0.06892 ; brim
G1 X24.366 Y147.297 E0.06645 ; brim
G1 X23.916 Y145.203 E0.06716 ; brim
G1 X24.003 Y67.045 E2.45058 ; brim
G1 X24.316 Y65.761 E0.04144 ; brim
G1 X24.808 Y64.542 E0.04124 ; brim
G1 X26.031 Y62.748 E0.06807 ; brim
G1 X28.175 Y60.845 E0.08990 ; brim
G1 X29.828 Y59.959 E0.05879 ; brim
G1 X31.993 Y59.415 E0.06999 ; brim
G1 X32.068 Y59.778 F12000.000 ; move to first brim point
G1 F1800
G1 X40.404 Y59.968 E0.26146 ; brim
G1 X218.281 Y65.877 E5.58027 ; brim
G1 X221.114 Y66.703 E0.09252 ; brim
G1 X222.910 Y67.921 E0.06805 ; brim
G1 X224.334 Y69.558 E0.06802 ; brim
G1 X225.290 Y71.513 E0.06824 ; brim
G1 X225.704 Y73.604 E0.06682 ; brim
G1 X225.707 Y145.229 E2.24576 ; brim
G1 X224.867 Y148.162 E0.09566 ; brim
G1 X223.697 Y149.853 E0.06446 ; brim
G1 X222.123 Y151.246 E0.06590 ; brim
G1 X220.313 Y152.151 E0.06346 ; brim
G1 X218.305 Y152.588 E0.06445 ; brim
G1 X129.497 Y152.588 E2.78449 ; brim
G1 X128.242 Y152.442 E0.03962 ; brim
G1 X125.854 Y151.484 E0.08068 ; brim
G1 X124.064 Y150.021 E0.07247 ; brim
G1 X122.824 Y148.326 E0.06585 ; brim
G1 X122.071 Y146.349 E0.06635 ; brim
G1 X121.895 Y139.715 E0.20805 ; brim
G1 X121.791 Y137.461 E0.07074 ; brim
G1 X121.512 Y135.459 E0.06338 ; brim
G1 X121.049 Y133.492 E0.06338 ; brim
G1 X120.406 Y131.575 E0.06338 ; brim
G1 X119.590 Y129.726 E0.06338 ; brim
G1 X118.606 Y127.960 E0.06338 ; brim
G1 X117.464 Y126.293 E0.06338 ; brim
G1 X116.173 Y124.737 E0.06338 ; brim
G1 X114.743 Y123.308 E0.06338 ; brim
G1 X113.188 Y122.017 E0.06338 ; brim
G1 X111.521 Y120.874 E0.06338 ; brim
G1 X109.755 Y119.891 E0.06338 ; brim
G1 X107.905 Y119.074 E0.06338 ; brim
G1 X105.989 Y118.432 E0.06338 ; brim
G1 X104.021 Y117.969 E0.06338 ; brim
G1 X102.052 Y117.694 E0.06234 ; brim
G1 X99.995 Y117.597 E0.06456 ; brim
G1 X97.981 Y117.690 E0.06322 ; brim
G1 X95.979 Y117.969 E0.06338 ; brim
G1 X94.043 Y118.424 E0.06234 ; brim
G1 X92.090 Y119.076 E0.06456 ; brim
G1 X90.245 Y119.891 E0.06323 ; brim
G1 X88.479 Y120.874 E0.06338 ; brim
G1 X86.812 Y122.017 E0.06338 ; brim
G1 X85.257 Y123.308 E0.06338 ; brim
G1 X83.827 Y124.737 E0.06338 ; brim
G1 X82.536 Y126.293 E0.06338 ; brim
G1 X81.394 Y127.960 E0.06338 ; brim
G1 X80.410 Y129.726 E0.06338 ; brim
G1 X79.607 Y131.545 E0.06234 ; brim
G1 X78.950 Y133.497 E0.06456 ; brim
G1 X78.488 Y135.459 E0.06323 ; brim
G1 X78.209 Y137.461 E0.06338 ; brim
G1 X78.105 Y139.705 E0.07043 ; brim
G1 X77.939 Y146.333 E0.20787 ; brim
G1 X77.368 Y147.932 E0.05322 ; brim
G1 X76.444 Y149.444 E0.05558 ; brim
G1 X75.225 Y150.702 E0.05493 ; brim
G1 X73.756 Y151.706 E0.05579 ; brim
G1 X70.788 Y152.588 E0.09707 ; brim
G1 X31.652 Y152.588 E1.22710 ; brim
G1 X28.719 Y151.747 E0.09566 ; brim
G1 X27.028 Y150.578 E0.06446 ; brim
G1 X25.635 Y149.004 E0.06590 ; brim
G1 X24.729 Y147.194 E0.06347 ; brim
G1 X24.293 Y145.183 E0.06452 ; brim
G1 X24.375 Y67.112 E2.44786 ; brim
G1 X24.670 Y65.889 E0.03944 ; brim
G1 X25.150 Y64.702 E0.04015 ; brim
G1 X26.328 Y62.980 E0.06542 ; brim
G1 X28.408 Y61.142 E0.08702 ; brim
G1 X29.985 Y60.303 E0.05600 ; brim
G1 X32.010 Y59.793 E0.06547 ; brim
G1 X32.085 Y60.156 F12000.000 ; move to first brim point
G1 F1800
G1 X40.395 Y60.345 E0.26063 ; brim
G1 X218.245 Y66.253 E5.57944 ; brim
G1 X220.928 Y67.032 E0.08758 ; brim
G1 X222.642 Y68.189 E0.06485 ; brim
G1 X224.007 Y69.747 E0.06495 ; brim
G1 X224.925 Y71.611 E0.06516 ; brim
G1 X225.327 Y73.622 E0.06430 ; brim
G1 X225.330 Y145.203 E2.24435 ; brim
G1 X224.539 Y147.974 E0.09036 ; brim
G1 X223.429 Y149.587 E0.06138 ; brim
G1 X221.931 Y150.920 E0.06289 ; brim
G1 X220.209 Y151.788 E0.06047 ; brim
G1 X218.284 Y152.211 E0.06179 ; brim
G1 X129.508 Y152.211 E2.78350 ; brim
G1 X128.311 Y152.070 E0.03781 ; brim
G1 X126.070 Y151.174 E0.07567 ; brim
G1 X124.321 Y149.745 E0.07081 ; brim
G1 X123.167 Y148.166 E0.06130 ; brim
G1 X122.447 Y146.306 E0.06256 ; brim
G1 X122.272 Y139.702 E0.20714 ; brim
G1 X122.167 Y137.427 E0.07140 ; brim
G1 X121.883 Y135.390 E0.06447 ; brim
G1 X121.412 Y133.389 E0.06447 ; brim
G1 X120.758 Y131.439 E0.06447 ; brim
G1 X119.928 Y129.558 E0.06447 ; brim
G1 X118.927 Y127.761 E0.06447 ; brim
G1 X117.765 Y126.065 E0.06447 ; brim
G1 X116.452 Y124.483 E0.06447 ; brim
G1 X114.998 Y123.029 E0.06447 ; brim
G1 X113.416 Y121.716 E0.06447 ; brim
G1 X111.719 Y120.553 E0.06447 ; brim
G1 X109.923 Y119.553 E0.06447 ; brim
G1 X108.042 Y118.722 E0.06447 ; brim
G1 X106.092 Y118.069 E0.06447 ; brim
G1 X104.091 Y117.598 E0.06447 ; brim
G1 X102.087 Y117.319 E0.06343 ; brim
G1 X99.995 Y117.219 E0.06566 ; brim
G1 X97.946 Y117.314 E0.06433 ; brim
G1 X95.909 Y117.598 E0.06447 ; brim
G1 X93.940 Y118.061 E0.06343 ; brim
G1 X91.954 Y118.724 E0.06566 ; brim
G1 X90.077 Y119.553 E0.06433 ; brim
G1 X88.281 Y120.553 E0.06447 ; brim
G1 X86.584 Y121.716 E0.06447 ; brim
G1 X85.002 Y123.029 E0.06447 ; brim
G1 X83.548 Y124.483 E0.06447 ; brim
G1 X82.235 Y126.065 E0.06447 ; brim
G1 X81.073 Y127.761 E0.06447 ; brim
G1 X80.072 Y129.558 E0.06447 ; brim
G1 X79.255 Y131.408 E0.06343 ; brim
G1 X78.587 Y133.393 E0.06566 ; brim
G1 X78.117 Y135.390 E0.06433 ; brim
G1 X77.833 Y137.427 E0.06447 ; brim
G1 X77.729 Y139.692 E0.07111 ; brim
G1 X77.573 Y146.235 E0.20522 ; brim
G1 X77.036 Y147.753 E0.05047 ; brim
G1 X76.158 Y149.198 E0.05301 ; brim
G1 X74.995 Y150.403 E0.05252 ; brim
G1 X73.619 Y151.354 E0.05245 ; brim
G1 X70.760 Y152.211 E0.09356 ; brim
G1 X31.678 Y152.211 E1.22541 ; brim
G1 X28.907 Y151.419 E0.09035 ; brim
G1 X27.294 Y150.310 E0.06138 ; brim
G1 X25.960 Y148.812 E0.06289 ; brim
G1 X25.092 Y147.089 E0.06048 ; brim
G1 X24.670 Y145.163 E0.06185 ; brim
G1 X24.747 Y67.179 E2.44512 ; brim
G1 X25.034 Y65.992 E0.03830 ; brim
G1 X25.491 Y64.863 E0.03819 ; brim
G1 X26.626 Y63.213 E0.06277 ; brim
G1 X28.640 Y61.440 E0.08414 ; brim
G1 X30.141 Y60.647 E0.05323 ; brim
G1 X32.027 Y60.170 E0.06098 ; brim
G1 X32.102 Y60.533 F12000.000 ; move to first brim point
G1 F1800
G1 X40.385 Y60.722 E0.25979 ; brim
G1 X218.209 Y66.629 E5.57862 ; brim
G1 X220.742 Y67.361 E0.08267 ; brim
G1 X222.376 Y68.456 E0.06166 ; brim
G1 X223.680 Y69.938 E0.06189 ; brim
G1 X224.561 Y71.711 E0.06207 ; brim
G1 X224.950 Y73.641 E0.06175 ; brim
G1 X224.953 Y145.177 E2.24294 ; brim
G1 X224.210 Y147.785 E0.08505 ; brim
G1 X223.132 Y149.354 E0.05969 ; brim
G1 X221.700 Y150.622 E0.05997 ; brim
G1 X220.104 Y151.425 E0.05601 ; brim
G1 X218.263 Y151.834 E0.05913 ; brim
G1 X129.520 Y151.834 E2.78249 ; brim
G1 X128.380 Y151.699 E0.03600 ; brim
G1 X126.286 Y150.863 E0.07067 ; brim
G1 X124.578 Y149.468 E0.06915 ; brim
G1 X123.509 Y148.005 E0.05681 ; brim
G1 X122.823 Y146.262 E0.05873 ; brim
G1 X122.649 Y139.688 E0.20621 ; brim
G1 X122.543 Y137.392 E0.07207 ; brim
G1 X122.254 Y135.321 E0.06556 ; brim
G1 X121.775 Y133.285 E0.06556 ; brim
G1 X121.110 Y131.303 E0.06556 ; brim
G1 X120.266 Y129.390 E0.06557 ; brim
G1 X119.248 Y127.563 E0.06556 ; brim
G1 X118.066 Y125.838 E0.06557 ; brim
G1 X116.730 Y124.229 E0.06557 ; brim
G1 X115.252 Y122.750 E0.06556 ; brim
G1 X113.643 Y121.414 E0.06556 ; brim
G1 X111.918 Y120.233 E0.06557 ; brim
G1 X110.091 Y119.215 E0.06557 ; brim
G1 X108.178 Y118.370 E0.06556 ; brim
G1 X106.195 Y117.706 E0.06556 ; brim
G1 X104.160 Y117.227 E0.06557 ; brim
G1 X102.122 Y116.943 E0.06451 ; brim
G1 X99.996 Y116.842 E0.06675 ; brim
G1 X97.911 Y116.938 E0.06543 ; brim
G1 X95.840 Y117.227 E0.06557 ; brim
G1 X93.837 Y117.698 E0.06451 ; brim
G1 X91.818 Y118.372 E0.06675 ; brim
G1 X89.909 Y119.215 E0.06543 ; brim
G1 X88.082 Y120.233 E0.06556 ; brim
G1 X86.357 Y121.414 E0.06557 ; brim
G1 X84.748 Y122.750 E0.06556 ; brim
G1 X83.270 Y124.229 E0.06557 ; brim
G1 X81.934 Y125.838 E0.06557 ; brim
G1 X80.752 Y127.563 E0.06557 ; brim
G1 X79.734 Y129.390 E0.06556 ; brim
G1 X78.903 Y131.272 E0.06451 ; brim
G1 X78.224 Y133.290 E0.06675 ; brim
G1 X77.746 Y135.321 E0.06543 ; brim
G1 X77.457 Y137.392 E0.06557 ; brim
G1 X77.352 Y139.679 E0.07180 ; brim
G1 X77.208 Y146.139 E0.20258 ; brim
G1 X76.703 Y147.574 E0.04770 ; brim
G1 X75.847 Y148.984 E0.05171 ; brim
G1 X74.738 Y150.127 E0.04994 ; brim
G1 X73.429 Y151.026 E0.04978 ; brim
G1 X70.733 Y151.834 E0.08825 ; brim
G1 X31.704 Y151.834 E1.22373 ; brim
G1 X29.095 Y151.091 E0.08504 ; brim
G1 X27.527 Y150.012 E0.05968 ; brim
G1 X26.259 Y148.580 E0.05997 ; brim
G1 X25.455 Y146.985 E0.05602 ; brim
G1 X25.047 Y145.142 E0.05918 ; brim
G1 X25.119 Y67.245 E2.44240 ; brim
G1 X25.388 Y66.120 E0.03628 ; brim
G1 X25.833 Y65.024 E0.03709 ; brim
G1 X26.922 Y63.447 E0.06009 ; brim
G1 X28.872 Y61.739 E0.08126 ; brim
G1 X30.296 Y60.991 E0.05045 ; brim
G1 X32.044 Y60.548 E0.05652 ; brim
G1 X32.119 Y60.911 F12000.000 ; move to first brim point
G1 F1800
G1 X40.376 Y61.099 E0.25895 ; brim
G1 X218.173 Y67.005 E5.57780 ; brim
G1 X220.558 Y67.691 E0.07779 ; brim
G1 X222.110 Y68.725 E0.05848 ; brim
G1 X223.354 Y70.129 E0.05882 ; brim
G1 X224.196 Y71.811 E0.05897 ; brim
G1 X224.573 Y73.660 E0.05919 ; brim
G1 X224.576 Y145.151 E2.24152 ; brim
G1 X223.882 Y147.598 E0.07977 ; brim
G1 X222.863 Y149.088 E0.05659 ; brim
G1 X221.507 Y150.297 E0.05697 ; brim
G1 X219.998 Y151.063 E0.05304 ; brim
G1 X218.242 Y151.457 E0.05643 ; brim
G1 X129.531 Y151.457 E2.78148 ; brim
G1 X128.449 Y151.327 E0.03418 ; brim
G1 X126.502 Y150.553 E0.06568 ; brim
G1 X124.836 Y149.191 E0.06749 ; brim
G1 X123.850 Y147.843 E0.05237 ; brim
G1 X123.199 Y146.218 E0.05487 ; brim
G1 X123.026 Y139.674 E0.20526 ; brim
G1 X122.918 Y137.357 E0.07273 ; brim
G1 X122.625 Y135.251 E0.06666 ; brim
G1 X122.138 Y133.182 E0.06666 ; brim
G1 X121.462 Y131.166 E0.06666 ; brim
G1 X120.604 Y129.221 E0.06666 ; brim
G1 X119.569 Y127.364 E0.06666 ; brim
G1 X118.368 Y125.610 E0.06666 ; brim
G1 X117.009 Y123.975 E0.06666 ; brim
G1 X115.506 Y122.471 E0.06666 ; brim
G1 X113.871 Y121.113 E0.06666 ; brim
G1 X112.117 Y119.912 E0.06666 ; brim
G1 X110.259 Y118.877 E0.06666 ; brim
G1 X108.315 Y118.018 E0.06666 ; brim
G1 X106.299 Y117.343 E0.06666 ; brim
G1 X104.229 Y116.856 E0.06666 ; brim
G1 X102.157 Y116.567 E0.06560 ; brim
G1 X99.996 Y116.464 E0.06784 ; brim
G1 X97.876 Y116.562 E0.06653 ; brim
G1 X95.771 Y116.856 E0.06666 ; brim
G1 X93.734 Y117.335 E0.06560 ; brim
G1 X91.682 Y118.020 E0.06784 ; brim
G1 X89.741 Y118.877 E0.06653 ; brim
G1 X87.883 Y119.912 E0.06666 ; brim
G1 X86.129 Y121.113 E0.06666 ; brim
G1 X84.494 Y122.471 E0.06666 ; brim
G1 X82.991 Y123.975 E0.06666 ; brim
G1 X81.632 Y125.610 E0.06666 ; brim
