; generated by Slic3r 1.37.2.1-prusa3d-win64 on 2018-05-07 at 18:22:42

; 

; external perimeters extrusion width = 0.45mm
; perimeters extrusion width = 0.45mm
; infill extrusion width = 0.45mm
; solid infill extrusion width = 0.45mm
; top infill extrusion width = 0.40mm
; first layer extrusion width = 0.42mm

M107 ; disable fan
M115 U3.1.1-RC5 ; tell printer latest fw version
M83  ; extruder relative mode
M104 S215 ; set extruder temp
M140 S60 ; set bed temp
M190 S60 ; wait for bed temp
M109 S215 ; wait for extruder temp
G28 W ; home all without mesh bed level
G80 ; mesh bed leveling
G1 Y-3.0 F1000.0 ; go outside print area
G92 E0.0
G1 X60.0 E9.0  F1000.0 ; intro line
G1 X100.0 E12.5  F1000.0 ; intro line
G92 E0.0
M221 S95
M900 K30
G21 ; set units to millimeters
G90 ; use absolute coordinates
M83 ; use relative distances for extrusion
;BEFORE_LAYER_CHANGE
;0.2


G1 E-0.80000 F2100.00000 ; retract
G1 Z0.600 F12000.000 ; lift Z
;AFTER_LAYER_CHANGE
;0.2
G1 X27.642 Y56.102 F12000.000 ; move to first skirt point
G1 Z0.200 F12000.000 ; restore layer Z
G1 E0.80000 F2100.00000 ; unretract
M204 S1000 ; adjust acceleration
G1 F1800
G1 X28.668 Y55.692 E0.03467 ; skirt
G1 X29.741 Y55.391 E0.03492 ; skirt
G1 X30.839 Y55.207 E0.03492 ; skirt
G1 X31.951 Y55.142 E0.03492 ; skirt
G1 X218.008 Y55.142 E5.83369 ; skirt
G1 X219.977 Y55.332 E0.06204 ; skirt
G1 X221.882 Y55.896 E0.06229 ; skirt
G1 X223.645 Y56.812 E0.06229 ; skirt
G1 X225.201 Y58.047 E0.06229 ; skirt
G1 X226.488 Y59.550 E0.06204 ; skirt
G1 X227.470 Y61.277 E0.06229 ; skirt
G1 X228.105 Y63.159 E0.06229 ; skirt
G1 X228.370 Y65.128 E0.06229 ; skirt
G1 X228.336 Y136.374 E2.23387 ; skirt
G1 X228.122 Y137.765 E0.04413 ; skirt
G1 X227.724 Y139.107 E0.04388 ; skirt
G1 X227.149 Y140.383 E0.04388 ; skirt
G1 X226.402 Y141.577 E0.04413 ; skirt
G1 X225.627 Y142.525 E0.03841 ; skirt
G1 X223.903 Y144.286 E0.07725 ; skirt
G1 X222.734 Y145.165 E0.04588 ; skirt
G1 X221.460 Y145.867 E0.04563 ; skirt
G1 X220.508 Y146.252 E0.03218 ; skirt
G1 X219.524 Y146.541 E0.03218 ; skirt
G1 X218.515 Y146.731 E0.03218 ; skirt
G1 X217.493 Y146.821 E0.03218 ; skirt
G1 X33.422 Y152.929 E5.77459 ; skirt
G1 X31.900 Y152.815 E0.04787 ; skirt
G1 X30.403 Y152.476 E0.04812 ; skirt
G1 X28.980 Y151.924 E0.04787 ; skirt
G1 X27.646 Y151.164 E0.04812 ; skirt
G1 X26.624 Y150.380 E0.04040 ; skirt
G1 X24.354 Y148.301 E0.09651 ; skirt
G1 X23.368 Y147.044 E0.05011 ; skirt
G1 X22.582 Y145.643 E0.05035 ; skirt
G1 X22.177 Y144.631 E0.03417 ; skirt
G1 X21.879 Y143.575 E0.03442 ; skirt
G1 X21.694 Y142.501 E0.03417 ; skirt
G1 X21.624 Y141.405 E0.03442 ; skirt
G1 X21.640 Y64.931 E2.39781 ; skirt
G1 X21.813 Y63.542 E0.04388 ; skirt
G1 X22.172 Y62.189 E0.04388 ; skirt
G1 X22.709 Y60.897 E0.04388 ; skirt
G1 X23.416 Y59.689 E0.04388 ; skirt
G1 X24.279 Y58.586 E0.04388 ; skirt
G1 X25.282 Y57.610 E0.04388 ; skirt
G1 X26.414 Y56.774 E0.04413 ; skirt
G1 X27.589 Y56.131 E0.04200 ; skirt
G1 F9600
G1 X28.668 Y55.692 E-0.24216 ; wipe and retract
G1 F9600
G1 X29.741 Y55.391 E-0.23143 ; wipe and retract
G1 F9600
G1 X30.839 Y55.207 E-0.23143 ; wipe and retract
G1 F9600
G1 X31.103 Y55.192 E-0.05498 ; wipe and retract
G1 E-0.04000 F2100.00000 ; retract
G1 Z0.800 F12000.000 ; lift Z
G1 X24.708 Y61.858 F12000.000 ; move to first brim point
G1 Z0.200 F12000.000 ; restore layer Z
G1 E0.80000 F2100.00000 ; unretract
G1 F1800
G1 X25.945 Y59.986 E0.07036 ; brim
G1 X27.570 Y58.506 E0.06890 ; brim
G1 X29.543 Y57.500 E0.06944 ; brim
G1 X31.675 Y57.035 E0.06843 ; brim
G1 X70.714 Y57.039 E1.22405 ; brim
G1 X72.899 Y57.510 E0.07008 ; brim
G1 X74.880 Y58.543 E0.07005 ; brim
G1 X76.698 Y60.275 E0.07873 ; brim
G1 X77.756 Y61.996 E0.06334 ; brim
G1 X78.412 Y64.257 E0.07384 ; brim
G1 X78.483 Y70.288 E0.18910 ; brim
G1 X78.585 Y72.504 E0.06955 ; brim
G1 X78.860 Y74.471 E0.06229 ; brim
G1 X79.314 Y76.405 E0.06229 ; brim
G1 X79.946 Y78.288 E0.06229 ; brim
G1 X80.748 Y80.106 E0.06229 ; brim
G1 X81.699 Y81.812 E0.06126 ; brim
G1 X82.841 Y83.484 E0.06347 ; brim
G1 X84.106 Y85.008 E0.06212 ; brim
G1 X85.511 Y86.413 E0.06229 ; brim
G1 X87.039 Y87.682 E0.06228 ; brim
G1 X88.651 Y88.786 E0.06126 ; brim
G1 X90.418 Y89.773 E0.06347 ; brim
G1 X92.231 Y90.574 E0.06212 ; brim
G1 X94.114 Y91.205 E0.06229 ; brim
G1 X96.048 Y91.660 E0.06229 ; brim
G1 X98.016 Y91.934 E0.06229 ; brim
G1 X100.000 Y92.026 E0.06229 ; brim
G1 X101.984 Y91.934 E0.06229 ; brim
G1 X103.952 Y91.660 E0.06229 ; brim
G1 X105.886 Y91.205 E0.06229 ; brim
G1 X107.769 Y90.574 E0.06228 ; brim
G1 X109.586 Y89.771 E0.06229 ; brim
G1 X111.322 Y88.805 E0.06229 ; brim
G1 X112.934 Y87.701 E0.06126 ; brim
G1 X114.493 Y86.409 E0.06347 ; brim
G1 X115.894 Y85.008 E0.06212 ; brim
G1 X117.163 Y83.480 E0.06229 ; brim
G1 X118.285 Y81.841 E0.06229 ; brim
G1 X119.252 Y80.106 E0.06228 ; brim
G1 X120.041 Y78.318 E0.06126 ; brim
G1 X120.687 Y76.400 E0.06347 ; brim
G1 X121.140 Y74.471 E0.06212 ; brim
G1 X121.415 Y72.504 E0.06229 ; brim
G1 X121.517 Y70.301 E0.06915 ; brim
G1 X121.564 Y64.406 E0.18482 ; brim
G1 X122.075 Y62.398 E0.06498 ; brim
G1 X123.243 Y60.346 E0.07402 ; brim
G1 X124.925 Y58.678 E0.07427 ; brim
G1 X128.035 Y57.216 E0.10776 ; brim
G1 X129.473 Y57.035 E0.04546 ; brim
G1 X218.425 Y57.035 E2.78900 ; brim
G1 X221.912 Y58.157 E0.11486 ; brim
G1 X223.415 Y59.327 E0.05972 ; brim
G1 X224.895 Y61.110 E0.07267 ; brim
G1 X225.642 Y62.735 E0.05607 ; brim
G1 X226.084 Y64.795 E0.06605 ; brim
G1 X226.081 Y136.592 E2.25114 ; brim
G1 X224.936 Y140.227 E0.11950 ; brim
G1 X223.852 Y141.636 E0.05574 ; brim
G1 X221.918 Y143.293 E0.07985 ; brim
G1 X220.132 Y144.105 E0.06152 ; brim
G1 X218.235 Y144.502 E0.06076 ; brim
G1 X32.578 Y150.669 E5.82437 ; brim
G1 X28.776 Y149.559 E0.12418 ; brim
G1 X27.487 Y148.623 E0.04995 ; brim
G1 X25.570 Y146.706 E0.08500 ; brim
G1 X24.966 Y145.743 E0.03565 ; brim
G1 X24.472 Y144.705 E0.03604 ; brim
G1 X23.916 Y142.161 E0.08164 ; brim
G1 X23.916 Y64.738 E2.42755 ; brim
G1 X24.692 Y61.916 E0.09177 ; brim
G1 X25.040 Y62.040 F12000.000 ; move to first brim point
G1 F1800
G1 X26.217 Y60.248 E0.06725 ; brim
G1 X27.765 Y58.830 E0.06581 ; brim
G1 X29.648 Y57.863 E0.06637 ; brim
G1 X31.696 Y57.412 E0.06574 ; brim
G1 X70.694 Y57.416 E1.22276 ; brim
G1 X72.794 Y57.873 E0.06738 ; brim
G1 X74.681 Y58.864 E0.06684 ; brim
G1 X76.420 Y60.530 E0.07549 ; brim
G1 X77.421 Y62.170 E0.06028 ; brim
G1 X78.035 Y64.287 E0.06911 ; brim
G1 X78.106 Y70.299 E0.18850 ; brim
G1 X78.209 Y72.539 E0.07030 ; brim
G1 X78.488 Y74.541 E0.06338 ; brim
G1 X78.951 Y76.508 E0.06338 ; brim
G1 X79.594 Y78.425 E0.06338 ; brim
G1 X80.410 Y80.274 E0.06338 ; brim
G1 X81.378 Y82.011 E0.06234 ; brim
G1 X82.539 Y83.711 E0.06456 ; brim
G1 X83.827 Y85.263 E0.06323 ; brim
G1 X85.257 Y86.692 E0.06338 ; brim
G1 X86.812 Y87.983 E0.06338 ; brim
G1 X88.452 Y89.107 E0.06234 ; brim
G1 X90.250 Y90.111 E0.06457 ; brim
G1 X92.095 Y90.926 E0.06322 ; brim
G1 X94.011 Y91.568 E0.06338 ; brim
G1 X95.979 Y92.031 E0.06338 ; brim
G1 X97.981 Y92.310 E0.06338 ; brim
G1 X100.000 Y92.403 E0.06338 ; brim
G1 X102.019 Y92.310 E0.06338 ; brim
G1 X104.021 Y92.031 E0.06338 ; brim
G1 X105.989 Y91.568 E0.06338 ; brim
G1 X107.905 Y90.926 E0.06338 ; brim
G1 X109.755 Y90.109 E0.06338 ; brim
G1 X111.521 Y89.126 E0.06338 ; brim
G1 X113.161 Y88.002 E0.06234 ; brim
G1 X114.747 Y86.688 E0.06456 ; brim
G1 X116.173 Y85.263 E0.06322 ; brim
G1 X117.464 Y83.707 E0.06338 ; brim
G1 X118.606 Y82.040 E0.06338 ; brim
G1 X119.590 Y80.274 E0.06338 ; brim
G1 X120.393 Y78.455 E0.06234 ; brim
G1 X121.050 Y76.503 E0.06456 ; brim
G1 X121.512 Y74.541 E0.06322 ; brim
G1 X121.791 Y72.539 E0.06338 ; brim
G1 X121.894 Y70.311 E0.06992 ; brim
G1 X121.941 Y64.432 E0.18434 ; brim
G1 X122.415 Y62.562 E0.06048 ; brim
G1 X123.557 Y60.556 E0.07240 ; brim
G1 X125.167 Y58.970 E0.07084 ; brim
G1 X128.112 Y57.586 E0.10203 ; brim
G1 X129.485 Y57.412 E0.04342 ; brim
G1 X218.395 Y57.412 E2.78770 ; brim
G1 X221.707 Y58.475 E0.10906 ; brim
G1 X223.139 Y59.584 E0.05678 ; brim
G1 X224.563 Y61.291 E0.06972 ; brim
G1 X225.278 Y62.836 E0.05335 ; brim
G1 X225.707 Y64.815 E0.06351 ; brim
G1 X225.704 Y136.563 E2.24961 ; brim
G1 X224.617 Y140.024 E0.11375 ; brim
G1 X223.590 Y141.363 E0.05290 ; brim
G1 X221.736 Y142.961 E0.07675 ; brim
G1 X220.033 Y143.740 E0.05872 ; brim
G1 X218.206 Y144.126 E0.05855 ; brim
G1 X32.595 Y150.292 E5.82291 ; brim
G1 X28.971 Y149.234 E0.11837 ; brim
G1 X27.742 Y148.346 E0.04755 ; brim
G1 X25.878 Y146.487 E0.08253 ; brim
G1 X25.291 Y145.552 E0.03463 ; brim
G1 X24.822 Y144.563 E0.03432 ; brim
G1 X24.293 Y142.141 E0.07773 ; brim
G1 X24.293 Y64.763 E2.42612 ; brim
G1 X25.024 Y62.098 E0.08665 ; brim
G1 X25.387 Y62.199 F12000.000 ; move to first brim point
G1 F1800
G1 X26.518 Y60.476 E0.06462 ; brim
G1 X28.000 Y59.125 E0.06286 ; brim
G1 X29.754 Y58.226 E0.06180 ; brim
G1 X31.717 Y57.789 E0.06305 ; brim
G1 X70.674 Y57.793 E1.22148 ; brim
G1 X72.641 Y58.219 E0.06311 ; brim
G1 X74.482 Y59.186 E0.06519 ; brim
G1 X76.140 Y60.784 E0.07221 ; brim
G1 X77.086 Y62.344 E0.05722 ; brim
G1 X77.659 Y64.317 E0.06441 ; brim
G1 X77.729 Y70.310 E0.18790 ; brim
G1 X77.833 Y72.573 E0.07105 ; brim
G1 X78.117 Y74.610 E0.06447 ; brim
G1 X78.588 Y76.611 E0.06447 ; brim
G1 X79.242 Y78.561 E0.06447 ; brim
G1 X80.072 Y80.442 E0.06447 ; brim
G1 X81.057 Y82.209 E0.06343 ; brim
G1 X82.238 Y83.939 E0.06566 ; brim
G1 X83.548 Y85.517 E0.06433 ; brim
G1 X85.002 Y86.971 E0.06447 ; brim
G1 X86.584 Y88.284 E0.06447 ; brim
G1 X88.253 Y89.428 E0.06343 ; brim
G1 X90.081 Y90.449 E0.06566 ; brim
G1 X91.958 Y91.278 E0.06433 ; brim
G1 X93.908 Y91.931 E0.06447 ; brim
G1 X95.909 Y92.402 E0.06447 ; brim
G1 X97.946 Y92.686 E0.06447 ; brim
G1 X100.000 Y92.781 E0.06447 ; brim
G1 X102.054 Y92.686 E0.06447 ; brim
G1 X104.091 Y92.402 E0.06447 ; brim
G1 X106.092 Y91.931 E0.06447 ; brim
G1 X108.042 Y91.278 E0.06447 ; brim
G1 X109.923 Y90.447 E0.06447 ; brim
G1 X111.719 Y89.447 E0.06447 ; brim
G1 X113.388 Y88.303 E0.06343 ; brim
G1 X115.001 Y86.968 E0.06566 ; brim
G1 X116.452 Y85.517 E0.06432 ; brim
G1 X117.765 Y83.935 E0.06447 ; brim
G1 X118.927 Y82.239 E0.06447 ; brim
G1 X119.928 Y80.442 E0.06447 ; brim
G1 X120.745 Y78.592 E0.06343 ; brim
G1 X121.413 Y76.607 E0.06566 ; brim
G1 X121.883 Y74.610 E0.06433 ; brim
G1 X122.167 Y72.573 E0.06447 ; brim
G1 X122.271 Y70.321 E0.07069 ; brim
G1 X122.317 Y64.457 E0.18386 ; brim
G1 X122.756 Y62.726 E0.05601 ; brim
G1 X123.841 Y60.805 E0.06916 ; brim
G1 X125.408 Y59.261 E0.06900 ; brim
G1 X128.189 Y57.957 E0.09630 ; brim
G1 X129.498 Y57.789 E0.04137 ; brim
G1 X218.366 Y57.789 E2.78641 ; brim
G1 X221.503 Y58.794 E0.10329 ; brim
G1 X222.864 Y59.842 E0.05385 ; brim
G1 X224.232 Y61.474 E0.06676 ; brim
G1 X224.914 Y62.937 E0.05063 ; brim
G1 X225.330 Y64.836 E0.06094 ; brim
G1 X225.327 Y136.535 E2.24806 ; brim
G1 X224.297 Y139.822 E0.10801 ; brim
G1 X223.328 Y141.091 E0.05006 ; brim
G1 X221.554 Y142.630 E0.07365 ; brim
G1 X219.934 Y143.376 E0.05592 ; brim
G1 X218.177 Y143.750 E0.05633 ; brim
G1 X32.612 Y149.914 E5.82144 ; brim
G1 X29.165 Y148.909 E0.11258 ; brim
G1 X27.997 Y148.067 E0.04515 ; brim
G1 X26.186 Y146.268 E0.08006 ; brim
G1 X25.627 Y145.380 E0.03290 ; brim
G1 X25.172 Y144.420 E0.03330 ; brim
G1 X24.670 Y142.120 E0.07381 ; brim
G1 X24.670 Y64.789 E2.42468 ; brim
G1 X25.371 Y62.256 E0.08239 ; brim
G1 X25.726 Y62.354 F12000.000 ; move to first brim point
G1 F1800
G1 X26.791 Y60.738 E0.06070 ; brim
G1 X28.196 Y59.449 E0.05979 ; brim
G1 X29.861 Y58.588 E0.05875 ; brim
G1 X31.738 Y58.166 E0.06032 ; brim
G1 X70.653 Y58.170 E1.22017 ; brim
G1 X72.535 Y58.582 E0.06039 ; brim
G1 X74.281 Y59.506 E0.06195 ; brim
G1 X75.859 Y61.037 E0.06894 ; brim
G1 X76.750 Y62.518 E0.05418 ; brim
G1 X77.282 Y64.347 E0.05974 ; brim
G1 X77.352 Y70.321 E0.18730 ; brim
G1 X77.457 Y72.608 E0.07180 ; brim
G1 X77.746 Y74.679 E0.06557 ; brim
G1 X78.225 Y76.715 E0.06556 ; brim
G1 X78.890 Y78.697 E0.06557 ; brim
G1 X79.734 Y80.610 E0.06556 ; brim
G1 X80.736 Y82.408 E0.06451 ; brim
G1 X81.936 Y84.166 E0.06675 ; brim
G1 X83.269 Y85.771 E0.06543 ; brim
G1 X84.748 Y87.250 E0.06557 ; brim
G1 X86.357 Y88.586 E0.06556 ; brim
G1 X88.054 Y89.748 E0.06451 ; brim
G1 X89.913 Y90.787 E0.06675 ; brim
G1 X91.822 Y91.630 E0.06543 ; brim
G1 X93.805 Y92.294 E0.06557 ; brim
G1 X95.840 Y92.773 E0.06557 ; brim
G1 X97.911 Y93.062 E0.06556 ; brim
G1 X100.000 Y93.158 E0.06557 ; brim
G1 X102.089 Y93.062 E0.06557 ; brim
G1 X104.160 Y92.773 E0.06557 ; brim
G1 X106.195 Y92.294 E0.06557 ; brim
G1 X108.178 Y91.630 E0.06556 ; brim
G1 X110.091 Y90.785 E0.06556 ; brim
G1 X111.918 Y89.767 E0.06557 ; brim
G1 X113.615 Y88.605 E0.06451 ; brim
G1 X115.255 Y87.247 E0.06675 ; brim
G1 X116.730 Y85.771 E0.06543 ; brim
G1 X118.066 Y84.162 E0.06557 ; brim
G1 X119.248 Y82.437 E0.06557 ; brim
G1 X120.266 Y80.610 E0.06556 ; brim
G1 X121.097 Y78.728 E0.06451 ; brim
G1 X121.776 Y76.710 E0.06675 ; brim
G1 X122.254 Y74.679 E0.06543 ; brim
G1 X122.543 Y72.608 E0.06556 ; brim
G1 X122.648 Y70.331 E0.07147 ; brim
G1 X122.694 Y64.483 E0.18338 ; brim
G1 X123.097 Y62.888 E0.05158 ; brim
G1 X124.125 Y61.055 E0.06589 ; brim
G1 X125.650 Y59.552 E0.06714 ; brim
G1 X128.266 Y58.327 E0.09058 ; brim
G1 X129.510 Y58.166 E0.03931 ; brim
G1 X218.337 Y58.166 E2.78511 ; brim
G1 X221.300 Y59.113 E0.09753 ; brim
G1 X222.589 Y60.102 E0.05093 ; brim
G1 X223.902 Y61.657 E0.06381 ; brim
G1 X224.551 Y63.039 E0.04790 ; brim
G1 X224.953 Y64.857 E0.05835 ; brim
G1 X224.950 Y136.506 E2.24652 ; brim
G1 X223.976 Y139.620 E0.10230 ; brim
G1 X223.067 Y140.819 E0.04720 ; brim
G1 X221.327 Y142.327 E0.07217 ; brim
G1 X219.797 Y143.024 E0.05273 ; brim
G1 X218.148 Y143.373 E0.05285 ; brim
G1 X32.630 Y149.536 E5.81999 ; brim
G1 X29.359 Y148.584 E0.10681 ; brim
G1 X28.252 Y147.789 E0.04275 ; brim
G1 X26.493 Y146.049 E0.07756 ; brim
G1 X25.952 Y145.189 E0.03185 ; brim
G1 X25.522 Y144.279 E0.03156 ; brim
G1 X25.047 Y142.100 E0.06991 ; brim
G1 X25.047 Y64.814 E2.42325 ; brim
G1 X25.710 Y62.412 E0.07813 ; brim
G1 X26.073 Y62.513 F12000.000 ; move to first brim point
G1 F1800
G1 X27.091 Y60.966 E0.05807 ; brim
G1 X28.431 Y59.744 E0.05686 ; brim
G1 X30.011 Y58.935 E0.05566 ; brim
G1 X31.758 Y58.543 E0.05615 ; brim
G1 X70.632 Y58.547 E1.21887 ; brim
G1 X72.428 Y58.944 E0.05765 ; brim
G1 X74.079 Y59.826 E0.05870 ; brim
G1 X75.578 Y61.289 E0.06568 ; brim
G1 X76.414 Y62.690 E0.05115 ; brim
G1 X76.905 Y64.377 E0.05511 ; brim
G1 X76.975 Y70.332 E0.18670 ; brim
G1 X77.082 Y72.643 E0.07255 ; brim
G1 X77.375 Y74.749 E0.06666 ; brim
G1 X77.862 Y76.818 E0.06666 ; brim
G1 X78.538 Y78.834 E0.06666 ; brim
G1 X79.396 Y80.779 E0.06666 ; brim
G1 X80.414 Y82.606 E0.06560 ; brim
G1 X81.635 Y84.393 E0.06784 ; brim
G1 X82.991 Y86.025 E0.06653 ; brim
G1 X84.494 Y87.529 E0.06666 ; brim
G1 X86.129 Y88.887 E0.06666 ; brim
G1 X87.855 Y90.069 E0.06560 ; brim
G1 X89.744 Y91.125 E0.06784 ; brim
G1 X91.685 Y91.982 E0.06653 ; brim
G1 X93.701 Y92.657 E0.06666 ; brim
G1 X95.771 Y93.144 E0.06666 ; brim
G1 X97.876 Y93.438 E0.06666 ; brim
G1 X100.000 Y93.536 E0.06666 ; brim
G1 X102.124 Y93.438 E0.06666 ; brim
G1 X104.229 Y93.144 E0.06666 ; brim
G1 X106.299 Y92.657 E0.06666 ; brim
G1 X108.315 Y91.982 E0.06666 ; brim
G1 X110.259 Y91.123 E0.06666 ; brim
G1 X112.117 Y90.088 E0.06666 ; brim
G1 X113.843 Y88.906 E0.06560 ; brim
G1 X115.509 Y87.526 E0.06784 ; brim
G1 X117.009 Y86.026 E0.06653 ; brim
G1 X118.368 Y84.390 E0.06666 ; brim
G1 X119.569 Y82.636 E0.06666 ; brim
G1 X120.604 Y80.779 E0.06666 ; brim
G1 X121.449 Y78.865 E0.06560 ; brim
G1 X122.139 Y76.814 E0.06784 ; brim
G1 X122.625 Y74.749 E0.06653 ; brim
G1 X122.918 Y72.643 E0.06666 ; brim
G1 X123.025 Y70.341 E0.07224 ; brim
G1 X123.071 Y64.509 E0.18287 ; brim
G1 X123.456 Y63.006 E0.04865 ; brim
G1 X124.440 Y61.264 E0.06272 ; brim
G1 X125.891 Y59.844 E0.06367 ; brim
G1 X128.344 Y58.697 E0.08491 ; brim
G1 X129.522 Y58.543 E0.03726 ; brim
G1 X218.308 Y58.543 E2.78381 ; brim
G1 X221.097 Y59.433 E0.09180 ; brim
G1 X222.315 Y60.362 E0.04802 ; brim
G1 X223.572 Y61.841 E0.06086 ; brim
G1 X224.188 Y63.143 E0.04516 ; brim
G1 X224.576 Y64.878 E0.05574 ; brim
G1 X224.573 Y136.477 E2.24497 ; brim
G1 X223.656 Y139.419 E0.09662 ; brim
